assets/luts/bw-high-contrast.cube
# montage LUT: bw-high-contrast — 黑白高反差（黑白片）（原创，MIT）
TITLE "montage black-white high contrast"
LUT_3D_SIZE 17
DOMAIN_MIN 0.0 0.0 0.0
DOMAIN_MAX 1.0 1.0 1.0
0.000000 0.000000 0.000000
0.000000 0.000000 0.000000
0.000000 0.000000 0.000000
0.000000 0.000000 0.000000
0.000000 0.000000 0.000000
0.000000 0.000000 0.000000
0.000000 0.000000 0.000000
0.000000 0.000000 0.000000
0.000000 0.000000 0.000000
0.000000 0.000000 0.000000
0.000000 0.000000 0.000000
0.000000 0.000000 0.000000
0.000000 0.000000 0.000000
0.000000 0.000000 0.000000
0.000000 0.000000 0.000000
0.000000 0.000000 0.000000
0.000000 0.000000 0.000000
0.000000 0.000000 0.000000
0.000000 0.000000 0.000000
0.000000 0.000000 0.000000
0.000000 0.000000 0.000000
0.000000 0.000000 0.000000
0.000000 0.000000 0.000000
0.000000 0.000000 0.000000
0.000000 0.000000 0.000000
0.000000 0.000000 0.000000
0.000000 0.000000 0.000000
0.000000 0.000000 0.000000
0.000000 0.000000 0.000000
0.000000 0.000000 0.000000
0.000000 0.000000 0.000000
0.000000 0.000000 0.000000
0.000000 0.000000 0.000000
0.000000 0.000000 0.000000
0.000000 0.000000 0.000000
0.000000 0.000000 0.000000
0.000000 0.000000 0.000000
0.000000 0.000000 0.000000
0.000000 0.000000 0.000000
0.000000 0.000000 0.000000
0.000000 0.000000 0.000000
0.000000 0.000000 0.000000
0.000000 0.000000 0.000000
0.000000 0.000000 0.000000
0.000000 0.000000 0.000000
0.000000 0.000000 0.000000
0.000000 0.000000 0.000000
0.000000 0.000000 0.000000
0.000000 0.000000 0.000000
0.000000 0.000000 0.000000
0.000000 0.000000 0.000000
0.000000 0.000000 0.000000
0.000000 0.000000 0.000000
0.000000 0.000000 0.000000
0.000000 0.000000 0.000000
0.000000 0.000000 0.000000
0.000000 0.000000 0.000000
0.000000 0.000000 0.000000
0.000000 0.000000 0.000000
0.000000 0.000000 0.000000
0.000000 0.000000 0.000000
0.000000 0.000000 0.000000
0.001934 0.001934 0.001934
0.006160 0.006160 0.006160
0.010422 0.010422 0.010422
0.014720 0.014720 0.014720
0.019051 0.019051 0.019051
0.023417 0.023417 0.023417
0.000000 0.000000 0.000000
0.001538 0.001538 0.001538
0.005761 0.005761 0.005761
0.010019 0.010019 0.010019
0.014313 0.014313 0.014313
0.018642 0.018642 0.018642
0.023004 0.023004 0.023004
0.027401 0.027401 0.027401
0.031830 0.031830 0.031830
0.036292 0.036292 0.036292
0.040786 0.040786 0.040786
0.045312 0.045312 0.045312
0.049870 0.049870 0.049870
0.054458 0.054458 0.054458
0.059077 0.059077 0.059077
0.063727 0.063727 0.063727
0.068406 0.068406 0.068406
0.040362 0.040362 0.040362
0.044885 0.044885 0.044885
0.049439 0.049439 0.049439
0.054025 0.054025 0.054025
0.058641 0.058641 0.058641
0.063287 0.063287 0.063287
0.067964 0.067964 0.067964
0.072670 0.072670 0.072670
0.077405 0.077405 0.077405
0.082169 0.082169 0.082169
0.086962 0.086962 0.086962
0.091783 0.091783 0.091783
0.096632 0.096632 0.096632
0.101508 0.101508 0.101508
0.106412 0.106412 0.106412
0.111343 0.111343 0.111343
0.116301 0.116301 0.116301
0.086509 0.086509 0.086509
0.091328 0.091328 0.091328
0.096174 0.096174 0.096174
0.101048 0.101048 0.101048
0.105949 0.105949 0.105949
0.110878 0.110878 0.110878
0.115833 0.115833 0.115833
0.120815 0.120815 0.120815
0.125823 0.125823 0.125823
0.130857 0.130857 0.130857
0.135918 0.135918 0.135918
0.141003 0.141003 0.141003
0.146114 0.146114 0.146114
0.151250 0.151250 0.151250
0.156411 0.156411 0.156411
0.161597 0.161597 0.161597
0.166807 0.166807 0.166807
0.135440 0.135440 0.135440
0.140523 0.140523 0.140523
0.145632 0.145632 0.145632
0.150766 0.150766 0.150766
0.155924 0.155924 0.155924
0.161108 0.161108 0.161108
0.166315 0.166315 0.166315
0.171547 0.171547 0.171547
0.176804 0.176804 0.176804
0.182083 0.182083 0.182083
0.187387 0.187387 0.187387
0.192714 0.192714 0.192714
0.198064 0.198064 0.198064
0.203438 0.203438 0.203438
0.208834 0.208834 0.208834
0.214253 0.214253 0.214253
0.219694 0.219694 0.219694
0.186887 0.186887 0.186887
0.192211 0.192211 0.192211
0.197559 0.197559 0.197559
0.202931 0.202931 0.202931
0.208325 0.208325 0.208325
0.213742 0.213742 0.213742
0.219181 0.219181 0.219181
0.224643 0.224643 0.224643
0.230127 0.230127 0.230127
0.235633 0.235633 0.235633
0.241161 0.241161 0.241161
0.246710 0.246710 0.246710
0.252281 0.252281 0.252281
0.257874 0.257874 0.257874
0.263488 0.263488 0.263488
0.269123 0.269123 0.269123
0.274779 0.274779 0.274779
0.240639 0.240639 0.240639
0.246187 0.246187 0.246187
0.251756 0.251756 0.251756
0.257346 0.257346 0.257346
0.262958 0.262958 0.262958
0.268591 0.268591 0.268591
0.274245 0.274245 0.274245
0.279920 0.279920 0.279920
0.285615 0.285615 0.285615
0.291331 0.291331 0.291331
0.297068 0.297068 0.297068
0.302825 0.302825 0.302825
0.308602 0.308602 0.308602
0.314398 0.314398 0.314398
0.320215 0.320215 0.320215
0.326052 0.326052 0.326052
0.331908 0.331908 0.331908
0.296527 0.296527 0.296527
0.302282 0.302282 0.302282
0.308057 0.308057 0.308057
0.313852 0.313852 0.313852
0.319667 0.319667 0.319667
0.325501 0.325501 0.325501
0.331356 0.331356 0.331356
0.337230 0.337230 0.337230
0.343123 0.343123 0.343123
0.349036 0.349036 0.349036
0.354968 0.354968 0.354968
0.360918 0.360918 0.360918
0.636157 0.636157 0.636157
0.642117 0.642117 0.642117
0.648058 0.648058 0.648058
0.653980 0.653980 0.653980
0.659883 0.659883 0.659883
0.354408 0.354408 0.354408
0.360357 0.360357 0.360357
0.635595 0.635595 0.635595
0.641557 0.641557 0.641557
0.647500 0.647500 0.647500
0.653423 0.653423 0.653423
0.659328 0.659328 0.659328
0.665213 0.665213 0.665213
0.671079 0.671079 0.671079
0.676925 0.676925 0.676925
0.682752 0.682752 0.682752
0.688559 0.688559 0.688559
0.694345 0.694345 0.694345
0.700112 0.700112 0.700112
0.705858 0.705858 0.705858
0.711585 0.711585 0.711585
0.717290 0.717290 0.717290
0.682204 0.682204 0.682204
0.688013 0.688013 0.688013
0.693801 0.693801 0.693801
0.699570 0.699570 0.699570
0.705318 0.705318 0.705318
0.711046 0.711046 0.711046
0.716754 0.716754 0.716754
0.722441 0.722441 0.722441
0.728107 0.728107 0.728107
0.733752 0.733752 0.733752
0.739376 0.739376 0.739376
0.744979 0.744979 0.744979
0.750561 0.750561 0.750561
0.756121 0.756121 0.756121
0.761660 0.761660 0.761660
0.767176 0.767176 0.767176
0.772671 0.772671 0.772671
0.738847 0.738847 0.738847
0.744452 0.744452 0.744452
0.750036 0.750036 0.750036
0.755598 0.755598 0.755598
0.761139 0.761139 0.761139
0.766658 0.766658 0.766658
0.772155 0.772155 0.772155
0.777629 0.777629 0.777629
0.783082 0.783082 0.783082
0.788512 0.788512 0.788512
0.793919 0.793919 0.793919
0.799304 0.799304 0.799304
0.804666 0.804666 0.804666
0.810004 0.810004 0.810004
0.815319 0.815319 0.815319
0.820611 0.820611 0.820611
0.825878 0.825878 0.825878
0.793411 0.793411 0.793411
0.798798 0.798798 0.798798
0.804162 0.804162 0.804162
0.809502 0.809502 0.809502
0.814819 0.814819 0.814819
0.820113 0.820113 0.820113
0.825383 0.825383 0.825383
0.830629 0.830629 0.830629
0.835851 0.835851 0.835851
0.841049 0.841049 0.841049
0.846222 0.846222 0.846222
0.851371 0.851371 0.851371
0.856494 0.856494 0.856494
0.861592 0.861592 0.861592
0.866665 0.866665 0.866665
0.871712 0.871712 0.871712
0.876733 0.876733 0.876733
0.845736 0.845736 0.845736
0.850887 0.850887 0.850887
0.856012 0.856012 0.856012
0.861113 0.861113 0.861113
0.866188 0.866188 0.866188
0.871237 0.871237 0.871237
0.876261 0.876261 0.876261
0.881258 0.881258 0.881258
0.886229 0.886229 0.886229
0.891173 0.891173 0.891173
0.896091 0.896091 0.896091
0.900981 0.900981 0.900981
0.905843 0.905843 0.905843
0.910678 0.910678 0.910678
0.915485 0.915485 0.915485
0.920263 0.920263 0.920263
0.925012 0.925012 0.925012
0.895629 0.895629 0.895629
0.900521 0.900521 0.900521
0.905386 0.905386 0.905386
0.910224 0.910224 0.910224
0.915033 0.915033 0.915033
0.919814 0.919814 0.919814
0.924566 0.924566 0.924566
0.929289 0.929289 0.929289
0.933983 0.933983 0.933983
0.938647 0.938647 0.938647
0.943281 0.943281 0.943281
0.947884 0.947884 0.947884
0.952457 0.952457 0.952457
0.956999 0.956999 0.956999
0.961508 0.961508 0.961508
0.965986 0.965986 0.965986
0.970432 0.970432 0.970432
0.000000 0.000000 0.000000
0.000000 0.000000 0.000000
0.000000 0.000000 0.000000
0.000000 0.000000 0.000000
0.000000 0.000000 0.000000
0.000000 0.000000 0.000000
0.000000 0.000000 0.000000
0.000000 0.000000 0.000000
0.000000 0.000000 0.000000
0.000000 0.000000 0.000000
0.000000 0.000000 0.000000
0.000000 0.000000 0.000000
0.000000 0.000000 0.000000
0.000000 0.000000 0.000000
0.000000 0.000000 0.000000
0.000000 0.000000 0.000000
0.000000 0.000000 0.000000
0.000000 0.000000 0.000000
0.000000 0.000000 0.000000
0.000000 0.000000 0.000000
0.000000 0.000000 0.000000
0.000000 0.000000 0.000000
0.000000 0.000000 0.000000
0.000000 0.000000 0.000000
0.000000 0.000000 0.000000
0.000000 0.000000 0.000000
0.000000 0.000000 0.000000
0.000000 0.000000 0.000000
0.000000 0.000000 0.000000
0.000000 0.000000 0.000000
0.000000 0.000000 0.000000
0.000000 0.000000 0.000000
0.000000 0.000000 0.000000
0.000000 0.000000 0.000000
0.000000 0.000000 0.000000
0.000000 0.000000 0.000000
0.000000 0.000000 0.000000
0.000000 0.000000 0.000000
0.000000 0.000000 0.000000
0.000000 0.000000 0.000000
0.000000 0.000000 0.000000
0.000000 0.000000 0.000000
0.000000 0.000000 0.000000
0.000000 0.000000 0.000000
0.000000 0.000000 0.000000
0.000000 0.000000 0.000000
0.000000 0.000000 0.000000
0.000000 0.000000 0.000000
0.000000 0.000000 0.000000
0.000000 0.000000 0.000000
0.000000 0.000000 0.000000
0.000000 0.000000 0.000000
0.000000 0.000000 0.000000
0.000000 0.000000 0.000000
0.000000 0.000000 0.000000
0.000000 0.000000 0.000000
0.000000 0.000000 0.000000
0.000000 0.000000 0.000000
0.000000 0.000000 0.000000
0.001701 0.001701 0.001701
0.005925 0.005925 0.005925
0.010185 0.010185 0.010185
0.014481 0.014481 0.014481
0.018810 0.018810 0.018810
0.023174 0.023174 0.023174
0.027572 0.027572 0.027572
0.032002 0.032002 0.032002
0.036466 0.036466 0.036466
0.009783 0.009783 0.009783
0.014075 0.014075 0.014075
0.018401 0.018401 0.018401
0.022762 0.022762 0.022762
0.027156 0.027156 0.027156
0.031584 0.031584 0.031584
0.036044 0.036044 0.036044
0.040536 0.040536 0.040536
0.045061 0.045061 0.045061
0.049616 0.049616 0.049616
0.054203 0.054203 0.054203
0.058821 0.058821 0.058821
0.063468 0.063468 0.063468
0.068146 0.068146 0.068146
0.072853 0.072853 0.072853
0.077589 0.077589 0.077589
0.082354 0.082354 0.082354
0.053770 0.053770 0.053770
0.058384 0.058384 0.058384
0.063029 0.063029 0.063029
0.067704 0.067704 0.067704
0.072408 0.072408 0.072408
0.077142 0.077142 0.077142
0.081904 0.081904 0.081904
0.086696 0.086696 0.086696
0.091515 0.091515 0.091515
0.096362 0.096362 0.096362
0.101237 0.101237 0.101237
0.106140 0.106140 0.106140
0.111069 0.111069 0.111069
0.116026 0.116026 0.116026
0.121009 0.121009 0.121009
0.126018 0.126018 0.126018
0.131053 0.131053 0.131053
0.100777 0.100777 0.100777
0.105677 0.105677 0.105677
0.110604 0.110604 0.110604
0.115558 0.115558 0.115558
0.120538 0.120538 0.120538
0.125545 0.125545 0.125545
0.130578 0.130578 0.130578
0.135637 0.135637 0.135637
0.140721 0.140721 0.140721
0.145830 0.145830 0.145830
0.150965 0.150965 0.150965
0.156125 0.156125 0.156125
0.161309 0.161309 0.161309
0.166518 0.166518 0.166518
0.171751 0.171751 0.171751
0.177008 0.177008 0.177008
0.182289 0.182289 0.182289
0.150481 0.150481 0.150481
0.155638 0.155638 0.155638
0.160820 0.160820 0.160820
0.166026 0.166026 0.166026
0.171257 0.171257 0.171257
0.176512 0.176512 0.176512
0.181790 0.181790 0.181790
0.187093 0.187093 0.187093
0.192418 0.192418 0.192418
0.197767 0.197767 0.197767
0.203139 0.203139 0.203139
0.208534 0.208534 0.208534
0.213952 0.213952 0.213952
0.219392 0.219392 0.219392
0.224855 0.224855 0.224855
0.230340 0.230340 0.230340
0.235847 0.235847 0.235847
0.202633 0.202633 0.202633
0.208025 0.208025 0.208025
0.213441 0.213441 0.213441
0.218879 0.218879 0.218879
0.224340 0.224340 0.224340
0.229822 0.229822 0.229822
0.235327 0.235327 0.235327
0.240854 0.240854 0.240854
0.246402 0.246402 0.246402
0.251972 0.251972 0.251972
0.257564 0.257564 0.257564
0.263176 0.263176 0.263176
0.268810 0.268810 0.268810
0.274465 0.274465 0.274465
0.280140 0.280140 0.280140
0.285837 0.285837 0.285837
0.291554 0.291554 0.291554
0.257036 0.257036 0.257036
0.262647 0.262647 0.262647
0.268279 0.268279 0.268279
0.273931 0.273931 0.273931
0.279605 0.279605 0.279605
0.285299 0.285299 0.285299
0.291014 0.291014 0.291014
0.296750 0.296750 0.296750
0.302505 0.302505 0.302505
0.308281 0.308281 0.308281
0.314077 0.314077 0.314077
0.319893 0.319893 0.319893
0.325728 0.325728 0.325728
0.331583 0.331583 0.331583
0.337458 0.337458 0.337458
0.343352 0.343352 0.343352
0.349265 0.349265 0.349265
0.313530 0.313530 0.313530
0.319344 0.319344 0.319344
0.325178 0.325178 0.325178
0.331031 0.331031 0.331031
0.336904 0.336904 0.336904
0.342796 0.342796 0.342796
0.348708 0.348708 0.348708
0.354638 0.354638 0.354638
0.360588 0.360588 0.360588
0.635826 0.635826 0.635826
0.641787 0.641787 0.641787
0.647730 0.647730 0.647730
0.653653 0.653653 0.653653
0.659557 0.659557 0.659557
0.665441 0.665441 0.665441
0.671306 0.671306 0.671306
0.677152 0.677152 0.677152
0.641227 0.641227 0.641227
0.647171 0.647171 0.647171
0.653096 0.653096 0.653096
0.659001 0.659001 0.659001
0.664888 0.664888 0.664888
0.670755 0.670755 0.670755
0.676602 0.676602 0.676602
0.682430 0.682430 0.682430
0.688237 0.688237 0.688237
0.694025 0.694025 0.694025
0.699793 0.699793 0.699793
0.705541 0.705541 0.705541
0.711268 0.711268 0.711268
0.716975 0.716975 0.716975
0.722661 0.722661 0.722661
0.728326 0.728326 0.728326
0.733970 0.733970 0.733970
0.699251 0.699251 0.699251
0.705000 0.705000 0.705000
0.710729 0.710729 0.710729
0.716438 0.716438 0.716438
0.722126 0.722126 0.722126
0.727793 0.727793 0.727793
0.733440 0.733440 0.733440
0.739065 0.739065 0.739065
0.744669 0.744669 0.744669
0.750252 0.750252 0.750252
0.755814 0.755814 0.755814
0.761353 0.761353 0.761353
0.766871 0.766871 0.766871
0.772367 0.772367 0.772367
0.777841 0.777841 0.777841
0.783293 0.783293 0.783293
0.788722 0.788722 0.788722
0.755291 0.755291 0.755291
0.760833 0.760833 0.760833
0.766353 0.766353 0.766353
0.771851 0.771851 0.771851
0.777327 0.777327 0.777327
0.782780 0.782780 0.782780
0.788212 0.788212 0.788212
0.793620 0.793620 0.793620
0.799006 0.799006 0.799006
0.804369 0.804369 0.804369
0.809709 0.809709 0.809709
0.815025 0.815025 0.815025
0.820318 0.820318 0.820318
0.825587 0.825587 0.825587
0.830832 0.830832 0.830832
0.836053 0.836053 0.836053
0.841250 0.841250 0.841250
0.809207 0.809207 0.809207
0.814526 0.814526 0.814526
0.819821 0.819821 0.819821
0.825092 0.825092 0.825092
0.830339 0.830339 0.830339
0.835563 0.835563 0.835563
0.840762 0.840762 0.840762
0.845936 0.845936 0.845936
0.851086 0.851086 0.851086
0.856211 0.856211 0.856211
0.861310 0.861310 0.861310
0.866384 0.866384 0.866384
0.871433 0.871433 0.871433
0.876455 0.876455 0.876455
0.881452 0.881452 0.881452
0.886421 0.886421 0.886421
0.891365 0.891365 0.891365
0.860831 0.860831 0.860831
0.865908 0.865908 0.865908
0.870958 0.870958 0.870958
0.875983 0.875983 0.875983
0.880982 0.880982 0.880982
0.885955 0.885955 0.885955
0.890900 0.890900 0.890900
0.895819 0.895819 0.895819
0.900711 0.900711 0.900711
0.905575 0.905575 0.905575
0.910411 0.910411 0.910411
0.915219 0.915219 0.915219
0.919999 0.919999 0.919999
0.924750 0.924750 0.924750
0.929472 0.929472 0.929472
0.934164 0.934164 0.934164
0.938827 0.938827 0.938827
0.909957 0.909957 0.909957
0.914767 0.914767 0.914767
0.919550 0.919550 0.919550
0.924303 0.924303 0.924303
0.929028 0.929028 0.929028
0.933724 0.933724 0.933724
0.938389 0.938389 0.938389
0.943025 0.943025 0.943025
0.947630 0.947630 0.947630
0.952205 0.952205 0.952205
0.956748 0.956748 0.956748
0.961259 0.961259 0.961259
0.965739 0.965739 0.965739
0.970186 0.970186 0.970186
0.974601 0.974601 0.974601
0.978982 0.978982 0.978982
0.983329 0.983329 0.983329
0.000000 0.000000 0.000000
0.000000 0.000000 0.000000
0.000000 0.000000 0.000000
0.000000 0.000000 0.000000
0.000000 0.000000 0.000000
0.000000 0.000000 0.000000
0.000000 0.000000 0.000000
0.000000 0.000000 0.000000
0.000000 0.000000 0.000000
0.000000 0.000000 0.000000
0.000000 0.000000 0.000000
0.000000 0.000000 0.000000
0.000000 0.000000 0.000000
0.000000 0.000000 0.000000
0.000000 0.000000 0.000000
0.000000 0.000000 0.000000
0.000000 0.000000 0.000000
0.000000 0.000000 0.000000
0.000000 0.000000 0.000000
0.000000 0.000000 0.000000
0.000000 0.000000 0.000000
0.000000 0.000000 0.000000
0.000000 0.000000 0.000000
0.000000 0.000000 0.000000
0.000000 0.000000 0.000000
0.000000 0.000000 0.000000
0.000000 0.000000 0.000000
0.000000 0.000000 0.000000
0.000000 0.000000 0.000000
0.000000 0.000000 0.000000
0.000000 0.000000 0.000000
0.000000 0.000000 0.000000
0.000000 0.000000 0.000000
0.000000 0.000000 0.000000
0.000000 0.000000 0.000000
0.000000 0.000000 0.000000
0.000000 0.000000 0.000000
0.000000 0.000000 0.000000
0.000000 0.000000 0.000000
0.000000 0.000000 0.000000
0.000000 0.000000 0.000000
0.000000 0.000000 0.000000
0.000000 0.000000 0.000000
0.000000 0.000000 0.000000
0.000000 0.000000 0.000000
0.000000 0.000000 0.000000
0.000000 0.000000 0.000000
0.000000 0.000000 0.000000
0.000000 0.000000 0.000000
0.001864 0.001864 0.001864
0.006090 0.006090 0.006090
0.000000 0.000000 0.000000
0.000000 0.000000 0.000000
0.000000 0.000000 0.000000
0.000000 0.000000 0.000000
0.000000 0.000000 0.000000
0.001468 0.001468 0.001468
0.005690 0.005690 0.005690
0.009948 0.009948 0.009948
0.014242 0.014242 0.014242
0.018570 0.018570 0.018570
0.022932 0.022932 0.022932
0.027327 0.027327 0.027327
0.031756 0.031756 0.031756
0.036218 0.036218 0.036218
0.040711 0.040711 0.040711
0.045237 0.045237 0.045237
0.049794 0.049794 0.049794
0.022519 0.022519 0.022519
0.026912 0.026912 0.026912
0.031338 0.031338 0.031338
0.035796 0.035796 0.035796
0.040287 0.040287 0.040287
0.044809 0.044809 0.044809
0.049363 0.049363 0.049363
0.053948 0.053948 0.053948
0.058564 0.058564 0.058564
0.063210 0.063210 0.063210
0.067886 0.067886 0.067886
0.072591 0.072591 0.072591
0.077326 0.077326 0.077326
0.082090 0.082090 0.082090
0.086882 0.086882 0.086882
0.091702 0.091702 0.091702
0.096551 0.096551 0.096551
0.067444 0.067444 0.067444
0.072147 0.072147 0.072147
0.076879 0.076879 0.076879
0.081640 0.081640 0.081640
0.086429 0.086429 0.086429
0.091247 0.091247 0.091247
0.096093 0.096093 0.096093
0.100967 0.100967 0.100967
0.105867 0.105867 0.105867
0.110796 0.110796 0.110796
0.115750 0.115750 0.115750
0.120732 0.120732 0.120732
0.125740 0.125740 0.125740
0.130774 0.130774 0.130774
0.135833 0.135833 0.135833
0.140919 0.140919 0.140919
0.146029 0.146029 0.146029
0.115283 0.115283 0.115283
0.120262 0.120262 0.120262
0.125267 0.125267 0.125267
0.130298 0.130298 0.130298
0.135356 0.135356 0.135356
0.140438 0.140438 0.140438
0.145547 0.145547 0.145547
0.150680 0.150680 0.150680
0.155838 0.155838 0.155838
0.161021 0.161021 0.161021
0.166229 0.166229 0.166229
0.171460 0.171460 0.171460
0.176716 0.176716 0.176716
0.181996 0.181996 0.181996
0.187299 0.187299 0.187299
0.192625 0.192625 0.192625
0.197975 0.197975 0.197975
0.165737 0.165737 0.165737
0.170967 0.170967 0.170967
0.176220 0.176220 0.176220
0.181497 0.181497 0.181497
0.186798 0.186798 0.186798
0.192123 0.192123 0.192123
0.197470 0.197470 0.197470
0.202841 0.202841 0.202841
0.208235 0.208235 0.208235
0.213651 0.213651 0.213651
0.219090 0.219090 0.219090
0.224552 0.224552 0.224552
0.230035 0.230035 0.230035
0.235541 0.235541 0.235541
0.241069 0.241069 0.241069
0.246618 0.246618 0.246618
0.252189 0.252189 0.252189
0.218577 0.218577 0.218577
0.224036 0.224036 0.224036
0.229518 0.229518 0.229518
0.235022 0.235022 0.235022
0.240547 0.240547 0.240547
0.246094 0.246094 0.246094
0.251663 0.251663 0.251663
0.257253 0.257253 0.257253
0.262865 0.262865 0.262865
0.268497 0.268497 0.268497
0.274151 0.274151 0.274151
0.279825 0.279825 0.279825
0.285521 0.285521 0.285521
0.291236 0.291236 0.291236
0.296972 0.296972 0.296972
0.302729 0.302729 0.302729
0.308505 0.308505 0.308505
0.273618 0.273618 0.273618
0.279290 0.279290 0.279290
0.284983 0.284983 0.284983
0.290697 0.290697 0.290697
0.296431 0.296431 0.296431
0.302186 0.302186 0.302186
0.307960 0.307960 0.307960
0.313755 0.313755 0.313755
0.319570 0.319570 0.319570
0.325404 0.325404 0.325404
0.331258 0.331258 0.331258
0.337132 0.337132 0.337132
0.343025 0.343025 0.343025
0.348937 0.348937 0.348937
0.354869 0.354869 0.354869
0.360819 0.360819 0.360819
0.636058 0.636058 0.636058
0.330706 0.330706 0.330706
0.336578 0.336578 0.336578
0.342469 0.342469 0.342469
0.348380 0.348380 0.348380
0.354309 0.354309 0.354309
0.360258 0.360258 0.360258
0.635495 0.635495 0.635495
0.641458 0.641458 0.641458
0.647401 0.647401 0.647401
0.653325 0.653325 0.653325
0.659230 0.659230 0.659230
0.665116 0.665116 0.665116
0.670982 0.670982 0.670982
0.676828 0.676828 0.676828
0.682655 0.682655 0.682655
0.688462 0.688462 0.688462
0.694249 0.694249 0.694249
0.658675 0.658675 0.658675
0.664562 0.664562 0.664562
0.670430 0.670430 0.670430
0.676279 0.676279 0.676279
0.682107 0.682107 0.682107
0.687916 0.687916 0.687916
0.693705 0.693705 0.693705
0.699474 0.699474 0.699474
0.705223 0.705223 0.705223
0.710951 0.710951 0.710951
0.716659 0.716659 0.716659
0.722346 0.722346 0.722346
0.728013 0.728013 0.728013
0.733658 0.733658 0.733658
0.739283 0.739283 0.739283
0.744886 0.744886 0.744886
0.750468 0.750468 0.750468
0.716122 0.716122 0.716122
0.721811 0.721811 0.721811
0.727480 0.727480 0.727480
0.733127 0.733127 0.733127
0.738754 0.738754 0.738754
0.744359 0.744359 0.744359
0.749943 0.749943 0.749943
0.755506 0.755506 0.755506
0.761047 0.761047 0.761047
0.766566 0.766566 0.766566
0.772063 0.772063 0.772063
0.777539 0.777539 0.777539
0.782991 0.782991 0.782991
0.788422 0.788422 0.788422
0.793830 0.793830 0.793830
0.799215 0.799215 0.799215
0.804577 0.804577 0.804577
0.771547 0.771547 0.771547
0.777024 0.777024 0.777024
0.782479 0.782479 0.782479
0.787911 0.787911 0.787911
0.793321 0.793321 0.793321
0.798708 0.798708 0.798708
0.804073 0.804073 0.804073
0.809414 0.809414 0.809414
0.814731 0.814731 0.814731
0.820025 0.820025 0.820025
0.825296 0.825296 0.825296
0.830542 0.830542 0.830542
0.835765 0.835765 0.835765
0.840963 0.840963 0.840963
0.846136 0.846136 0.846136
0.851285 0.851285 0.851285
0.856409 0.856409 0.856409
0.824801 0.824801 0.824801
0.830049 0.830049 0.830049
0.835274 0.835274 0.835274
0.840474 0.840474 0.840474
0.845650 0.845650 0.845650
0.850801 0.850801 0.850801
0.855927 0.855927 0.855927
0.861028 0.861028 0.861028
0.866104 0.866104 0.866104
0.871154 0.871154 0.871154
0.876178 0.876178 0.876178
0.881175 0.881175 0.881175
0.886147 0.886147 0.886147
0.891091 0.891091 0.891091
0.896009 0.896009 0.896009
0.900900 0.900900 0.900900
0.905763 0.905763 0.905763
0.875706 0.875706 0.875706
0.880706 0.880706 0.880706
0.885680 0.885680 0.885680
0.890627 0.890627 0.890627
0.895547 0.895547 0.895547
0.900440 0.900440 0.900440
0.905306 0.905306 0.905306
0.910144 0.910144 0.910144
0.914953 0.914953 0.914953
0.919735 0.919735 0.919735
0.924487 0.924487 0.924487
0.929211 0.929211 0.929211
0.933905 0.933905 0.933905
0.938570 0.938570 0.938570
0.943204 0.943204 0.943204
0.947808 0.947808 0.947808
0.952381 0.952381 0.952381
0.924041 0.924041 0.924041
0.928767 0.928767 0.928767
0.933464 0.933464 0.933464
0.938132 0.938132 0.938132
0.942769 0.942769 0.942769
0.947376 0.947376 0.947376
0.951952 0.951952 0.951952
0.956497 0.956497 0.956497
0.961010 0.961010 0.961010
0.965492 0.965492 0.965492
0.969941 0.969941 0.969941
0.974357 0.974357 0.974357
0.978740 0.978740 0.978740
0.983089 0.983089 0.983089
0.987404 0.987404 0.987404
0.991684 0.991684 0.991684
0.995928 0.995928 0.995928
0.000000 0.000000 0.000000
0.000000 0.000000 0.000000
0.000000 0.000000 0.000000
0.000000 0.000000 0.000000
0.000000 0.000000 0.000000
0.000000 0.000000 0.000000
0.000000 0.000000 0.000000
0.000000 0.000000 0.000000
0.000000 0.000000 0.000000
0.000000 0.000000 0.000000
0.000000 0.000000 0.000000
0.000000 0.000000 0.000000
0.000000 0.000000 0.000000
0.000000 0.000000 0.000000
0.000000 0.000000 0.000000
0.000000 0.000000 0.000000
