assets/luts/bw-high-contrast.cube
# montage LUT: bw-high-contrast — 黑白高反差（黑白片）（原创，MIT）
TITLE "montage black-white high contrast"
LUT_3D_SIZE 5
DOMAIN_MIN 0.0 0.0 0.0
DOMAIN_MAX 1.0 1.0 1.0
0.000000 0.000000 0.000000
0.000000 0.000000 0.000000
0.000000 0.000000 0.000000
0.000000 0.000000 0.000000
0.000000 0.000000 0.000000
0.000000 0.000000 0.000000
0.014313 0.014313 0.014313
0.031830 0.031830 0.031830
0.049870 0.049870 0.049870
0.068406 0.068406 0.068406
0.186887 0.186887 0.186887
0.208325 0.208325 0.208325
0.230127 0.230127 0.230127
0.252281 0.252281 0.252281
0.274779 0.274779 0.274779
0.682204 0.682204 0.682204
0.705318 0.705318 0.705318
0.728107 0.728107 0.728107
0.750561 0.750561 0.750561
0.772671 0.772671 0.772671
0.895629 0.895629 0.895629
0.915033 0.915033 0.915033
0.933983 0.933983 0.933983
0.952457 0.952457 0.952457
0.970432 0.970432 0.970432
0.000000 0.000000 0.000000
0.000000 0.000000 0.000000
0.000000 0.000000 0.000000
0.000000 0.000000 0.000000
0.000000 0.000000 0.000000
0.048857 0.048857 0.048857
0.067366 0.067366 0.067366
0.086350 0.086350 0.086350
0.105786 0.105786 0.105786
0.125656 0.125656 0.125656
0.251045 0.251045 0.251045
0.273524 0.273524 0.273524
0.296336 0.296336 0.296336
0.319473 0.319473 0.319473
0.342927 0.342927 0.342927
0.749326 0.749326 0.749326
0.771455 0.771455 0.771455
0.793232 0.793232 0.793232
0.814643 0.814643 0.814643
0.835678 0.835678 0.835678
0.951446 0.951446 0.951446
0.969449 0.969449 0.969449
0.986927 0.986927 0.986927
1.000000 1.000000 1.000000
1.000000 1.000000 1.000000
0.000000 0.000000 0.000000
0.000000 0.000000 0.000000
0.000000 0.000000 0.000000
0.000000 0.000000 0.000000
0.000000 0.000000 0.000000
0.104697 0.104697 0.104697
0.124544 0.124544 0.124544
0.144809 0.144809 0.144809
0.165477 0.165477 0.165477
0.186533 0.186533 0.186533
0.318183 0.318183 0.318183
0.341619 0.341619 0.341619
0.634635 0.634635 0.634635
0.658381 0.658381 0.658381
0.681817 0.681817 0.681817
0.813467 0.813467 0.813467
0.834523 0.834523 0.834523
0.855191 0.855191 0.855191
0.875456 0.875456 0.875456
0.895303 0.895303 0.895303
1.000000 1.000000 1.000000
1.000000 1.000000 1.000000
1.000000 1.000000 1.000000
1.000000 1.000000 1.000000
1.000000 1.000000 1.000000
0.000000 0.000000 0.000000
0.000000 0.000000 0.000000
0.013073 0.013073 0.013073
0.030551 0.030551 0.030551
0.048554 0.048554 0.048554
0.164322 0.164322 0.164322
0.185357 0.185357 0.185357
0.206768 0.206768 0.206768
0.228545 0.228545 0.228545
0.250674 0.250674 0.250674
0.657073 0.657073 0.657073
0.680527 0.680527 0.680527
0.703664 0.703664 0.703664
0.726476 0.726476 0.726476
0.748955 0.748955 0.748955
0.874344 0.874344 0.874344
0.894214 0.894214 0.894214
0.913650 0.913650 0.913650
0.932634 0.932634 0.932634
0.951143 0.951143 0.951143
1.000000 1.000000 1.000000
1.000000 1.000000 1.000000
1.000000 1.000000 1.000000
1.000000 1.000000 1.000000
1.000000 1.000000 1.000000
0.029568 0.029568 0.029568
0.047543 0.047543 0.047543
0.066017 0.066017 0.066017
0.084967 0.084967 0.084967
0.104371 0.104371 0.104371
0.227329 0.227329 0.227329
0.249439 0.249439 0.249439
0.271893 0.271893 0.271893
0.294682 0.294682 0.294682
0.317796 0.317796 0.317796
0.725221 0.725221 0.725221
0.747719 0.747719 0.747719
0.769873 0.769873 0.769873
0.791675 0.791675 0.791675
0.813113 0.813113 0.813113
0.931594 0.931594 0.931594
0.950130 0.950130 0.950130
0.968170 0.968170 0.968170
0.985687 0.985687 0.985687
1.000000 1.000000 1.000000
1.000000 1.000000 1.000000
1.000000 1.000000 1.000000
1.000000 1.000000 1.000000
1.000000 1.000000 1.000000
1.000000 1.000000 1.000000
