assets/luts/bw-high-contrast.cube
# montage LUT: bw-high-contrast — 黑白高反差（黑白片）（原创，MIT）
TITLE "montage black-white high contrast"
LUT_3D_SIZE 9
DOMAIN_MIN 0.0 0.0 0.0
DOMAIN_MAX 1.0 1.0 1.0
0.000000 0.000000 0.000000
0.000000 0.000000 0.000000
0.000000 0.000000 0.000000
0.000000 0.000000 0.000000
0.000000 0.000000 0.000000
0.000000 0.000000 0.000000
0.000000 0.000000 0.000000
0.000000 0.000000 0.000000
0.000000 0.000000 0.000000
0.000000 0.000000 0.000000
0.000000 0.000000 0.000000
0.000000 0.000000 0.000000
0.000000 0.000000 0.000000
0.000000 0.000000 0.000000
0.000000 0.000000 0.000000
0.000000 0.000000 0.000000
0.000000 0.000000 0.000000
0.000000 0.000000 0.000000
0.000000 0.000000 0.000000
0.005761 0.005761 0.005761
0.014313 0.014313 0.014313
0.023004 0.023004 0.023004
0.031830 0.031830 0.031830
0.040786 0.040786 0.040786
0.049870 0.049870 0.049870
0.059077 0.059077 0.059077
0.068406 0.068406 0.068406
0.086509 0.086509 0.086509
0.096174 0.096174 0.096174
0.105949 0.105949 0.105949
0.115833 0.115833 0.115833
0.125823 0.125823 0.125823
0.135918 0.135918 0.135918
0.146114 0.146114 0.146114
0.156411 0.156411 0.156411
0.166807 0.166807 0.166807
0.186887 0.186887 0.186887
0.197559 0.197559 0.197559
0.208325 0.208325 0.208325
0.219181 0.219181 0.219181
0.230127 0.230127 0.230127
0.241161 0.241161 0.241161
0.252281 0.252281 0.252281
0.263488 0.263488 0.263488
0.274779 0.274779 0.274779
0.296527 0.296527 0.296527
0.308057 0.308057 0.308057
0.319667 0.319667 0.319667
0.331356 0.331356 0.331356
0.343123 0.343123 0.343123
0.354968 0.354968 0.354968
0.636157 0.636157 0.636157
0.648058 0.648058 0.648058
0.659883 0.659883 0.659883
0.682204 0.682204 0.682204
0.693801 0.693801 0.693801
0.705318 0.705318 0.705318
0.716754 0.716754 0.716754
0.728107 0.728107 0.728107
0.739376 0.739376 0.739376
0.750561 0.750561 0.750561
0.761660 0.761660 0.761660
0.772671 0.772671 0.772671
0.793411 0.793411 0.793411
0.804162 0.804162 0.804162
0.814819 0.814819 0.814819
0.825383 0.825383 0.825383
0.835851 0.835851 0.835851
0.846222 0.846222 0.846222
0.856494 0.856494 0.856494
0.866665 0.866665 0.866665
0.876733 0.876733 0.876733
0.895629 0.895629 0.895629
0.905386 0.905386 0.905386
0.915033 0.915033 0.915033
0.924566 0.924566 0.924566
0.933983 0.933983 0.933983
0.943281 0.943281 0.943281
0.952457 0.952457 0.952457
0.961508 0.961508 0.961508
0.970432 0.970432 0.970432
0.000000 0.000000 0.000000
0.000000 0.000000 0.000000
0.000000 0.000000 0.000000
0.000000 0.000000 0.000000
0.000000 0.000000 0.000000
0.000000 0.000000 0.000000
0.000000 0.000000 0.000000
0.000000 0.000000 0.000000
0.000000 0.000000 0.000000
0.000000 0.000000 0.000000
0.000000 0.000000 0.000000
0.000000 0.000000 0.000000
0.000000 0.000000 0.000000
0.000000 0.000000 0.000000
0.000000 0.000000 0.000000
0.000000 0.000000 0.000000
0.000000 0.000000 0.000000
0.006090 0.006090 0.006090
0.022519 0.022519 0.022519
0.031338 0.031338 0.031338
0.040287 0.040287 0.040287
0.049363 0.049363 0.049363
0.058564 0.058564 0.058564
0.067886 0.067886 0.067886
0.077326 0.077326 0.077326
0.086882 0.086882 0.086882
0.096551 0.096551 0.096551
0.115283 0.115283 0.115283
0.125267 0.125267 0.125267
0.135356 0.135356 0.135356
0.145547 0.145547 0.145547
0.155838 0.155838 0.155838
0.166229 0.166229 0.166229
0.176716 0.176716 0.176716
0.187299 0.187299 0.187299
0.197975 0.197975 0.197975
0.218577 0.218577 0.218577
0.229518 0.229518 0.229518
0.240547 0.240547 0.240547
0.251663 0.251663 0.251663
0.262865 0.262865 0.262865
0.274151 0.274151 0.274151
0.285521 0.285521 0.285521
0.296972 0.296972 0.296972
0.308505 0.308505 0.308505
0.330706 0.330706 0.330706
0.342469 0.342469 0.342469
0.354309 0.354309 0.354309
0.635495 0.635495 0.635495
0.647401 0.647401 0.647401
0.659230 0.659230 0.659230
0.670982 0.670982 0.670982
0.682655 0.682655 0.682655
0.694249 0.694249 0.694249
0.716122 0.716122 0.716122
0.727480 0.727480 0.727480
0.738754 0.738754 0.738754
0.749943 0.749943 0.749943
0.761047 0.761047 0.761047
0.772063 0.772063 0.772063
0.782991 0.782991 0.782991
0.793830 0.793830 0.793830
0.804577 0.804577 0.804577
0.824801 0.824801 0.824801
0.835274 0.835274 0.835274
0.845650 0.845650 0.845650
0.855927 0.855927 0.855927
0.866104 0.866104 0.866104
0.876178 0.876178 0.876178
0.886147 0.886147 0.886147
0.896009 0.896009 0.896009
0.905763 0.905763 0.905763
0.924041 0.924041 0.924041
0.933464 0.933464 0.933464
0.942769 0.942769 0.942769
0.951952 0.951952 0.951952
0.961010 0.961010 0.961010
0.969941 0.969941 0.969941
0.978740 0.978740 0.978740
0.987404 0.987404 0.987404
0.995928 0.995928 0.995928
0.000000 0.000000 0.000000
0.000000 0.000000 0.000000
0.000000 0.000000 0.000000
0.000000 0.000000 0.000000
0.000000 0.000000 0.000000
0.000000 0.000000 0.000000
0.000000 0.000000 0.000000
0.000000 0.000000 0.000000
0.000000 0.000000 0.000000
0.000000 0.000000 0.000000
0.000000 0.000000 0.000000
0.000000 0.000000 0.000000
0.000000 0.000000 0.000000
0.000000 0.000000 0.000000
0.005620 0.005620 0.005620
0.014170 0.014170 0.014170
0.022859 0.022859 0.022859
0.031682 0.031682 0.031682
0.048857 0.048857 0.048857
0.058051 0.058051 0.058051
0.067366 0.067366 0.067366
0.076800 0.076800 0.076800
0.086350 0.086350 0.086350
0.096012 0.096012 0.096012
0.105786 0.105786 0.105786
0.115668 0.115668 0.115668
0.125656 0.125656 0.125656
0.144979 0.144979 0.144979
0.155266 0.155266 0.155266
0.165650 0.165650 0.165650
0.176132 0.176132 0.176132
0.186710 0.186710 0.186710
0.197381 0.197381 0.197381
0.208145 0.208145 0.208145
0.219000 0.219000 0.219000
0.229944 0.229944 0.229944
0.251045 0.251045 0.251045
0.262242 0.262242 0.262242
0.273524 0.273524 0.273524
0.284889 0.284889 0.284889
0.296336 0.296336 0.296336
0.307864 0.307864 0.307864
0.319473 0.319473 0.319473
0.331161 0.331161 0.331161
0.342927 0.342927 0.342927
0.634834 0.634834 0.634834
0.646743 0.646743 0.646743
0.658577 0.658577 0.658577
0.670333 0.670333 0.670333
0.682011 0.682011 0.682011
0.693609 0.693609 0.693609
0.705127 0.705127 0.705127
0.716564 0.716564 0.716564
0.727919 0.727919 0.727919
0.749326 0.749326 0.749326
0.760434 0.760434 0.760434
0.771455 0.771455 0.771455
0.782388 0.782388 0.782388
0.793232 0.793232 0.793232
0.803984 0.803984 0.803984
0.814643 0.814643 0.814643
0.825209 0.825209 0.825209
0.835678 0.835678 0.835678
0.855361 0.855361 0.855361
0.865543 0.865543 0.865543
0.875622 0.875622 0.875622
0.885597 0.885597 0.885597
0.895466 0.895466 0.895466
0.905225 0.905225 0.905225
0.914874 0.914874 0.914874
0.924409 0.924409 0.924409
0.933827 0.933827 0.933827
0.951446 0.951446 0.951446
0.960512 0.960512 0.960512
0.969449 0.969449 0.969449
0.978256 0.978256 0.978256
0.986927 0.986927 0.986927
0.995460 0.995460 0.995460
1.000000 1.000000 1.000000
1.000000 1.000000 1.000000
1.000000 1.000000 1.000000
0.000000 0.000000 0.000000
0.000000 0.000000 0.000000
0.000000 0.000000 0.000000
0.000000 0.000000 0.000000
0.000000 0.000000 0.000000
0.000000 0.000000 0.000000
0.000000 0.000000 0.000000
0.000000 0.000000 0.000000
0.000000 0.000000 0.000000
0.000000 0.000000 0.000000
0.000000 0.000000 0.000000
0.005150 0.005150 0.005150
0.013693 0.013693 0.013693
0.022374 0.022374 0.022374
0.031190 0.031190 0.031190
0.040137 0.040137 0.040137
0.049211 0.049211 0.049211
0.058410 0.058410 0.058410
0.076274 0.076274 0.076274
0.085818 0.085818 0.085818
0.095474 0.095474 0.095474
0.105241 0.105241 0.105241
0.115118 0.115118 0.115118
0.125100 0.125100 0.125100
0.135187 0.135187 0.135187
0.145377 0.145377 0.145377
0.155666 0.155666 0.155666
0.175549 0.175549 0.175549
0.186121 0.186121 0.186121
0.196788 0.196788 0.196788
0.207546 0.207546 0.207546
0.218396 0.218396 0.218396
0.229335 0.229335 0.229335
0.240363 0.240363 0.240363
0.251478 0.251478 0.251478
0.262678 0.262678 0.262678
0.284257 0.284257 0.284257
0.295699 0.295699 0.295699
0.307224 0.307224 0.307224
0.318828 0.318828 0.318828
0.330511 0.330511 0.330511
0.342273 0.342273 0.342273
0.354112 0.354112 0.354112
0.635297 0.635297 0.635297
0.647204 0.647204 0.647204
0.669684 0.669684 0.669684
0.681366 0.681366 0.681366
0.692969 0.692969 0.692969
0.704491 0.704491 0.704491
0.715933 0.715933 0.715933
0.727292 0.727292 0.727292
0.738567 0.738567 0.738567
0.749758 0.749758 0.749758
0.760863 0.760863 0.760863
0.781785 0.781785 0.781785
0.792633 0.792633 0.792633
0.803390 0.803390 0.803390
0.814055 0.814055 0.814055
0.824626 0.824626 0.824626
0.835101 0.835101 0.835101
0.845479 0.845479 0.845479
0.855758 0.855758 0.855758
0.865936 0.865936 0.865936
0.885047 0.885047 0.885047
0.894922 0.894922 0.894922
0.904687 0.904687 0.904687
0.914342 0.914342 0.914342
0.923883 0.923883 0.923883
0.933309 0.933309 0.933309
0.942615 0.942615 0.942615
0.951800 0.951800 0.951800
0.960861 0.960861 0.960861
0.977771 0.977771 0.977771
0.986450 0.986450 0.986450
0.994991 0.994991 0.994991
1.000000 1.000000 1.000000
1.000000 1.000000 1.000000
1.000000 1.000000 1.000000
1.000000 1.000000 1.000000
1.000000 1.000000 1.000000
1.000000 1.000000 1.000000
0.000000 0.000000 0.000000
0.000000 0.000000 0.000000
0.000000 0.000000 0.000000
0.000000 0.000000 0.000000
0.000000 0.000000 0.000000
0.000000 0.000000 0.000000
0.000000 0.000000 0.000000
0.000000 0.000000 0.000000
0.000000 0.000000 0.000000
0.013216 0.013216 0.013216
0.021889 0.021889 0.021889
0.030698 0.030698 0.030698
0.039638 0.039638 0.039638
0.048705 0.048705 0.048705
0.057897 0.057897 0.057897
0.067211 0.067211 0.067211
0.076642 0.076642 0.076642
0.086190 0.086190 0.086190
0.104697 0.104697 0.104697
0.114568 0.114568 0.114568
0.124544 0.124544 0.124544
0.134626 0.134626 0.134626
0.144809 0.144809 0.144809
0.155094 0.155094 0.155094
0.165477 0.165477 0.165477
0.175957 0.175957 0.175957
0.186533 0.186533 0.186533
0.206948 0.206948 0.206948
0.217793 0.217793 0.217793
0.228727 0.228727 0.228727
0.239750 0.239750 0.239750
0.250860 0.250860 0.250860
0.262055 0.262055 0.262055
0.273335 0.273335 0.273335
0.284699 0.284699 0.284699
0.296145 0.296145 0.296145
0.318183 0.318183 0.318183
0.329862 0.329862 0.329862
0.341619 0.341619 0.341619
0.353454 0.353454 0.353454
0.634635 0.634635 0.634635
0.646546 0.646546 0.646546
0.658381 0.658381 0.658381
0.670138 0.670138 0.670138
0.681817 0.681817 0.681817
0.703855 0.703855 0.703855
0.715301 0.715301 0.715301
0.726665 0.726665 0.726665
0.737945 0.737945 0.737945
0.749140 0.749140 0.749140
0.760250 0.760250 0.760250
0.771273 0.771273 0.771273
0.782207 0.782207 0.782207
0.793052 0.793052 0.793052
0.813467 0.813467 0.813467
0.824043 0.824043 0.824043
0.834523 0.834523 0.834523
0.844906 0.844906 0.844906
0.855191 0.855191 0.855191
0.865374 0.865374 0.865374
0.875456 0.875456 0.875456
0.885432 0.885432 0.885432
0.895303 0.895303 0.895303
0.913810 0.913810 0.913810
0.923358 0.923358 0.923358
0.932789 0.932789 0.932789
0.942103 0.942103 0.942103
0.951295 0.951295 0.951295
0.960362 0.960362 0.960362
0.969302 0.969302 0.969302
0.978111 0.978111 0.978111
0.986784 0.986784 0.986784
1.000000 1.000000 1.000000
1.000000 1.000000 1.000000
1.000000 1.000000 1.000000
1.000000 1.000000 1.000000
1.000000 1.000000 1.000000
1.000000 1.000000 1.000000
1.000000 1.000000 1.000000
1.000000 1.000000 1.000000
1.000000 1.000000 1.000000
0.000000 0.000000 0.000000
0.000000 0.000000 0.000000
0.000000 0.000000 0.000000
0.000000 0.000000 0.000000
0.000000 0.000000 0.000000
0.000000 0.000000 0.000000
0.005009 0.005009 0.005009
0.013550 0.013550 0.013550
0.022229 0.022229 0.022229
0.039139 0.039139 0.039139
0.048200 0.048200 0.048200
0.057385 0.057385 0.057385
0.066691 0.066691 0.066691
0.076117 0.076117 0.076117
0.085658 0.085658 0.085658
0.095313 0.095313 0.095313
0.105078 0.105078 0.105078
0.114953 0.114953 0.114953
0.134064 0.134064 0.134064
0.144242 0.144242 0.144242
0.154521 0.154521 0.154521
0.164899 0.164899 0.164899
0.175374 0.175374 0.175374
0.185945 0.185945 0.185945
0.196610 0.196610 0.196610
0.207367 0.207367 0.207367
0.218215 0.218215 0.218215
0.239137 0.239137 0.239137
0.250242 0.250242 0.250242
0.261433 0.261433 0.261433
0.272708 0.272708 0.272708
0.284067 0.284067 0.284067
0.295509 0.295509 0.295509
0.307031 0.307031 0.307031
0.318634 0.318634 0.318634
0.330316 0.330316 0.330316
0.352796 0.352796 0.352796
0.364703 0.364703 0.364703
0.645888 0.645888 0.645888
0.657727 0.657727 0.657727
0.669489 0.669489 0.669489
0.681172 0.681172 0.681172
0.692776 0.692776 0.692776
0.704301 0.704301 0.704301
0.715743 0.715743 0.715743
0.737322 0.737322 0.737322
0.748522 0.748522 0.748522
0.759637 0.759637 0.759637
0.770665 0.770665 0.770665
0.781604 0.781604 0.781604
0.792454 0.792454 0.792454
0.803212 0.803212 0.803212
0.813879 0.813879 0.813879
0.824451 0.824451 0.824451
0.844334 0.844334 0.844334
0.854623 0.854623 0.854623
0.864813 0.864813 0.864813
0.874900 0.874900 0.874900
0.884882 0.884882 0.884882
0.894759 0.894759 0.894759
0.904526 0.904526 0.904526
0.914182 0.914182 0.914182
0.923726 0.923726 0.923726
0.941590 0.941590 0.941590
0.950789 0.950789 0.950789
0.959863 0.959863 0.959863
0.968810 0.968810 0.968810
0.977626 0.977626 0.977626
0.986307 0.986307 0.986307
0.994850 0.994850 0.994850
1.000000 1.000000 1.000000
1.000000 1.000000 1.000000
1.000000 1.000000 1.000000
1.000000 1.000000 1.000000
1.000000 1.000000 1.000000
1.000000 1.000000 1.000000
1.000000 1.000000 1.000000
1.000000 1.000000 1.000000
1.000000 1.000000 1.000000
1.000000 1.000000 1.000000
1.000000 1.000000 1.000000
0.000000 0.000000 0.000000
0.000000 0.000000 0.000000
0.000000 0.000000 0.000000
0.004540 0.004540 0.004540
0.013073 0.013073 0.013073
0.021744 0.021744 0.021744
0.030551 0.030551 0.030551
0.039488 0.039488 0.039488
0.048554 0.048554 0.048554
0.066173 0.066173 0.066173
0.075591 0.075591 0.075591
0.085126 0.085126 0.085126
0.094775 0.094775 0.094775
0.104534 0.104534 0.104534
0.114403 0.114403 0.114403
0.124378 0.124378 0.124378
0.134457 0.134457 0.134457
0.144639 0.144639 0.144639
0.164322 0.164322 0.164322
0.174791 0.174791 0.174791
0.185357 0.185357 0.185357
0.196016 0.196016 0.196016
0.206768 0.206768 0.206768
0.217612 0.217612 0.217612
0.228545 0.228545 0.228545
0.239566 0.239566 0.239566
0.250674 0.250674 0.250674
0.272081 0.272081 0.272081
0.283436 0.283436 0.283436
0.294873 0.294873 0.294873
0.306391 0.306391 0.306391
0.317989 0.317989 0.317989
0.329667 0.329667 0.329667
0.341423 0.341423 0.341423
0.353257 0.353257 0.353257
0.365166 0.365166 0.365166
0.657073 0.657073 0.657073
0.668839 0.668839 0.668839
0.680527 0.680527 0.680527
0.692136 0.692136 0.692136
0.703664 0.703664 0.703664
0.715111 0.715111 0.715111
0.726476 0.726476 0.726476
0.737758 0.737758 0.737758
0.748955 0.748955 0.748955
0.770056 0.770056 0.770056
0.781000 0.781000 0.781000
0.791855 0.791855 0.791855
0.802619 0.802619 0.802619
0.813290 0.813290 0.813290
0.823868 0.823868 0.823868
0.834350 0.834350 0.834350
0.844734 0.844734 0.844734
0.855021 0.855021 0.855021
0.874344 0.874344 0.874344
0.884332 0.884332 0.884332
0.894214 0.894214 0.894214
0.903988 0.903988 0.903988
0.913650 0.913650 0.913650
0.923200 0.923200 0.923200
0.932634 0.932634 0.932634
0.941949 0.941949 0.941949
0.951143 0.951143 0.951143
0.968318 0.968318 0.968318
0.977141 0.977141 0.977141
0.985830 0.985830 0.985830
0.994380 0.994380 0.994380
1.000000 1.000000 1.000000
1.000000 1.000000 1.000000
1.000000 1.000000 1.000000
1.000000 1.000000 1.000000
1.000000 1.000000 1.000000
1.000000 1.000000 1.000000
1.000000 1.000000 1.000000
1.000000 1.000000 1.000000
1.000000 1.000000 1.000000
1.000000 1.000000 1.000000
1.000000 1.000000 1.000000
1.000000 1.000000 1.000000
1.000000 1.000000 1.000000
1.000000 1.000000 1.000000
0.004072 0.004072 0.004072
0.012596 0.012596 0.012596
0.021260 0.021260 0.021260
0.030059 0.030059 0.030059
0.038990 0.038990 0.038990
0.048048 0.048048 0.048048
0.057231 0.057231 0.057231
0.066536 0.066536 0.066536
0.075959 0.075959 0.075959
0.094237 0.094237 0.094237
0.103991 0.103991 0.103991
0.113853 0.113853 0.113853
0.123822 0.123822 0.123822
0.133896 0.133896 0.133896
0.144073 0.144073 0.144073
0.154350 0.154350 0.154350
0.164726 0.164726 0.164726
0.175199 0.175199 0.175199
0.195423 0.195423 0.195423
0.206170 0.206170 0.206170
0.217009 0.217009 0.217009
0.227937 0.227937 0.227937
0.238953 0.238953 0.238953
0.250057 0.250057 0.250057
0.261246 0.261246 0.261246
0.272520 0.272520 0.272520
0.283878 0.283878 0.283878
0.305751 0.305751 0.305751
0.317345 0.317345 0.317345
0.329018 0.329018 0.329018
0.340770 0.340770 0.340770
0.352599 0.352599 0.352599
0.364505 0.364505 0.364505
0.645691 0.645691 0.645691
0.657531 0.657531 0.657531
0.669294 0.669294 0.669294
0.691495 0.691495 0.691495
0.703028 0.703028 0.703028
0.714479 0.714479 0.714479
0.725849 0.725849 0.725849
0.737135 0.737135 0.737135
0.748337 0.748337 0.748337
0.759453 0.759453 0.759453
0.770482 0.770482 0.770482
0.781423 0.781423 0.781423
0.802025 0.802025 0.802025
0.812701 0.812701 0.812701
0.823284 0.823284 0.823284
0.833771 0.833771 0.833771
0.844162 0.844162 0.844162
0.854453 0.854453 0.854453
0.864644 0.864644 0.864644
0.874733 0.874733 0.874733
0.884717 0.884717 0.884717
0.903449 0.903449 0.903449
0.913118 0.913118 0.913118
0.922674 0.922674 0.922674
0.932114 0.932114 0.932114
0.941436 0.941436 0.941436
0.950637 0.950637 0.950637
0.959713 0.959713 0.959713
0.968662 0.968662 0.968662
0.977481 0.977481 0.977481
0.993910 0.993910 0.993910
1.000000 1.000000 1.000000
1.000000 1.000000 1.000000
1.000000 1.000000 1.000000
1.000000 1.000000 1.000000
1.000000 1.000000 1.000000
1.000000 1.000000 1.000000
1.000000 1.000000 1.000000
1.000000 1.000000 1.000000
1.000000 1.000000 1.000000
1.000000 1.000000 1.000000
1.000000 1.000000 1.000000
1.000000 1.000000 1.000000
1.000000 1.000000 1.000000
1.000000 1.000000 1.000000
1.000000 1.000000 1.000000
1.000000 1.000000 1.000000
1.000000 1.000000 1.000000
0.029568 0.029568 0.029568
0.038492 0.038492 0.038492
0.047543 0.047543 0.047543
0.056719 0.056719 0.056719
0.066017 0.066017 0.066017
0.075434 0.075434 0.075434
0.084967 0.084967 0.084967
0.094614 0.094614 0.094614
0.104371 0.104371 0.104371
0.123267 0.123267 0.123267
0.133335 0.133335 0.133335
0.143506 0.143506 0.143506
0.153778 0.153778 0.153778
0.164149 0.164149 0.164149
0.174617 0.174617 0.174617
0.185181 0.185181 0.185181
0.195838 0.195838 0.195838
0.206589 0.206589 0.206589
0.227329 0.227329 0.227329
0.238340 0.238340 0.238340
0.249439 0.249439 0.249439
0.260624 0.260624 0.260624
0.271893 0.271893 0.271893
0.283246 0.283246 0.283246
0.294682 0.294682 0.294682
0.306199 0.306199 0.306199
0.317796 0.317796 0.317796
0.340117 0.340117 0.340117
0.351942 0.351942 0.351942
0.363843 0.363843 0.363843
0.645032 0.645032 0.645032
0.656877 0.656877 0.656877
0.668644 0.668644 0.668644
0.680333 0.680333 0.680333
0.691943 0.691943 0.691943
0.703473 0.703473 0.703473
0.725221 0.725221 0.725221
0.736512 0.736512 0.736512
0.747719 0.747719 0.747719
0.758839 0.758839 0.758839
0.769873 0.769873 0.769873
0.780819 0.780819 0.780819
0.791675 0.791675 0.791675
0.802441 0.802441 0.802441
0.813113 0.813113 0.813113
0.833193 0.833193 0.833193
0.843589 0.843589 0.843589
0.853886 0.853886 0.853886
0.864082 0.864082 0.864082
0.874177 0.874177 0.874177
0.884167 0.884167 0.884167
0.894051 0.894051 0.894051
0.903826 0.903826 0.903826
0.913491 0.913491 0.913491
0.931594 0.931594 0.931594
0.940923 0.940923 0.940923
0.950130 0.950130 0.950130
0.959214 0.959214 0.959214
0.968170 0.968170 0.968170
0.976996 0.976996 0.976996
0.985687 0.985687 0.985687
0.994239 0.994239 0.994239
1.000000 1.000000 1.000000
1.000000 1.000000 1.000000
1.000000 1.000000 1.000000
1.000000 1.000000 1.000000
1.000000 1.000000 1.000000
1.000000 1.000000 1.000000
1.000000 1.000000 1.000000
1.000000 1.000000 1.000000
1.000000 1.000000 1.000000
1.000000 1.000000 1.000000
1.000000 1.000000 1.000000
1.000000 1.000000 1.000000
1.000000 1.000000 1.000000
1.000000 1.000000 1.000000
1.000000 1.000000 1.000000
1.000000 1.000000 1.000000
1.000000 1.000000 1.000000
1.000000 1.000000 1.000000
1.000000 1.000000 1.000000
