assets/luts/cool-clean.cube
# montage LUT: cool-clean — 日系清冷（治愈/清新）（原创，MIT）
TITLE "montage cool clean japanese"
LUT_3D_SIZE 5
DOMAIN_MIN 0.0 0.0 0.0
DOMAIN_MAX 1.0 1.0 1.0
0.000000 0.000000 0.030000
0.000000 0.004134 0.239134
0.000000 0.007931 0.447931
0.000000 0.011611 0.656611
0.000000 0.015216 0.865216
0.015686 0.240686 0.065686
0.019062 0.244062 0.274062
0.022420 0.247420 0.482420
0.025761 0.250761 0.690761
0.029087 0.254087 0.899087
0.048465 0.478465 0.098465
0.051708 0.481708 0.306708
0.054942 0.484942 0.514942
0.058168 0.488168 0.723168
0.061385 0.491385 0.931385
0.080229 0.715229 0.130229
0.083396 0.718396 0.338396
0.086557 0.721557 0.546557
0.089712 0.724712 0.754712
0.092861 0.727861 0.962861
0.111351 0.951351 0.161351
0.114465 0.954465 0.369465
0.117574 0.957574 0.577574
0.120679 0.960679 0.785679
0.123779 0.963779 0.993779
0.196409 0.011409 0.041409
0.200018 0.015018 0.250018
0.203571 0.018571 0.458571
0.207082 0.022082 0.667082
0.210557 0.025557 0.875557
0.230577 0.250577 0.075577
0.233903 0.253903 0.283903
0.237215 0.257215 0.492215
0.240514 0.260514 0.700514
0.243800 0.263800 0.908800
0.262989 0.487989 0.107989
0.266207 0.491207 0.316207
0.269416 0.494416 0.524416
0.272617 0.497617 0.732617
0.275811 0.500811 0.940811
0.294537 0.724537 0.139537
0.297687 0.727687 0.347687
0.300831 0.730831 0.555831
0.303969 0.733969 0.763969
0.307103 0.737103 0.972103
0.325507 0.960507 0.170507
0.328608 0.963608 0.378608
0.331704 0.966704 0.586704
0.334796 0.969796 0.794796
0.337884 0.972884 1.000000
0.411888 0.021888 0.051888
0.415365 0.025365 0.260365
0.418812 0.028812 0.468812
0.422232 0.032232 0.677232
0.425630 0.035630 0.885630
0.445331 0.260331 0.085331
0.448618 0.263618 0.293618
0.451893 0.266893 0.501893
0.455157 0.270157 0.710157
0.458411 0.273411 0.918411
0.477440 0.497440 0.117440
0.480635 0.500635 0.325635
0.483822 0.503822 0.533822
0.487002 0.507002 0.742002
0.490176 0.510176 0.950176
0.508796 0.733796 0.148796
0.511929 0.736929 0.356929
0.515058 0.740058 0.565058
0.518181 0.743181 0.773181
0.521300 0.746300 0.981300
0.539625 0.969625 0.179625
0.542713 0.972713 0.387713
0.545797 0.975797 0.595797
0.548878 0.978878 0.803878
0.551954 0.981954 1.000000
0.627043 0.032043 0.062043
0.630442 0.035442 0.270442
0.633820 0.038820 0.478820
0.637179 0.042179 0.687179
0.640521 0.045521 0.895521
0.659976 0.269976 0.094976
0.663231 0.273231 0.303231
0.666475 0.276475 0.511475
0.669710 0.279710 0.719710
0.672936 0.282936 0.927936
0.691826 0.506826 0.126826
0.695000 0.510000 0.335000
0.698168 0.513168 0.543168
0.701329 0.516329 0.751329
0.704485 0.519485 0.959485
0.723008 0.743008 0.158008
0.726127 0.746127 0.366127
0.729241 0.749241 0.574241
0.732350 0.752350 0.782350
0.735455 0.755455 0.990455
0.753707 0.978707 0.188707
0.756784 0.981784 0.396784
0.759857 0.984857 0.604857
0.762927 0.987927 0.812927
0.765992 0.990992 1.000000
0.841993 0.041993 0.071993
0.845337 0.045337 0.280337
0.848664 0.048664 0.488664
0.851977 0.051977 0.696977
0.855276 0.055276 0.905276
0.874531 0.279531 0.104531
0.877757 0.282757 0.312757
0.880975 0.285975 0.520975
0.884185 0.289185 0.729185
0.887387 0.292387 0.937387
0.906154 0.516154 0.136154
0.909310 0.519310 0.344310
0.912460 0.522460 0.552460
0.915605 0.525605 0.760605
0.918743 0.528743 0.968743
0.937178 0.752178 0.167178
0.940284 0.755284 0.375284
0.943384 0.758384 0.583384
0.946481 0.761481 0.791481
0.949573 0.764573 0.999573
0.967757 0.987757 0.197757
0.970823 0.990823 0.405823
0.973885 0.993885 0.613885
0.976944 0.996944 0.821944
0.980000 1.000000 1.000000
