assets/luts/cool-clean.cube
# montage LUT: cool-clean — 日系清冷（治愈/清新）（原创，MIT）
TITLE "montage cool clean japanese"
LUT_3D_SIZE 9
DOMAIN_MIN 0.0 0.0 0.0
DOMAIN_MAX 1.0 1.0 1.0
0.000000 0.000000 0.030000
0.000000 0.002155 0.134655
0.000000 0.004134 0.239134
0.000000 0.006052 0.343552
0.000000 0.007931 0.447931
0.000000 0.009782 0.552282
0.000000 0.011611 0.656611
0.000000 0.013421 0.760921
0.000000 0.015216 0.865216
0.000000 0.121101 0.048601
0.000361 0.122861 0.152861
0.002111 0.124611 0.257111
0.003852 0.126352 0.361352
0.005586 0.128086 0.465586
0.007312 0.129812 0.569812
0.009031 0.131531 0.674031
0.010743 0.133243 0.778243
0.012449 0.134949 0.882449
0.015686 0.240686 0.065686
0.017377 0.242377 0.169877
0.019062 0.244062 0.274062
0.020744 0.245744 0.378244
0.022420 0.247420 0.482420
0.024093 0.249093 0.586593
0.025761 0.250761 0.690761
0.027426 0.252426 0.794926
0.029087 0.254087 0.899087
0.032242 0.359742 0.082242
0.033893 0.361393 0.186393
0.035541 0.363041 0.290541
0.037185 0.364685 0.394685
0.038827 0.366327 0.498827
0.040466 0.367966 0.602966
0.042101 0.369601 0.707101
0.043734 0.371234 0.811234
0.045365 0.372865 0.915365
0.048465 0.478465 0.098465
0.050088 0.480088 0.202588
0.051708 0.481708 0.306708
0.053326 0.483326 0.410826
0.054942 0.484942 0.514942
0.056556 0.486556 0.619056
0.058168 0.488168 0.723168
0.059777 0.489777 0.827277
0.061385 0.491385 0.931385
0.064443 0.596943 0.114443
0.066044 0.598544 0.218544
0.067644 0.600144 0.322644
0.069242 0.601742 0.426742
0.070838 0.603338 0.530838
0.072432 0.604932 0.634932
0.074025 0.606525 0.739025
0.075616 0.608116 0.843116
0.077205 0.609705 0.947205
0.080229 0.715229 0.130229
0.081813 0.716813 0.234313
0.083396 0.718396 0.338396
0.084977 0.719977 0.442477
0.086557 0.721557 0.546557
0.088135 0.723135 0.650635
0.089712 0.724712 0.754712
0.091287 0.726287 0.858787
0.092861 0.727861 0.962861
0.095857 0.833357 0.145857
0.097427 0.834927 0.249927
0.098995 0.836495 0.353995
0.100563 0.838063 0.458063
0.102129 0.839629 0.562129
0.103693 0.841193 0.666193
0.105257 0.842757 0.770257
0.106819 0.844319 0.874319
0.108380 0.845880 0.978380
0.111351 0.951351 0.161351
0.112909 0.952909 0.265409
0.114465 0.954465 0.369465
0.116020 0.956020 0.473520
0.117574 0.957574 0.577574
0.119127 0.959127 0.681627
0.120679 0.960679 0.785679
0.122230 0.962230 0.889730
0.123779 0.963779 0.993779
0.088447 0.005947 0.035947
0.090328 0.007828 0.140328
0.092180 0.009680 0.244680
0.094010 0.011510 0.349010
0.095821 0.013321 0.453321
0.097617 0.015117 0.557617
0.099399 0.016899 0.661899
0.101169 0.018669 0.766169
0.102929 0.020429 0.870429
0.106256 0.126256 0.053756
0.107990 0.127990 0.157990
0.109716 0.129716 0.262216
0.111436 0.131436 0.366436
0.113148 0.133148 0.470648
0.114855 0.134855 0.574855
0.116556 0.136556 0.679056
0.118252 0.138252 0.783252
0.119942 0.139942 0.887442
0.123151 0.245651 0.070651
0.124828 0.247328 0.174828
0.126500 0.249000 0.279000
0.128169 0.250669 0.383169
0.129834 0.252334 0.487334
0.131495 0.253995 0.591495
0.133153 0.255653 0.695653
0.134807 0.257307 0.799807
0.136457 0.258957 0.903957
0.139594 0.364594 0.087094
0.141236 0.366236 0.191236
0.142875 0.367875 0.295375
0.144511 0.369511 0.399511
0.146144 0.371144 0.503644
0.147774 0.372774 0.607774
0.149402 0.374402 0.711902
0.151028 0.376028 0.816028
0.152651 0.377651 0.920151
0.155737 0.483237 0.103237
0.157353 0.484853 0.207353
0.158967 0.486467 0.311467
0.160579 0.488079 0.415579
0.162188 0.489688 0.519688
0.163796 0.491296 0.623796
0.165401 0.492901 0.727901
0.167005 0.494505 0.832005
0.168606 0.496106 0.936106
0.171653 0.601653 0.119153
0.173250 0.603250 0.223250
0.174844 0.604844 0.327344
0.176437 0.606437 0.431437
0.178027 0.608027 0.535527
0.179617 0.609617 0.639617
0.181204 0.611204 0.743704
0.182790 0.612790 0.847790
0.184374 0.614374 0.951874
0.187390 0.719890 0.134890
0.188969 0.721469 0.238969
0.190548 0.723048 0.343048
0.192125 0.724625 0.447125
0.193700 0.726200 0.551200
0.195274 0.727774 0.655274
0.196847 0.729347 0.759347
0.198418 0.730918 0.863418
0.199988 0.732488 0.967488
0.202976 0.837976 0.150476
0.204542 0.839542 0.254542
0.206107 0.841107 0.358607
0.207670 0.842670 0.462670
0.209232 0.844232 0.566732
0.210793 0.845793 0.670793
0.212353 0.847353 0.774853
0.213912 0.848912 0.878912
0.215469 0.850469 0.982969
0.218434 0.955934 0.165934
0.219988 0.957488 0.269988
0.221541 0.959041 0.374041
0.223093 0.960593 0.478093
0.224644 0.962144 0.582144
0.226193 0.963693 0.686193
0.227742 0.965242 0.790242
0.229290 0.966790 0.894290
0.230836 0.968336 0.998336
0.196409 0.011409 0.041409
0.198221 0.013221 0.145721
0.200018 0.015018 0.250018
0.201801 0.016801 0.354301
0.203571 0.018571 0.458571
0.205331 0.020331 0.562831
0.207082 0.022082 0.667082
0.208823 0.023823 0.771323
0.210557 0.025557 0.875557
0.213840 0.131340 0.058840
0.215554 0.133054 0.163054
0.217261 0.134761 0.267261
0.218962 0.136462 0.371462
0.220658 0.138158 0.475658
0.222349 0.139849 0.579849
0.224034 0.141534 0.684034
0.225716 0.143216 0.788216
0.227393 0.144893 0.892393
0.230577 0.250577 0.075577
0.232242 0.252242 0.179742
0.233903 0.253903 0.283903
0.235561 0.255561 0.388061
0.237215 0.257215 0.492215
0.238866 0.258866 0.596366
0.240514 0.260514 0.700514
0.242158 0.262158 0.804658
0.243800 0.263800 0.908800
0.246920 0.369420 0.091920
0.248553 0.371053 0.196053
0.250184 0.372684 0.300184
0.251812 0.374312 0.404312
0.253438 0.375938 0.508438
0.255061 0.377561 0.612561
0.256681 0.379181 0.716681
0.258300 0.380800 0.820800
0.259916 0.382416 0.924916
0.262989 0.487989 0.107989
0.264599 0.489599 0.212099
0.266207 0.491207 0.316207
0.267812 0.492812 0.420312
0.269416 0.494416 0.524416
0.271018 0.496018 0.628518
0.272617 0.497617 0.732617
0.274215 0.499215 0.836715
0.275811 0.500811 0.940811
0.278848 0.606348 0.123848
0.280439 0.607939 0.227939
0.282029 0.609529 0.332029
0.283616 0.611116 0.436116
0.285202 0.612702 0.540202
0.286787 0.614287 0.644287
0.288370 0.615870 0.748370
0.289951 0.617451 0.852451
0.291531 0.619031 0.956531
0.294537 0.724537 0.139537
0.296113 0.726113 0.243613
0.297687 0.727687 0.347687
0.299260 0.729260 0.451760
0.300831 0.730831 0.555831
0.302401 0.732401 0.659901
0.303969 0.733969 0.763969
0.305537 0.735537 0.868037
0.307103 0.737103 0.972103
0.310084 0.842584 0.155084
0.311646 0.844146 0.259146
0.313207 0.845707 0.363207
0.314767 0.847267 0.467267
0.316325 0.848825 0.571325
0.317883 0.850383 0.675383
0.319439 0.851939 0.779439
0.320994 0.853494 0.883494
0.322548 0.855048 0.987548
0.325507 0.960507 0.170507
0.327058 0.962058 0.274558
0.328608 0.963608 0.378608
0.330156 0.965156 0.482656
0.331704 0.966704 0.586704
0.333250 0.968250 0.690750
0.334796 0.969796 0.794796
0.336341 0.971341 0.898841
0.337884 0.972884 1.000000
0.304202 0.016702 0.046702
0.305974 0.018474 0.150974
0.307734 0.020234 0.255234
0.309485 0.021985 0.359485
0.311227 0.023727 0.463727
0.312961 0.025461 0.567961
0.314688 0.027188 0.672188
0.316407 0.028907 0.776407
0.318120 0.030620 0.880620
0.321368 0.136368 0.063868
0.323064 0.138064 0.168064
0.324755 0.139755 0.272255
0.326441 0.141441 0.376441
0.328123 0.143123 0.480623
0.329800 0.144800 0.584800
0.331473 0.146473 0.688973
0.333141 0.148141 0.793141
0.334806 0.149806 0.897306
0.337969 0.255469 0.080469
0.339623 0.257123 0.184623
0.341275 0.258775 0.288775
0.342922 0.260422 0.392922
0.344567 0.262067 0.497067
0.346209 0.263709 0.601209
0.347848 0.265348 0.705348
0.349484 0.266984 0.809484
0.351117 0.268617 0.913617
0.354222 0.374222 0.096722
0.355848 0.375848 0.200848
0.357471 0.377471 0.304971
0.359092 0.379092 0.409092
0.360710 0.380710 0.513210
0.362326 0.382326 0.617326
0.363940 0.383940 0.721440
0.365552 0.385552 0.825552
0.367161 0.387161 0.929661
0.370223 0.492723 0.112723
0.371827 0.494327 0.216827
0.373429 0.495929 0.320929
0.375029 0.497529 0.425029
0.376627 0.499127 0.529127
0.378223 0.500723 0.633223
0.379817 0.502317 0.737317
0.381410 0.503910 0.841410
0.383001 0.505501 0.945501
0.386028 0.611028 0.128528
0.387614 0.612614 0.232614
0.389199 0.614199 0.336699
0.390782 0.615782 0.440782
0.392363 0.617363 0.544863
0.393943 0.618943 0.648943
0.395522 0.620522 0.753022
0.397098 0.622098 0.857098
0.398674 0.623674 0.961174
0.401672 0.729172 0.144172
0.403244 0.730744 0.248244
0.404814 0.732314 0.352314
0.406382 0.733882 0.456382
0.407950 0.735450 0.560450
0.409516 0.737016 0.664516
0.411081 0.738581 0.768581
0.412644 0.740144 0.872644
0.414206 0.741706 0.976706
0.417180 0.847180 0.159680
0.418739 0.848739 0.263739
0.420297 0.850297 0.367797
0.421853 0.851853 0.471853
0.423408 0.853408 0.575908
0.424962 0.854962 0.679962
0.426515 0.856515 0.784015
0.428067 0.858067 0.888067
0.429618 0.859618 0.992118
0.432570 0.965070 0.175070
0.434118 0.966618 0.279118
0.435665 0.968165 0.383165
0.437210 0.969710 0.487210
0.438755 0.971255 0.591255
0.440299 0.972799 0.695299
0.441841 0.974341 0.799341
0.443383 0.975883 0.903383
0.444923 0.977423 1.000000
0.411888 0.021888 0.051888
0.413631 0.023631 0.156131
0.415365 0.025365 0.260365
0.417092 0.027092 0.364592
0.418812 0.028812 0.468812
0.420525 0.030525 0.573025
0.422232 0.032232 0.677232
0.423934 0.033934 0.781434
0.425630 0.035630 0.885630
0.428848 0.141348 0.068848
0.430530 0.143030 0.173030
0.432207 0.144707 0.277207
0.433880 0.146380 0.381380
0.435549 0.148049 0.485549
0.437214 0.149714 0.589714
0.438875 0.151375 0.693875
0.440533 0.153033 0.798033
0.442188 0.154688 0.902188
0.445331 0.260331 0.085331
0.446976 0.261976 0.189476
0.448618 0.263618 0.293618
0.450257 0.265257 0.397757
0.451893 0.266893 0.501893
0.453526 0.268526 0.606026
0.455157 0.270157 0.710157
0.456785 0.271785 0.814285
0.458411 0.273411 0.918411
0.461502 0.379002 0.101502
0.463120 0.380620 0.205620
0.464737 0.382237 0.309737
0.466351 0.383851 0.413851
0.467963 0.385463 0.517963
0.469572 0.387072 0.622072
0.471180 0.388680 0.726180
0.472786 0.390286 0.830286
0.474389 0.391889 0.934389
0.477440 0.497440 0.117440
0.479038 0.499038 0.221538
0.480635 0.500635 0.325635
0.482229 0.502229 0.429729
0.483822 0.503822 0.533822
0.485413 0.505413 0.637913
0.487002 0.507002 0.742002
0.488590 0.508590 0.846090
0.490176 0.510176 0.950176
0.493194 0.615694 0.133194
0.494776 0.617276 0.237276
0.496356 0.618856 0.341356
0.497934 0.620434 0.445434
0.499511 0.622011 0.549511
0.501087 0.623587 0.653587
0.502661 0.625161 0.757661
0.504233 0.626733 0.861733
0.505805 0.628305 0.965805
0.508796 0.733796 0.148796
0.510363 0.735363 0.252863
0.511929 0.736929 0.356929
0.513494 0.738494 0.460994
0.515058 0.740058 0.565058
0.516620 0.741620 0.669120
0.518181 0.743181 0.773181
0.519741 0.744741 0.877241
0.521300 0.746300 0.981300
0.524267 0.851767 0.164267
0.525822 0.853322 0.268322
0.527376 0.854876 0.372376
0.528929 0.856429 0.476429
0.530481 0.857981 0.580481
0.532032 0.859532 0.684532
0.533582 0.861082 0.788582
0.535131 0.862631 0.892631
0.536678 0.864178 0.996678
0.539625 0.969625 0.179625
0.541169 0.971169 0.283669
0.542713 0.972713 0.387713
0.544256 0.974256 0.491756
0.545797 0.975797 0.595797
0.547338 0.977338 0.699838
0.548878 0.978878 0.803878
0.550417 0.980417 0.907917
0.551954 0.981954 1.000000
0.519497 0.026997 0.056997
0.521217 0.028717 0.161217
0.522930 0.030430 0.265430
0.524638 0.032138 0.369638
0.526340 0.033840 0.473840
0.528036 0.035536 0.578036
0.529727 0.037227 0.682227
0.531413 0.038913 0.786413
0.533095 0.040595 0.890595
0.536287 0.146287 0.073787
0.537957 0.147957 0.177957
0.539622 0.149622 0.282122
0.541284 0.151284 0.386284
0.542941 0.152941 0.490441
0.544596 0.154596 0.594596
0.546247 0.156247 0.698747
0.547895 0.157895 0.802895
0.549540 0.159540 0.907040
0.552666 0.265166 0.090166
0.554302 0.266802 0.194302
0.555936 0.268436 0.298436
0.557567 0.270067 0.402567
0.559195 0.271695 0.506695
0.560821 0.273321 0.610821
0.562444 0.274944 0.714944
0.564065 0.276565 0.819065
0.565683 0.278183 0.923183
0.568761 0.383761 0.106261
0.570373 0.385373 0.210373
0.571983 0.386983 0.314483
0.573591 0.388591 0.418591
0.575197 0.390197 0.522697
0.576801 0.391801 0.626801
0.578402 0.393402 0.730902
0.580002 0.395002 0.835002
0.581600 0.396600 0.939100
0.584641 0.502141 0.122141
0.586234 0.503734 0.226234
0.587825 0.505325 0.330325
0.589414 0.506914 0.434414
0.591002 0.508502 0.538502
0.592588 0.510088 0.642588
0.594173 0.511673 0.746673
0.595756 0.513256 0.850756
0.597337 0.514837 0.954837
0.600347 0.620347 0.137847
0.601924 0.621924 0.241924
0.603499 0.623499 0.345999
0.605074 0.625074 0.450074
0.606646 0.626646 0.554146
0.608218 0.628218 0.658218
0.609788 0.629788 0.762288
0.611356 0.631356 0.866356
0.612924 0.632924 0.970424
0.615907 0.738407 0.153407
0.617471 0.739971 0.257471
0.619033 0.741533 0.361533
0.620594 0.743094 0.465594
0.622154 0.744654 0.569654
0.623713 0.746213 0.673713
0.625271 0.747771 0.777771
0.626827 0.749327 0.881827
0.628382 0.750882 0.985882
0.631343 0.856343 0.168843
0.632895 0.857895 0.272895
0.634446 0.859446 0.376946
0.635996 0.860996 0.480996
0.637545 0.862545 0.585045
0.639092 0.864092 0.689092
0.640639 0.865639 0.793139
0.642185 0.867185 0.897185
0.643729 0.868729 1.000000
0.646670 0.974170 0.184170
0.648212 0.975712 0.288212
0.649753 0.977253 0.392253
0.651293 0.978793 0.496293
0.652831 0.980331 0.600331
0.654369 0.981869 0.704369
0.655906 0.983406 0.808406
0.657442 0.984942 0.912442
0.658977 0.986477 1.000000
0.627043 0.032043 0.062043
0.628745 0.033745 0.166245
0.630442 0.035442 0.270442
0.632133 0.037133 0.374633
0.633820 0.038820 0.478820
0.635502 0.040502 0.583002
0.637179 0.042179 0.687179
0.638852 0.043852 0.791352
0.640521 0.045521 0.895521
0.643692 0.151192 0.078692
0.645350 0.152850 0.182850
0.647004 0.154504 0.287004
0.648656 0.156156 0.391156
0.650304 0.157804 0.495304
0.651949 0.159449 0.599449
0.653591 0.161091 0.703591
0.655230 0.162730 0.807730
0.656866 0.164366 0.911866
0.659976 0.269976 0.094976
0.661605 0.271605 0.199105
0.663231 0.273231 0.303231
0.664854 0.274854 0.407354
0.666475 0.276475 0.511475
0.668094 0.278094 0.615594
0.669710 0.279710 0.719710
0.671324 0.281324 0.823824
0.672936 0.282936 0.927936
0.676002 0.388502 0.111002
0.677608 0.390108 0.215108
0.679212 0.391712 0.319212
0.680814 0.393314 0.423314
0.682414 0.394914 0.527414
0.684012 0.396512 0.631512
0.685608 0.398108 0.735608
0.687203 0.399703 0.839703
0.688795 0.401295 0.943795
0.691826 0.506826 0.126826
0.693414 0.508414 0.230914
0.695000 0.510000 0.335000
0.696585 0.511585 0.439085
0.698168 0.513168 0.543168
0.699749 0.514749 0.647249
0.701329 0.516329 0.751329
0.702908 0.517908 0.855408
0.704485 0.519485 0.959485
0.707486 0.624986 0.142486
0.709059 0.626559 0.246559
0.710631 0.628131 0.350631
0.712201 0.629701 0.454701
0.713770 0.631270 0.558770
0.715337 0.632837 0.662837
0.716903 0.634403 0.766903
0.718468 0.635968 0.870968
0.720032 0.637532 0.975032
0.723008 0.743008 0.158008
0.724568 0.744568 0.262068
0.726127 0.746127 0.366127
0.727684 0.747684 0.470184
0.729241 0.749241 0.574241
0.730796 0.750796 0.678296
0.732350 0.752350 0.782350
0.733904 0.753904 0.886404
0.735455 0.755455 0.990455
0.738410 0.860910 0.173410
0.739959 0.862459 0.277459
0.741507 0.864007 0.381507
0.743053 0.865553 0.485553
0.744599 0.867099 0.589599
0.746144 0.868644 0.693644
0.747687 0.870187 0.797687
0.749230 0.871730 0.901730
0.750772 0.873272 1.000000
0.753707 0.978707 0.188707
0.755246 0.980246 0.292746
0.756784 0.981784 0.396784
0.758321 0.983321 0.500821
0.759857 0.984857 0.604857
0.761392 0.986392 0.708892
0.762927 0.987927 0.812927
0.764460 0.989460 0.916960
0.765992 0.990992 1.000000
0.734540 0.037040 0.067040
0.736227 0.038727 0.171227
0.737909 0.040409 0.275409
0.739586 0.042086 0.379586
0.741260 0.043760 0.483760
0.742929 0.045429 0.587929
0.744594 0.047094 0.692094
0.746256 0.048756 0.796256
0.747914 0.050414 0.900414
0.751064 0.156064 0.083564
0.752713 0.157713 0.187713
0.754358 0.159358 0.291858
0.756000 0.161000 0.396000
0.757639 0.162639 0.500139
0.759275 0.164275 0.604275
0.760909 0.165909 0.708409
0.762540 0.167540 0.812540
0.764168 0.169168 0.916668
0.767264 0.274764 0.099764
0.768885 0.276385 0.203885
0.770504 0.278004 0.308004
0.772120 0.279620 0.412120
0.773735 0.281235 0.516235
0.775347 0.282847 0.620347
0.776956 0.284456 0.724456
0.778564 0.286064 0.828564
0.780170 0.287670 0.932670
0.783225 0.393225 0.115725
0.784825 0.394825 0.219825
0.786423 0.396423 0.323923
0.788020 0.398020 0.428020
0.789614 0.399614 0.532114
0.791207 0.401207 0.636207
0.792798 0.402798 0.740298
0.794388 0.404388 0.844388
0.795976 0.405976 0.948476
0.798997 0.511497 0.131497
0.800580 0.513080 0.235580
0.802162 0.514662 0.339662
0.803742 0.516242 0.443742
0.805320 0.517820 0.547820
0.806898 0.519398 0.651898
0.808473 0.520973 0.755973
0.810047 0.522547 0.860047
0.811620 0.524120 0.964120
0.814614 0.629614 0.147114
0.816183 0.631183 0.251183
0.817750 0.632750 0.355250
0.819316 0.634316 0.459316
0.820881 0.635881 0.563381
0.822445 0.637445 0.667445
0.824007 0.639007 0.771507
0.825569 0.640569 0.875569
0.827129 0.642129 0.979629
0.830098 0.747598 0.162598
0.831655 0.749155 0.266655
0.833210 0.750710 0.370710
0.834764 0.752264 0.474764
0.836317 0.753817 0.578817
0.837870 0.755370 0.682870
0.839420 0.756920 0.786920
0.840970 0.758470 0.890970
0.842519 0.760019 0.995019
0.845468 0.865468 0.177968
0.847014 0.867014 0.282014
0.848558 0.868558 0.386058
0.850102 0.870102 0.490102
0.851645 0.871645 0.594145
0.853186 0.873186 0.698186
0.854727 0.874727 0.802227
0.856267 0.876267 0.906267
0.857806 0.877806 1.000000
0.860736 0.983236 0.193236
0.862272 0.984772 0.297272
0.863807 0.986307 0.401307
0.865342 0.987842 0.505342
0.866875 0.989375 0.609375
0.868408 0.990908 0.713408
0.869939 0.992439 0.817439
0.871470 0.993970 0.921470
0.873000 0.995500 1.000000
0.841993 0.041993 0.071993
0.843667 0.043667 0.176167
0.845337 0.045337 0.280337
0.847002 0.047002 0.384502
0.848664 0.048664 0.488664
0.850322 0.050322 0.592822
0.851977 0.051977 0.696977
0.853628 0.053628 0.801128
0.855276 0.055276 0.905276
0.858409 0.160909 0.088409
0.860048 0.162548 0.192548
0.861685 0.164185 0.296685
0.863318 0.165818 0.400818
0.864949 0.167449 0.504949
0.866578 0.169078 0.609078
0.868204 0.170704 0.713204
0.869827 0.172327 0.817327
0.871448 0.173948 0.921448
0.874531 0.279531 0.104531
0.876145 0.281145 0.208645
0.877757 0.282757 0.312757
0.879367 0.284367 0.416867
0.880975 0.285975 0.520975
0.882581 0.287581 0.625081
0.884185 0.289185 0.729185
0.885787 0.290787 0.833287
0.887387 0.292387 0.937387
0.890431 0.397931 0.120431
0.892026 0.399526 0.224526
0.893619 0.401119 0.328619
0.895210 0.402710 0.432710
0.896800 0.404300 0.536800
0.898388 0.405888 0.640888
0.899974 0.407474 0.744974
0.901559 0.409059 0.849059
0.903142 0.410642 0.953142
0.906154 0.516154 0.136154
0.907733 0.517733 0.240233
0.909310 0.519310 0.344310
0.910886 0.520886 0.448386
0.912460 0.522460 0.552460
0.914033 0.524033 0.656533
0.915605 0.525605 0.760605
0.917175 0.527175 0.864675
0.918743 0.528743 0.968743
0.921730 0.634230 0.151730
0.923295 0.635795 0.255795
0.924858 0.637358 0.359858
0.926421 0.638921 0.463921
0.927982 0.640482 0.567982
0.929542 0.642042 0.672042
0.931101 0.643601 0.776101
0.932659 0.645159 0.880159
0.934215 0.646715 0.984215
0.937178 0.752178 0.167178
0.938731 0.753731 0.271231
0.940284 0.755284 0.375284
0.941835 0.756835 0.479335
0.943384 0.758384 0.583384
0.944933 0.759933 0.687433
0.946481 0.761481 0.791481
0.948028 0.763028 0.895528
0.949573 0.764573 0.999573
0.952516 0.870016 0.182516
0.954059 0.871559 0.286559
0.955601 0.873101 0.390601
0.957142 0.874642 0.494642
0.958682 0.876182 0.598682
0.960221 0.877721 0.702721
0.961758 0.879258 0.806758
0.963296 0.880796 0.910796
0.964832 0.882332 1.000000
0.967757 0.987757 0.197757
0.969290 0.989290 0.301790
0.970823 0.990823 0.405823
0.972354 0.992354 0.509854
0.973885 0.993885 0.613885
0.975415 0.995415 0.717915
0.976944 0.996944 0.821944
0.978473 0.998473 0.925973
0.980000 1.000000 1.000000
