assets/luts/cool-clean.cube
# montage LUT: cool-clean — 日系清冷（治愈/清新）（原创，MIT）
TITLE "montage cool clean japanese"
LUT_3D_SIZE 17
DOMAIN_MIN 0.0 0.0 0.0
DOMAIN_MAX 1.0 1.0 1.0
0.000000 0.000000 0.030000
0.000000 0.001123 0.082373
0.000000 0.002155 0.134655
0.000000 0.003154 0.186904
0.000000 0.004134 0.239134
0.000000 0.005099 0.291349
0.000000 0.006052 0.343552
0.000000 0.006995 0.395745
0.000000 0.007931 0.447931
0.000000 0.008860 0.500110
0.000000 0.009782 0.552282
0.000000 0.010699 0.604449
0.000000 0.011611 0.656611
0.000000 0.012518 0.708768
0.000000 0.013421 0.760921
0.000000 0.014320 0.813070
0.000000 0.015216 0.865216
0.000000 0.060945 0.039695
0.000000 0.061863 0.091863
0.000000 0.062775 0.144025
0.000000 0.063683 0.196183
0.000000 0.064586 0.248336
0.000000 0.065486 0.300486
0.000000 0.066382 0.352632
0.000000 0.067274 0.404774
0.000000 0.068164 0.456914
0.000000 0.069050 0.509050
0.000000 0.069934 0.561184
0.000000 0.070815 0.613315
0.000443 0.071693 0.665443
0.001319 0.072569 0.717569
0.002193 0.073443 0.769693
0.003065 0.074315 0.821815
0.003934 0.075184 0.873934
0.000000 0.121101 0.048601
0.000000 0.121982 0.100732
0.000361 0.122861 0.152861
0.001237 0.123737 0.204987
0.002111 0.124611 0.257111
0.002983 0.125483 0.309233
0.003852 0.126352 0.361352
0.004720 0.127220 0.413470
0.005586 0.128086 0.465586
0.006450 0.128950 0.517700
0.007312 0.129812 0.569812
0.008172 0.130672 0.621922
0.009031 0.131531 0.674031
0.009888 0.132388 0.726138
0.010743 0.133243 0.778243
0.011597 0.134097 0.830347
0.012449 0.134949 0.882449
0.007230 0.180980 0.057230
0.008091 0.181841 0.109341
0.008950 0.182700 0.161450
0.009807 0.183557 0.213557
0.010663 0.184413 0.265663
0.011517 0.185267 0.317767
0.012369 0.186119 0.369869
0.013220 0.186970 0.421970
0.014070 0.187820 0.474070
0.014919 0.188669 0.526169
0.015766 0.189516 0.578266
0.016612 0.190362 0.630362
0.017456 0.191206 0.682456
0.018300 0.192050 0.734550
0.019142 0.192892 0.786642
0.019983 0.193733 0.838733
0.020823 0.194573 0.890823
0.015686 0.240686 0.065686
0.016532 0.241532 0.117782
0.017377 0.242377 0.169877
0.018220 0.243220 0.221970
0.019062 0.244062 0.274062
0.019904 0.244904 0.326154
0.020744 0.245744 0.378244
0.021583 0.246583 0.430333
0.022420 0.247420 0.482420
0.023257 0.248257 0.534507
0.024093 0.249093 0.586593
0.024928 0.249928 0.638678
0.025761 0.250761 0.690761
0.026594 0.251594 0.742844
0.027426 0.252426 0.794926
0.028257 0.253257 0.847007
0.029087 0.254087 0.899087
0.024014 0.300264 0.074014
0.024849 0.301099 0.126099
0.025683 0.301933 0.178183
0.026516 0.302766 0.230266
0.027348 0.303598 0.282348
0.028179 0.304429 0.334429
0.029009 0.305259 0.386509
0.029838 0.306088 0.438588
0.030666 0.306916 0.490666
0.031494 0.307744 0.542744
0.032320 0.308570 0.594820
0.033146 0.309396 0.646896
0.033971 0.310221 0.698971
0.034795 0.311045 0.751045
0.035618 0.311868 0.803118
0.036441 0.312691 0.855191
0.037263 0.313513 0.907263
0.032242 0.359742 0.082242
0.033068 0.360568 0.134318
0.033893 0.361393 0.186393
0.034718 0.362218 0.238468
0.035541 0.363041 0.290541
0.036364 0.363864 0.342614
0.037185 0.364685 0.394685
0.038007 0.365507 0.446757
0.038827 0.366327 0.498827
0.039647 0.367147 0.550897
0.040466 0.367966 0.602966
0.041284 0.368784 0.655034
0.042101 0.369601 0.707101
0.042918 0.370418 0.759168
0.043734 0.371234 0.811234
0.044550 0.372050 0.863300
0.045365 0.372865 0.915365
0.040388 0.419138 0.090388
0.041207 0.419957 0.142457
0.042024 0.420774 0.194524
0.042841 0.421591 0.246591
0.043657 0.422407 0.298657
0.044473 0.423223 0.350723
0.045288 0.424038 0.402788
0.046102 0.424852 0.454852
0.046916 0.425666 0.506916
0.047729 0.426479 0.558979
0.048541 0.427291 0.611041
0.049353 0.428103 0.663103
0.050164 0.428914 0.715164
0.050975 0.429725 0.767225
0.051784 0.430534 0.819284
0.052594 0.431344 0.871344
0.053403 0.432153 0.923403
0.048465 0.478465 0.098465
0.049276 0.479276 0.150526
0.050088 0.480088 0.202588
0.050898 0.480898 0.254648
0.051708 0.481708 0.306708
0.052518 0.482518 0.358768
0.053326 0.483326 0.410826
0.054135 0.484135 0.462885
0.054942 0.484942 0.514942
0.055750 0.485750 0.567000
0.056556 0.486556 0.619056
0.057362 0.487362 0.671112
0.058168 0.488168 0.723168
0.058973 0.488973 0.775223
0.059777 0.489777 0.827277
0.060581 0.490581 0.879331
0.061385 0.491385 0.931385
0.056480 0.537730 0.106480
0.057286 0.538536 0.158536
0.058092 0.539342 0.210592
0.058897 0.540147 0.262647
0.059702 0.540952 0.314702
0.060506 0.541756 0.366756
0.061309 0.542559 0.418809
0.062112 0.543362 0.470862
0.062915 0.544165 0.522915
0.063717 0.544967 0.574967
0.064518 0.545768 0.627018
0.065319 0.546569 0.679069
0.066120 0.547370 0.731120
0.066920 0.548170 0.783170
0.067719 0.548969 0.835219
0.068518 0.549768 0.887268
0.069317 0.550567 0.939317
0.064443 0.596943 0.114443
0.065244 0.597744 0.166494
0.066044 0.598544 0.218544
0.066844 0.599344 0.270594
0.067644 0.600144 0.322644
0.068443 0.600943 0.374693
0.069242 0.601742 0.426742
0.070040 0.602540 0.478790
0.070838 0.603338 0.530838
0.071635 0.604135 0.582885
0.072432 0.604932 0.634932
0.073229 0.605729 0.686979
0.074025 0.606525 0.739025
0.074820 0.607320 0.791070
0.075616 0.608116 0.843116
0.076410 0.608910 0.895160
0.077205 0.609705 0.947205
0.072357 0.656107 0.122357
0.073154 0.656904 0.174404
0.073950 0.657700 0.226450
0.074745 0.658495 0.278495
0.075541 0.659291 0.330541
0.076335 0.660085 0.382585
0.077130 0.660880 0.434630
0.077924 0.661674 0.486674
0.078717 0.662467 0.538717
0.079511 0.663261 0.590761
0.080303 0.664053 0.642803
0.081096 0.664846 0.694846
0.081888 0.665638 0.746888
0.082679 0.666429 0.798929
0.083470 0.667220 0.850970
0.084261 0.668011 0.903011
0.085052 0.668802 0.955052
0.080229 0.715229 0.130229
0.081021 0.716021 0.182271
0.081813 0.716813 0.234313
0.082605 0.717605 0.286355
0.083396 0.718396 0.338396
0.084187 0.719187 0.390437
0.084977 0.719977 0.442477
0.085767 0.720767 0.494517
0.086557 0.721557 0.546557
0.087346 0.722346 0.598596
0.088135 0.723135 0.650635
0.088924 0.723924 0.702674
0.089712 0.724712 0.754712
0.090500 0.725500 0.806750
0.091287 0.726287 0.858787
0.092074 0.727074 0.910824
0.092861 0.727861 0.962861
0.088061 0.774311 0.138061
0.088849 0.775099 0.190099
0.089638 0.775888 0.242138
0.090426 0.776676 0.294176
0.091213 0.777463 0.346213
0.092000 0.778250 0.398250
0.092787 0.779037 0.450287
0.093574 0.779824 0.502324
0.094360 0.780610 0.554360
0.095145 0.781395 0.606395
0.095931 0.782181 0.658431
0.096716 0.782966 0.710466
0.097501 0.783751 0.762501
0.098285 0.784535 0.814535
0.099069 0.785319 0.866569
0.099853 0.786103 0.918603
0.100636 0.786886 0.970636
0.095857 0.833357 0.145857
0.096642 0.834142 0.197892
0.097427 0.834927 0.249927
0.098211 0.835711 0.301961
0.098995 0.836495 0.353995
0.099779 0.837279 0.406029
0.100563 0.838063 0.458063
0.101346 0.838846 0.510096
0.102129 0.839629 0.562129
0.102911 0.840411 0.614161
0.103693 0.841193 0.666193
0.104475 0.841975 0.718225
0.105257 0.842757 0.770257
0.106038 0.843538 0.822288
0.106819 0.844319 0.874319
0.107599 0.845099 0.926349
0.108380 0.845880 0.978380
0.103620 0.892370 0.153620
0.104401 0.893151 0.205651
0.105183 0.893933 0.257683
0.105964 0.894714 0.309714
0.106745 0.895495 0.361745
0.107526 0.896276 0.413776
0.108306 0.897056 0.465806
0.109086 0.897836 0.517836
0.109866 0.898616 0.569866
0.110646 0.899396 0.621896
0.111425 0.900175 0.673925
0.112204 0.900954 0.725954
0.112982 0.901732 0.777982
0.113760 0.902510 0.830010
0.114538 0.903288 0.882038
0.115316 0.904066 0.934066
0.116093 0.904843 0.986093
0.111351 0.951351 0.161351
0.112130 0.952130 0.213380
0.112909 0.952909 0.265409
0.113687 0.953687 0.317437
0.114465 0.954465 0.369465
0.115243 0.955243 0.421493
0.116020 0.956020 0.473520
0.116797 0.956797 0.525547
0.117574 0.957574 0.577574
0.118351 0.958351 0.629601
0.119127 0.959127 0.681627
0.119903 0.959903 0.733653
0.120679 0.960679 0.785679
0.121454 0.961454 0.837704
0.122230 0.962230 0.889730
0.123005 0.963005 0.941755
0.123779 0.963779 0.993779
0.034350 0.003100 0.033100
0.035330 0.004080 0.085330
0.036296 0.005046 0.137546
0.037249 0.005999 0.189749
0.038193 0.006943 0.241943
0.039129 0.007879 0.294129
0.040058 0.008808 0.346308
0.040981 0.009731 0.398481
0.041898 0.010648 0.450648
0.042810 0.011560 0.502810
0.043718 0.012468 0.554968
0.044621 0.013371 0.607121
0.045521 0.014271 0.659271
0.046416 0.015166 0.711416
0.047309 0.016059 0.763559
0.048198 0.016948 0.815698
0.049085 0.017835 0.867835
0.043632 0.063632 0.042382
0.044536 0.064536 0.094536
0.045436 0.065436 0.146686
0.046332 0.066332 0.198832
0.047225 0.067225 0.250975
0.048115 0.068115 0.303115
0.049001 0.069001 0.355251
0.049885 0.069885 0.407385
0.050766 0.070766 0.459516
0.051645 0.071645 0.511645
0.052521 0.072521 0.563771
0.053395 0.073395 0.615895
0.054266 0.074266 0.668016
0.055136 0.075136 0.720136
0.056004 0.076004 0.772254
0.056869 0.076869 0.824369
0.057733 0.077733 0.876483
0.052438 0.123688 0.051188
0.053313 0.124563 0.103313
0.054184 0.125434 0.155434
0.055054 0.126304 0.207554
0.055922 0.127172 0.259672
0.056788 0.128038 0.311788
0.057652 0.128902 0.363902
0.058514 0.129764 0.416014
0.059374 0.130624 0.468124
0.060233 0.131483 0.520233
0.061090 0.132340 0.572340
0.061946 0.133196 0.624446
0.062800 0.134050 0.676550
0.063652 0.134902 0.728652
0.064503 0.135753 0.780753
0.065353 0.136603 0.832853
0.066201 0.137451 0.884951
0.061009 0.183509 0.059759
0.061865 0.184365 0.111865
0.062719 0.185219 0.163969
0.063572 0.186072 0.216072
0.064423 0.186923 0.268173
0.065273 0.187773 0.320273
0.066122 0.188622 0.372372
0.066969 0.189469 0.424469
0.067815 0.190315 0.476565
0.068659 0.191159 0.528659
0.069503 0.192003 0.580753
0.070345 0.192845 0.632845
0.071186 0.193686 0.684936
0.072026 0.194526 0.737026
0.072865 0.195365 0.789115
0.073703 0.196203 0.841203
0.074540 0.197040 0.893290
0.069423 0.243173 0.068173
0.070266 0.244016 0.120266
0.071107 0.244857 0.172357
0.071947 0.245697 0.224447
0.072786 0.246536 0.276536
0.073624 0.247374 0.328624
0.074461 0.248211 0.380711
0.075297 0.249047 0.432797
0.076131 0.249881 0.484881
0.076965 0.250715 0.536965
0.077798 0.251548 0.589048
0.078630 0.252380 0.641130
0.079461 0.253211 0.693211
0.080291 0.254041 0.745291
0.081120 0.254870 0.797370
0.081948 0.255698 0.849448
0.082776 0.256526 0.901526
0.077720 0.302720 0.076470
0.078552 0.303552 0.128552
0.079383 0.304383 0.180633
0.080213 0.305213 0.232713
0.081042 0.306042 0.284792
0.081870 0.306870 0.336870
0.082698 0.307698 0.388948
0.083525 0.308525 0.441025
0.084350 0.309350 0.493100
0.085175 0.310175 0.545175
0.085999 0.310999 0.597249
0.086823 0.311823 0.649323
0.087645 0.312645 0.701395
0.088467 0.313467 0.753467
0.089288 0.314288 0.805538
0.090109 0.315109 0.857609
0.090928 0.315928 0.909678
0.085922 0.362172 0.084672
0.086745 0.362995 0.136745
0.087568 0.363818 0.188818
0.088390 0.364640 0.240890
0.089211 0.365461 0.292961
0.090032 0.366282 0.345032
0.090851 0.367101 0.397101
0.091670 0.367920 0.449170
0.092488 0.368738 0.501238
0.093306 0.369556 0.553306
0.094123 0.370373 0.605373
0.094939 0.371189 0.657439
0.095755 0.372005 0.709505
0.096569 0.372819 0.761569
0.097384 0.373634 0.813634
0.098197 0.374447 0.865697
0.099010 0.375260 0.917760
0.094046 0.421546 0.092796
0.094862 0.422362 0.144862
0.095678 0.423178 0.196928
0.096493 0.423993 0.248993
0.097307 0.424807 0.301057
0.098121 0.425621 0.353121
0.098934 0.426434 0.405184
0.099746 0.427246 0.457246
0.100558 0.428058 0.509308
0.101369 0.428869 0.561369
0.102180 0.429680 0.613430
0.102990 0.430490 0.665490
0.103799 0.431299 0.717549
0.104608 0.432108 0.769608
0.105416 0.432916 0.821666
0.106224 0.433724 0.873724
0.107031 0.434531 0.925781
0.102103 0.480853 0.100853
0.102913 0.481663 0.152913
0.103723 0.482473 0.204973
0.104532 0.483282 0.257032
0.105340 0.484090 0.309090
0.106148 0.484898 0.361148
0.106955 0.485705 0.413205
0.107762 0.486512 0.465262
0.108568 0.487318 0.517318
0.109373 0.488123 0.569373
0.110178 0.488928 0.621428
0.110983 0.489733 0.673483
0.111787 0.490537 0.725537
0.112590 0.491340 0.777590
0.113393 0.492143 0.829643
0.114196 0.492946 0.881696
0.114998 0.493748 0.933748
0.110102 0.540102 0.108852
0.110907 0.540907 0.160907
0.111711 0.541711 0.212961
0.112515 0.542515 0.265015
0.113318 0.543318 0.317068
0.114120 0.544120 0.369120
0.114922 0.544922 0.421172
0.115724 0.545724 0.473224
0.116525 0.546525 0.525275
0.117325 0.547325 0.577325
0.118125 0.548125 0.629375
0.118925 0.548925 0.681425
0.119724 0.549724 0.733474
0.120523 0.550523 0.785523
0.121321 0.551321 0.837571
0.122119 0.552119 0.889619
0.122916 0.552916 0.941666
0.118050 0.599300 0.116800
0.118850 0.600100 0.168850
0.119649 0.600899 0.220899
0.120448 0.601698 0.272948
0.121246 0.602496 0.324996
0.122044 0.603294 0.377044
0.122841 0.604091 0.429091
0.123638 0.604888 0.481138
0.124435 0.605685 0.533185
0.125231 0.606481 0.585231
0.126026 0.607276 0.637276
0.126822 0.608072 0.689322
0.127616 0.608866 0.741366
0.128411 0.609661 0.793411
0.129205 0.610455 0.845455
0.129998 0.611248 0.897498
0.130791 0.612041 0.949541
0.125951 0.658451 0.124701
0.126747 0.659247 0.176747
0.127541 0.660041 0.228791
0.128336 0.660836 0.280836
0.129130 0.661630 0.332880
0.129923 0.662423 0.384923
0.130717 0.663217 0.436967
0.131509 0.664009 0.489009
0.132302 0.664802 0.541052
0.133094 0.665594 0.593094
0.133885 0.666385 0.645135
0.134677 0.667177 0.697177
0.135467 0.667967 0.749217
0.136258 0.668758 0.801258
0.137048 0.669548 0.853298
0.137837 0.670337 0.905337
0.138627 0.671127 0.957377
0.133811 0.717561 0.132561
0.134602 0.718352 0.184602
0.135393 0.719143 0.236643
0.136183 0.719933 0.288683
0.136973 0.720723 0.340723
0.137763 0.721513 0.392763
0.138552 0.722302 0.444802
0.139341 0.723091 0.496841
0.140130 0.723880 0.548880
0.140918 0.724668 0.600918
0.141706 0.725456 0.652956
0.142494 0.726244 0.704994
0.143281 0.727031 0.757031
0.144068 0.727818 0.809068
0.144854 0.728604 0.861104
0.145640 0.729390 0.913140
0.146426 0.730176 0.965176
0.141632 0.776632 0.140382
0.142419 0.777419 0.192419
0.143207 0.778207 0.244457
0.143993 0.778993 0.296493
0.144780 0.779780 0.348530
0.145566 0.780566 0.400566
0.146352 0.781352 0.452602
0.147137 0.782137 0.504637
0.147922 0.782922 0.556672
0.148707 0.783707 0.608707
0.149492 0.784492 0.660742
0.150276 0.785276 0.712776
0.151060 0.786060 0.764810
0.151843 0.786843 0.816843
0.152626 0.787626 0.868876
0.153409 0.788409 0.920909
0.154191 0.789191 0.972941
0.149418 0.835668 0.148168
0.150202 0.836452 0.200202
0.150986 0.837236 0.252236
0.151769 0.838019 0.304269
0.152552 0.838802 0.356302
0.153335 0.839585 0.408335
0.154118 0.840368 0.460368
0.154900 0.841150 0.512400
0.155682 0.841932 0.564432
0.156463 0.842713 0.616463
0.157245 0.843495 0.668495
0.158026 0.844276 0.720526
0.158806 0.845056 0.772556
0.159587 0.845837 0.824587
0.160367 0.846617 0.876617
0.161146 0.847396 0.928646
0.161926 0.848176 0.980676
0.157171 0.894671 0.155921
0.157952 0.895452 0.207952
0.158733 0.896233 0.259983
0.159513 0.897013 0.312013
0.160293 0.897793 0.364043
0.161073 0.898573 0.416073
0.161852 0.899352 0.468102
0.162632 0.900132 0.520132
0.163410 0.900910 0.572160
0.164189 0.901689 0.624189
0.164967 0.902467 0.676217
0.165745 0.903245 0.728245
0.166523 0.904023 0.780273
0.167300 0.904800 0.832300
0.168077 0.905577 0.884327
0.168854 0.906354 0.936354
0.169631 0.907131 0.988381
0.164894 0.953644 0.163644
0.165672 0.954422 0.215672
0.166450 0.955200 0.267700
0.167227 0.955977 0.319727
0.168004 0.956754 0.371754
0.168781 0.957531 0.423781
0.169558 0.958308 0.475808
0.170334 0.959084 0.527834
0.171110 0.959860 0.579860
0.171886 0.960636 0.631886
0.172661 0.961411 0.683911
0.173437 0.962187 0.735937
0.174212 0.962962 0.787962
0.174986 0.963736 0.839986
0.175761 0.964511 0.892011
0.176535 0.965285 0.944035
0.177309 0.966059 0.996059
0.088447 0.005947 0.035947
0.089391 0.006891 0.088141
0.090328 0.007828 0.140328
0.091257 0.008757 0.192507
0.092180 0.009680 0.244680
0.093097 0.010597 0.296847
0.094010 0.011510 0.349010
0.094918 0.012418 0.401168
0.095821 0.013321 0.453321
0.096721 0.014221 0.505471
0.097617 0.015117 0.557617
0.098509 0.016009 0.609759
0.099399 0.016899 0.661899
0.100285 0.017785 0.714035
0.101169 0.018669 0.766169
0.102050 0.019550 0.818300
0.102929 0.020429 0.870429
0.097533 0.066283 0.045033
0.098426 0.067176 0.097176
0.099315 0.068065 0.149315
0.100202 0.068952 0.201452
0.101086 0.069836 0.253586
0.101967 0.070717 0.305717
0.102846 0.071596 0.357846
0.103722 0.072472 0.409972
0.104596 0.073346 0.462096
0.105468 0.074218 0.514218
0.106338 0.075088 0.566338
0.107206 0.075956 0.618456
0.108071 0.076821 0.670571
0.108935 0.077685 0.722685
0.109797 0.078547 0.774797
0.110658 0.079408 0.826908
0.111516 0.080266 0.879016
0.106256 0.126256 0.053756
0.107124 0.127124 0.105874
0.107990 0.127990 0.157990
0.108854 0.128854 0.210104
0.109716 0.129716 0.262216
0.110577 0.130577 0.314327
0.111436 0.131436 0.366436
0.112293 0.132293 0.418543
0.113148 0.133148 0.470648
0.114002 0.134002 0.522752
0.114855 0.134855 0.574855
0.115706 0.135706 0.626956
0.116556 0.136556 0.679056
0.117405 0.137405 0.731155
0.118252 0.138252 0.783252
0.119098 0.139098 0.835348
0.119942 0.139942 0.887442
0.114775 0.186025 0.062275
0.115626 0.186876 0.114376
0.116476 0.187726 0.166476
0.117325 0.188575 0.218575
0.118172 0.189422 0.270672
0.119018 0.190268 0.322768
0.119863 0.191113 0.374863
0.120706 0.191956 0.426956
0.121548 0.192798 0.479048
0.122390 0.193640 0.531140
0.123230 0.194480 0.583230
0.124069 0.195319 0.635319
0.124906 0.196156 0.687406
0.125743 0.196993 0.739493
0.126579 0.197829 0.791579
0.127414 0.198664 0.843664
0.128248 0.199498 0.895748
0.123151 0.245651 0.070651
0.123990 0.246490 0.122740
0.124828 0.247328 0.174828
0.125665 0.248165 0.226915
0.126500 0.249000 0.279000
0.127335 0.249835 0.331085
0.128169 0.250669 0.383169
0.129002 0.251502 0.435252
0.129834 0.252334 0.487334
0.130665 0.253165 0.539415
0.131495 0.253995 0.591495
0.132324 0.254824 0.643574
0.133153 0.255653 0.695653
0.133980 0.256480 0.747730
0.134807 0.257307 0.799807
0.135632 0.258132 0.851882
0.136457 0.258957 0.903957
0.131417 0.305167 0.078917
0.132246 0.305996 0.130996
0.133075 0.306825 0.183075
0.133902 0.307652 0.235152
0.134729 0.308479 0.287229
0.135555 0.309305 0.339305
0.136380 0.310130 0.391380
0.137204 0.310954 0.443454
0.138027 0.311777 0.495527
0.138850 0.312600 0.547600
0.139672 0.313422 0.599672
0.140493 0.314243 0.651743
0.141313 0.315063 0.703813
0.142133 0.315883 0.755883
0.142952 0.316702 0.807952
0.143770 0.317520 0.860020
0.144588 0.318338 0.912088
0.139594 0.364594 0.087094
0.140416 0.365416 0.139166
0.141236 0.366236 0.191236
0.142056 0.367056 0.243306
0.142875 0.367875 0.295375
0.143693 0.368693 0.347443
0.144511 0.369511 0.399511
0.145328 0.370328 0.451578
0.146144 0.371144 0.503644
0.146959 0.371959 0.555709
0.147774 0.372774 0.607774
0.148589 0.373589 0.659839
0.149402 0.374402 0.711902
0.150215 0.375215 0.763965
0.151028 0.376028 0.816028
0.151839 0.376839 0.868089
0.152651 0.377651 0.920151
0.147698 0.423948 0.095198
0.148512 0.424762 0.147262
0.149326 0.425576 0.199326
0.150139 0.426389 0.251389
0.150951 0.427201 0.303451
0.151763 0.428013 0.355513
0.152574 0.428824 0.407574
0.153385 0.429635 0.459635
0.154195 0.430445 0.511695
0.155004 0.431254 0.563754
0.155813 0.432063 0.615813
0.156621 0.432871 0.667871
0.157429 0.433679 0.719929
0.158236 0.434486 0.771986
0.159043 0.435293 0.824043
0.159849 0.436099 0.876099
0.160654 0.436904 0.928154
0.155737 0.483237 0.103237
0.156545 0.484045 0.155295
0.157353 0.484853 0.207353
0.158160 0.485660 0.259410
0.158967 0.486467 0.311467
0.159773 0.487273 0.363523
0.160579 0.488079 0.415579
0.161384 0.488884 0.467634
0.162188 0.489688 0.519688
0.162992 0.490492 0.571742
0.163796 0.491296 0.623796
0.164599 0.492099 0.675849
0.165401 0.492901 0.727901
0.166203 0.493703 0.779953
0.167005 0.494505 0.832005
0.167806 0.495306 0.884056
0.168606 0.496106 0.936106
0.163720 0.542470 0.111220
0.164523 0.543273 0.163273
0.165326 0.544076 0.215326
0.166128 0.544878 0.267378
0.166929 0.545679 0.319429
0.167730 0.546480 0.371480
0.168531 0.547281 0.423531
0.169331 0.548081 0.475581
0.170131 0.548881 0.527631
0.170930 0.549680 0.579680
0.171729 0.550479 0.631729
0.172527 0.551277 0.683777
0.173325 0.552075 0.735825
0.174122 0.552872 0.787872
0.174919 0.553669 0.839919
0.175715 0.554465 0.891965
0.176512 0.555262 0.944012
0.171653 0.601653 0.119153
0.172452 0.602452 0.171202
0.173250 0.603250 0.223250
0.174047 0.604047 0.275297
0.174844 0.604844 0.327344
0.175640 0.605640 0.379390
0.176437 0.606437 0.431437
0.177232 0.607232 0.483482
0.178027 0.608027 0.535527
0.178822 0.608822 0.587572
0.179617 0.609617 0.639617
0.180411 0.610411 0.691661
0.181204 0.611204 0.743704
0.181997 0.611997 0.795747
0.182790 0.612790 0.847790
0.183582 0.613582 0.899832
0.184374 0.614374 0.951874
0.179542 0.660792 0.127042
0.180336 0.661586 0.179086
0.181129 0.662379 0.231129
0.181923 0.663173 0.283173
0.182715 0.663965 0.335215
0.183508 0.664758 0.387258
0.184300 0.665550 0.439300
0.185091 0.666341 0.491341
0.185883 0.667133 0.543383
0.186674 0.667924 0.595424
0.187464 0.668714 0.647464
0.188254 0.669504 0.699504
0.189044 0.670294 0.751544
0.189833 0.671083 0.803583
0.190622 0.671872 0.855622
0.191411 0.672661 0.907661
0.192199 0.673449 0.959699
0.187390 0.719890 0.134890
0.188180 0.720680 0.186930
0.188969 0.721469 0.238969
0.189759 0.722259 0.291009
0.190548 0.723048 0.343048
0.191336 0.723836 0.395086
0.192125 0.724625 0.447125
0.192912 0.725412 0.499162
0.193700 0.726200 0.551200
0.194487 0.726987 0.603237
0.195274 0.727774 0.655274
0.196060 0.728560 0.707310
0.196847 0.729347 0.759347
0.197632 0.730132 0.811382
0.198418 0.730918 0.863418
0.199203 0.731703 0.915453
0.199988 0.732488 0.967488
0.195200 0.778950 0.142700
0.195986 0.779736 0.194736
0.196773 0.780523 0.246773
0.197558 0.781308 0.298808
0.198344 0.782094 0.350844
0.199129 0.782879 0.402879
0.199914 0.783664 0.454914
0.200698 0.784448 0.506948
0.201482 0.785232 0.558982
0.202266 0.786016 0.611016
0.203050 0.786800 0.663050
0.203833 0.787583 0.715083
0.204616 0.788366 0.767116
0.205398 0.789148 0.819148
0.206180 0.789930 0.871180
0.206962 0.790712 0.923212
0.207744 0.791494 0.975244
0.202976 0.837976 0.150476
0.203759 0.838759 0.202509
0.204542 0.839542 0.254542
0.205324 0.840324 0.306574
0.206107 0.841107 0.358607
0.206889 0.841889 0.410639
0.207670 0.842670 0.462670
0.208451 0.843451 0.514701
0.209232 0.844232 0.566732
0.210013 0.845013 0.618763
0.210793 0.845793 0.670793
0.211573 0.846573 0.722823
0.212353 0.847353 0.774853
0.213133 0.848133 0.826883
0.213912 0.848912 0.878912
0.214691 0.849691 0.930941
0.215469 0.850469 0.982969
0.210720 0.896970 0.158220
0.211500 0.897750 0.210250
0.212280 0.898530 0.262280
0.213059 0.899309 0.314309
0.213838 0.900088 0.366338
0.214617 0.900867 0.418367
0.215396 0.901646 0.470396
0.216174 0.902424 0.522424
0.216952 0.903202 0.574452
0.217730 0.903980 0.626480
0.218507 0.904757 0.678507
0.219284 0.905534 0.730534
0.220061 0.906311 0.782561
0.220838 0.907088 0.834588
0.221614 0.907864 0.886614
0.222390 0.908640 0.938640
0.223166 0.909416 0.990666
0.218434 0.955934 0.165934
0.219211 0.956711 0.217961
0.219988 0.957488 0.269988
0.220765 0.958265 0.322015
0.221541 0.959041 0.374041
0.222317 0.959817 0.426067
0.223093 0.960593 0.478093
0.223868 0.961368 0.530118
0.224644 0.962144 0.582144
0.225419 0.962919 0.634169
0.226193 0.963693 0.686193
0.226968 0.964468 0.738218
0.227742 0.965242 0.790242
0.228516 0.966016 0.842266
0.229290 0.966790 0.894290
0.230063 0.967563 0.946313
0.230836 0.968336 0.998336
0.142456 0.008706 0.038706
0.143379 0.009629 0.090879
0.144297 0.010547 0.143047
0.145209 0.011459 0.195209
0.146117 0.012367 0.247367
0.147021 0.013271 0.299521
0.147921 0.014171 0.351671
0.148817 0.015067 0.403817
0.149710 0.015960 0.455960
0.150600 0.016850 0.508100
0.151486 0.017736 0.560236
0.152370 0.018620 0.612370
0.153251 0.019501 0.664501
0.154130 0.020380 0.716630
0.155006 0.021256 0.768756
0.155880 0.022130 0.820880
