assets/luts/dark-moody.cube
# montage LUT: dark-moody — 暗黑电影感（悬疑/压迫）（原创，MIT）
TITLE "montage dark moody suspense"
LUT_3D_SIZE 17
DOMAIN_MIN 0.0 0.0 0.0
DOMAIN_MAX 1.0 1.0 1.0
0.000000 0.000000 0.000000
0.000378 0.000378 0.039533
0.000860 0.000860 0.082517
0.001392 0.001392 0.126914
0.001958 0.001958 0.172256
0.002552 0.002552 0.218314
0.003169 0.003169 0.264952
0.003806 0.003806 0.312078
0.004460 0.004460 0.359626
0.005129 0.005129 0.407546
0.005812 0.005812 0.455800
0.006509 0.006509 0.504355
0.007217 0.007217 0.553188
0.007936 0.007936 0.602274
0.008666 0.008666 0.651597
0.009406 0.009406 0.701141
0.010155 0.010155 0.750891
0.005747 0.045833 0.005747
0.006442 0.046613 0.046613
0.007150 0.047402 0.090060
0.007868 0.048200 0.134785
0.008597 0.049006 0.180390
0.009336 0.049820 0.226672
0.010084 0.050641 0.273505
0.010841 0.051469 0.320806
0.011606 0.052304 0.368513
0.012380 0.053145 0.416580
0.013161 0.053992 0.464969
0.013950 0.054845 0.513651
0.014745 0.055704 0.562602
0.015548 0.056568 0.611801
0.016357 0.057438 0.661230
0.017172 0.058312 0.710874
0.017994 0.059192 0.760721
0.013087 0.096799 0.013087
0.013875 0.097680 0.054764
0.014670 0.098567 0.098567
0.015472 0.099459 0.143544
0.016280 0.100356 0.189350
0.017095 0.101258 0.235804
0.017916 0.102165 0.282789
0.018743 0.103077 0.330227
0.019576 0.103993 0.378059
0.020415 0.104914 0.426241
0.021258 0.105839 0.474739
0.022108 0.106768 0.523523
0.022962 0.107702 0.572570
0.023821 0.108639 0.621860
0.024686 0.109580 0.671377
0.025555 0.110525 0.721105
0.026429 0.111474 0.771031
0.021179 0.149965 0.021179
0.022027 0.150912 0.063490
0.022881 0.151864 0.107613
0.023740 0.152819 0.152819
0.024604 0.153778 0.198809
0.025473 0.154741 0.245418
0.026346 0.155708 0.292540
0.027224 0.156678 0.340100
0.028107 0.157651 0.388045
0.028994 0.158629 0.436331
0.029885 0.159609 0.484925
0.030780 0.160593 0.533801
0.031680 0.161580 0.582934
0.032583 0.162570 0.632306
0.033491 0.163563 0.681901
0.034402 0.164560 0.731703
0.035317 0.165559 0.781702
0.029801 0.204630 0.029801
0.030696 0.205628 0.072639
0.031595 0.206628 0.117057
0.032498 0.207632 0.162477
0.033405 0.208639 0.208639
0.034316 0.209649 0.255394
0.035231 0.210662 0.302644
0.036150 0.211678 0.350320
0.037072 0.212697 0.398369
0.037998 0.213718 0.446752
0.038928 0.214743 0.495437
0.039861 0.215770 0.544397
0.040797 0.216800 0.593611
0.041737 0.217832 0.643060
0.042680 0.218868 0.692727
0.043627 0.219905 0.742599
0.044577 0.220946 0.792665
0.038840 0.260447 0.038840
0.039773 0.261485 0.082130
0.040709 0.262526 0.126822
0.041648 0.263569 0.172444
0.042591 0.264616 0.218770
0.043538 0.265664 0.265664
0.044487 0.266716 0.313037
0.045440 0.267770 0.360822
0.046396 0.268826 0.408972
0.047355 0.269885 0.457448
0.048317 0.270946 0.506219
0.049282 0.272009 0.555260
0.050250 0.273075 0.604550
0.051221 0.274144 0.654071
0.052195 0.275214 0.703807
0.053172 0.276287 0.753745
0.054152 0.277362 0.803874
0.048226 0.317204 0.048226
0.049191 0.318277 0.091914
0.050159 0.319352 0.136860
0.051130 0.320430 0.182674
0.052103 0.321510 0.229157
0.053080 0.322592 0.276186
0.054059 0.323676 0.323676
0.055041 0.324762 0.371567
0.056026 0.325851 0.419814
0.057014 0.326942 0.468378
0.058005 0.328035 0.517232
0.058998 0.329130 0.566351
0.059993 0.330227 0.615714
0.060992 0.331326 0.665305
0.061993 0.332427 0.715107
0.062996 0.333530 0.765109
0.064002 0.334635 0.815299
0.057911 0.374761 0.057911
0.058904 0.375864 0.101954
0.059899 0.376969 0.147138
0.060898 0.378076 0.193136
0.061898 0.379185 0.239769
0.062901 0.380297 0.286927
0.063907 0.381410 0.334531
0.064916 0.382525 0.382525
0.065926 0.383642 0.430865
0.066940 0.384761 0.479516
0.067955 0.385882 0.528450
0.068973 0.387005 0.577644
0.069994 0.388130 0.627078
0.071016 0.389256 0.676736
0.072041 0.390384 0.726603
0.073069 0.391515 0.776666
0.074098 0.392647 0.826915
0.067859 0.433013 0.067859
0.068877 0.434143 0.112223
0.069897 0.435275 0.157631
0.070920 0.436409 0.203804
0.071945 0.437544 0.250583
0.072972 0.438681 0.297865
0.074001 0.439820 0.345580
0.075033 0.440961 0.393673
0.076067 0.442104 0.442104
0.077103 0.443248 0.490839
0.078142 0.444394 0.539851
0.079182 0.445542 0.589119
0.080225 0.446692 0.638622
0.081270 0.447843 0.688345
0.082317 0.448996 0.738275
0.083366 0.450150 0.788398
0.084417 0.451306 0.838703
0.078044 0.491883 0.078044
0.079084 0.493037 0.122701
0.080127 0.494193 0.168320
0.081171 0.495351 0.214660
0.082218 0.496510 0.261579
0.083267 0.497671 0.308983
0.084318 0.498834 0.356805
0.085371 0.499998 0.404995
0.086426 0.501164 0.453514
0.087483 0.502331 0.502331
0.088542 0.503500 0.551420
0.089604 0.504671 0.600758
0.090667 0.505843 0.650329
0.091732 0.507016 0.700117
0.092799 0.508191 0.750107
0.093868 0.509368 0.800288
0.094939 0.510546 0.850649
0.088443 0.551309 0.088443
0.089504 0.552485 0.133370
0.090567 0.553663 0.179189
0.091631 0.554843 0.225689
0.092698 0.556024 0.272743
0.093767 0.557206 0.320265
0.094838 0.558391 0.368191
0.095911 0.559576 0.416476
0.096985 0.560763 0.465082
0.098062 0.561952 0.513979
0.099140 0.563142 0.563142
0.100220 0.564333 0.612551
0.101302 0.565526 0.662188
0.102386 0.566720 0.712038
0.103471 0.567916 0.762088
0.104559 0.569113 0.812326
0.105648 0.570312 0.862742
0.099038 0.611241 0.099038
0.100118 0.612438 0.144217
0.101200 0.613636 0.190225
0.102284 0.614836 0.236879
0.103369 0.616037 0.284064
0.104456 0.617240 0.331699
0.105545 0.618444 0.379728
0.106636 0.619649 0.428105
0.107729 0.620856 0.476795
0.108823 0.622064 0.525770
0.109919 0.623273 0.575007
0.111017 0.624484 0.624484
0.112117 0.625696 0.674186
0.113218 0.626910 0.724097
0.114321 0.628125 0.774206
0.115425 0.629341 0.824500
0.116532 0.630558 0.874969
0.109816 0.671638 0.109816
0.110914 0.672854 0.155228
0.112013 0.674071 0.201417
0.113114 0.675290 0.248219
0.114217 0.676510 0.295530
0.115321 0.677731 0.343277
0.116427 0.678953 0.391405
0.117535 0.680177 0.439872
0.118644 0.681402 0.488645
0.119756 0.682628 0.537697
0.120868 0.683856 0.587005
0.121982 0.685085 0.636550
0.123098 0.686315 0.686315
0.124216 0.687546 0.736287
0.125335 0.688779 0.786453
0.126456 0.690013 0.836801
0.127578 0.691248 0.887323
0.120763 0.732466 0.120763
0.121877 0.733699 0.166395
0.122993 0.734934 0.212755
0.124111 0.736170 0.259700
0.125229 0.737408 0.307134
0.126350 0.738646 0.354989
0.127472 0.739886 0.403214
0.128596 0.741127 0.451769
0.129721 0.742369 0.500623
0.130848 0.743613 0.549750
0.131976 0.744857 0.599128
0.133106 0.746103 0.648739
0.134237 0.747350 0.698567
0.135370 0.748598 0.748598
0.136504 0.749848 0.798820
0.137640 0.751098 0.849223
0.138777 0.752350 0.899797
0.131870 0.793694 0.131870
0.132999 0.794945 0.177707
0.134130 0.796196 0.224232
0.135263 0.797449 0.271314
0.136397 0.798702 0.318867
0.137533 0.799957 0.366827
0.138670 0.801213 0.415147
0.139809 0.802471 0.463789
0.140949 0.803729 0.512722
0.142090 0.804988 0.561923
0.143233 0.806249 0.611370
0.144378 0.807511 0.661046
0.145523 0.808774 0.710936
0.146671 0.810038 0.761025
0.147819 0.811303 0.811303
0.148970 0.812569 0.861759
0.150121 0.813836 0.912384
0.143126 0.855298 0.143126
0.144270 0.856564 0.189158
0.145416 0.857831 0.235840
0.146563 0.859099 0.283055
0.147711 0.860369 0.330723
0.148861 0.861639 0.378786
0.150013 0.862911 0.427198
0.151165 0.864183 0.475924
0.152319 0.865457 0.524936
0.153475 0.866731 0.574210
0.154632 0.868007 0.623725
0.155790 0.869284 0.673465
0.156950 0.870562 0.723414
0.158111 0.871841 0.773561
0.159273 0.873121 0.823894
0.160437 0.874402 0.874402
0.161602 0.875684 0.925077
0.154523 0.917256 0.154523
0.155681 0.918536 0.200740
0.156841 0.919818 0.247573
0.158001 0.921101 0.294916
0.159164 0.922385 0.342697
0.160327 0.923670 0.390860
0.161492 0.924956 0.439362
0.162658 0.926243 0.488171
0.163826 0.927531 0.537260
0.164995 0.928820 0.586604
0.166165 0.930111 0.636186
0.167336 0.931402 0.685989
0.168509 0.932694 0.735998
0.169683 0.933987 0.786202
0.170858 0.935281 0.836588
0.172035 0.936577 0.887148
0.173213 0.937873 0.937873
0.040759 0.001361 0.001361
0.041437 0.001926 0.041437
0.042137 0.002519 0.084591
0.042855 0.003135 0.129108
0.043588 0.003770 0.174544
0.044335 0.004423 0.220681
0.045094 0.005091 0.267387
0.045863 0.005774 0.314573
0.046644 0.006470 0.362175
0.047433 0.007177 0.410144
0.048231 0.007896 0.458444
0.049037 0.008625 0.507041
0.049851 0.009365 0.555913
0.050673 0.010113 0.605036
0.051501 0.010870 0.654394
0.052336 0.011636 0.703970
0.053177 0.012410 0.753752
0.048155 0.048155 0.007828
0.048961 0.048961 0.048961
0.049774 0.049774 0.092518
0.050595 0.050595 0.137321
0.051423 0.051423 0.182989
0.052257 0.052257 0.229325
0.053098 0.053098 0.276206
0.053945 0.053945 0.323549
0.054798 0.054798 0.371296
0.055656 0.055656 0.419399
0.056520 0.056520 0.467822
0.057389 0.057389 0.516536
0.058264 0.058264 0.565517
0.059143 0.059143 0.614744
0.060027 0.060027 0.664200
0.060916 0.060916 0.713871
0.061810 0.061810 0.763742
0.056439 0.099409 0.015427
0.057307 0.100306 0.057307
0.058181 0.101208 0.101208
0.059060 0.102115 0.146255
0.059944 0.103026 0.192117
0.060833 0.103942 0.238618
0.061726 0.104863 0.285645
0.062623 0.105788 0.333120
0.063525 0.106717 0.380987
0.064431 0.107650 0.429201
0.065342 0.108587 0.477728
0.066256 0.109528 0.526540
0.067174 0.110472 0.575614
0.068097 0.111421 0.624929
0.069023 0.112373 0.674470
0.069953 0.113329 0.724221
0.070886 0.114288 0.774169
0.065256 0.152766 0.023693
0.066170 0.153725 0.066170
0.067088 0.154688 0.110383
0.068010 0.155654 0.155654
0.068935 0.156624 0.201696
0.069865 0.157597 0.248349
0.070798 0.158574 0.295510
0.071735 0.159555 0.343105
0.072675 0.160538 0.391082
0.073619 0.161525 0.439397
0.074566 0.162515 0.488019
0.075517 0.163508 0.536920
0.076470 0.164505 0.586078
0.077427 0.165504 0.635473
0.078388 0.166506 0.685090
0.079351 0.167511 0.734914
0.080317 0.168519 0.784933
0.074477 0.207576 0.032448
0.075427 0.208583 0.075427
0.076380 0.209593 0.119928
0.077337 0.210606 0.165410
0.078297 0.211621 0.211621
0.079260 0.212640 0.258418
0.080226 0.213661 0.305705
0.081196 0.214686 0.353414
0.082168 0.215713 0.401494
0.083143 0.216743 0.449905
0.084121 0.217775 0.498616
0.085102 0.218810 0.547601
0.086086 0.219848 0.596837
0.087073 0.220888 0.646308
0.088062 0.221931 0.695996
0.089054 0.222976 0.745888
0.090049 0.224024 0.795973
0.084029 0.263512 0.041596
0.085010 0.264558 0.085010
0.085993 0.265606 0.129779
0.086980 0.266657 0.175459
0.087969 0.267711 0.221833
0.088961 0.268767 0.268767
0.089955 0.269826 0.316175
0.090953 0.270887 0.363993
0.091953 0.271950 0.412171
0.092955 0.273016 0.460674
0.093960 0.274084 0.509470
0.094968 0.275155 0.558534
0.095978 0.276227 0.607846
0.096991 0.277302 0.657388
0.098006 0.278379 0.707144
0.099023 0.279459 0.757102
0.100043 0.280540 0.807249
0.093865 0.320370 0.051076
0.094873 0.321450 0.094873
0.095883 0.322532 0.139891
0.096895 0.323616 0.185761
0.097910 0.324702 0.232290
0.098927 0.325791 0.279357
0.099947 0.326881 0.326881
0.100969 0.327974 0.374804
0.101994 0.329069 0.423078
0.103020 0.330166 0.471668
0.104050 0.331265 0.520546
0.105081 0.332366 0.569688
0.106115 0.333469 0.619072
0.107150 0.334574 0.668683
0.108188 0.335681 0.718505
0.109229 0.336790 0.768525
0.110271 0.337901 0.818733
0.103952 0.378015 0.060842
0.104984 0.379124 0.104984
0.106017 0.380235 0.150236
0.107053 0.381348 0.196286
0.108091 0.382463 0.242964
0.109131 0.383580 0.290159
0.110173 0.384699 0.337796
0.111217 0.385820 0.385820
0.112264 0.386943 0.434187
0.113313 0.388067 0.482863
0.114363 0.389194 0.531821
0.115416 0.390322 0.581037
0.116471 0.391452 0.630492
0.117528 0.392584 0.680169
0.118587 0.393717 0.730055
0.119648 0.394853 0.780136
0.120711 0.395990 0.830401
0.114264 0.436346 0.070863
0.115317 0.437481 0.115317
0.116372 0.438618 0.160789
0.117429 0.439757 0.207012
0.118487 0.440898 0.253833
0.119548 0.442041 0.301152
0.120611 0.443185 0.348899
0.121676 0.444331 0.397022
0.122743 0.445479 0.445479
0.123811 0.446628 0.494238
0.124882 0.447779 0.543273
0.125955 0.448932 0.592562
0.127029 0.450086 0.642086
0.128105 0.451242 0.691828
0.129184 0.452400 0.741776
0.130264 0.453559 0.791916
0.131345 0.454720 0.842238
0.124781 0.495287 0.081113
0.125853 0.496446 0.125853
0.126928 0.497607 0.171533
0.128004 0.498769 0.217921
0.129082 0.499933 0.264881
0.130162 0.501099 0.312320
0.131244 0.502266 0.360173
0.132327 0.503435 0.408392
0.133412 0.504606 0.456937
0.134500 0.505778 0.505778
0.135589 0.506951 0.554889
0.136679 0.508126 0.604248
0.137772 0.509303 0.653839
0.138866 0.510481 0.703645
0.139962 0.511661 0.753653
0.141060 0.512842 0.803852
0.142159 0.514024 0.854229
0.135486 0.554777 0.091572
0.136577 0.555958 0.136577
0.137669 0.557141 0.182453
0.138763 0.558325 0.228999
0.139859 0.559510 0.276093
0.140956 0.560697 0.323648
0.142056 0.561886 0.371606
0.143157 0.563076 0.419918
0.144259 0.564267 0.468549
0.145364 0.565460 0.517469
0.146470 0.566654 0.566654
0.147578 0.567850 0.616084
0.148687 0.569047 0.665740
0.149798 0.570245 0.715609
0.150910 0.571445 0.765676
0.152025 0.572647 0.815931
0.153141 0.573849 0.866363
0.146366 0.614769 0.102224
0.147473 0.615970 0.147473
0.148582 0.617173 0.193536
0.149693 0.618377 0.240235
0.150806 0.619582 0.287458
0.151920 0.620789 0.335127
0.153035 0.621997 0.383185
0.154153 0.623206 0.431589
0.155272 0.624417 0.480304
0.156392 0.625629 0.529302
0.157514 0.626842 0.578560
0.158638 0.628057 0.628057
0.159763 0.629273 0.677778
0.160889 0.630491 0.727708
0.162018 0.631709 0.777833
0.163147 0.632929 0.828143
0.164278 0.634151 0.878629
0.157408 0.675222 0.113053
0.158532 0.676442 0.158532
0.159657 0.677663 0.204772
0.160783 0.678885 0.251618
0.161911 0.680109 0.298966
0.163041 0.681334 0.346745
0.164172 0.682560 0.394902
0.165304 0.683788 0.443395
0.166439 0.685017 0.492193
0.167574 0.686247 0.541267
0.168711 0.687478 0.590596
0.169850 0.688711 0.640160
0.170990 0.689944 0.689944
0.172131 0.691180 0.739934
0.173274 0.692416 0.790117
0.174418 0.693653 0.840482
0.175564 0.694892 0.891019
0.168604 0.736102 0.124049
0.169742 0.737339 0.169742
0.170882 0.738577 0.216153
0.172024 0.739817 0.263139
0.173166 0.741058 0.310608
0.174310 0.742300 0.358495
0.175456 0.743544 0.406748
0.176603 0.744788 0.455329
0.177752 0.746034 0.504207
0.178901 0.747281 0.553356
0.180053 0.748529 0.602755
0.181205 0.749778 0.652386
0.182359 0.751029 0.702232
0.183515 0.752280 0.752280
0.184672 0.753533 0.802519
0.185830 0.754787 0.852938
0.186989 0.756042 0.903527
0.179944 0.797379 0.135200
0.181097 0.798633 0.181097
0.182251 0.799888 0.227669
0.183406 0.801144 0.274791
0.184563 0.802401 0.322379
0.185721 0.803659 0.370370
0.186880 0.804919 0.418717
0.188041 0.806179 0.467384
0.189203 0.807441 0.516341
0.190366 0.808704 0.565564
0.191531 0.809968 0.615031
0.192697 0.811233 0.664726
0.193864 0.812499 0.714634
0.195033 0.813766 0.764740
0.196203 0.815035 0.815035
0.197374 0.816304 0.865506
0.198547 0.817575 0.916146
0.191421 0.859029 0.146499
0.192587 0.860298 0.192587
0.193754 0.861569 0.239315
0.194923 0.862840 0.286569
0.196093 0.864113 0.334271
0.197264 0.865386 0.382363
0.198436 0.866661 0.430803
0.199610 0.867937 0.479554
0.200785 0.869213 0.528588
0.201961 0.870491 0.577883
0.203139 0.871770 0.627418
0.204318 0.873050 0.677177
0.205498 0.874331 0.727144
0.206679 0.875613 0.777308
0.207862 0.876896 0.827657
0.209046 0.878181 0.878181
0.210231 0.879466 0.928870
0.203028 0.921030 0.157937
0.204207 0.922314 0.204207
0.205387 0.923599 0.251084
0.206568 0.924885 0.298465
0.207750 0.926172 0.346278
0.208934 0.927460 0.394470
0.210119 0.928749 0.442999
0.211305 0.930039 0.491833
0.212493 0.931330 0.540943
0.213681 0.932622 0.590309
0.214871 0.933915 0.639910
0.216062 0.935210 0.689732
0.217254 0.936505 0.739759
0.218448 0.937801 0.789979
0.219642 0.939098 0.840381
0.220838 0.940396 0.890956
0.222035 0.941695 0.941695
0.085296 0.003100 0.003100
0.086057 0.003734 0.043547
0.086833 0.004386 0.086833
0.087620 0.005054 0.131444
0.088419 0.005736 0.176956
0.089228 0.006431 0.223159
0.090046 0.007138 0.269922
0.090873 0.007856 0.317160
0.091708 0.008585 0.364810
0.092551 0.009323 0.412823
0.093401 0.010071 0.461162
0.094258 0.010828 0.509797
0.095122 0.011594 0.558704
0.095991 0.012367 0.607861
0.096867 0.013148 0.657251
0.097749 0.013936 0.706857
0.098636 0.014732 0.756667
0.093321 0.050549 0.010001
0.094177 0.051377 0.051377
0.095040 0.052211 0.095040
0.095909 0.053051 0.139918
0.096785 0.053898 0.185646
0.097666 0.054750 0.232033
0.098552 0.055608 0.278959
0.099444 0.056472 0.326343
0.100341 0.057341 0.374127
0.101243 0.058215 0.422264
0.102150 0.059094 0.470720
0.103062 0.059978 0.519464
0.103978 0.060867 0.568474
0.104899 0.061760 0.617729
0.105824 0.062658 0.667211
0.106753 0.063560 0.716907
0.107686 0.064467 0.766802
0.102065 0.102065 0.017825
0.102976 0.102976 0.059895
0.103892 0.103892 0.103892
0.104812 0.104812 0.149006
0.105736 0.105736 0.194924
0.106665 0.106665 0.241471
0.107598 0.107598 0.288538
0.108535 0.108535 0.336050
0.109475 0.109475 0.383950
0.110420 0.110420 0.432196
0.111368 0.111368 0.480752
0.112320 0.112320 0.529591
0.113276 0.113276 0.578690
0.114235 0.114235 0.628030
0.115197 0.115197 0.677594
0.116163 0.116163 0.727367
0.117132 0.117132 0.777337
0.111279 0.155600 0.026249
0.112230 0.156570 0.068884
0.113186 0.157543 0.113186
0.114144 0.158520 0.158520
0.115106 0.159500 0.204614
0.116072 0.160484 0.251310
0.117041 0.161470 0.298509
0.118013 0.162460 0.346139
0.118988 0.163453 0.394146
0.119966 0.164449 0.442491
0.120948 0.165448 0.491140
0.121932 0.166451 0.540066
0.122920 0.167456 0.589248
0.123910 0.168463 0.638666
0.124904 0.169474 0.688304
0.125900 0.170488 0.738149
0.126899 0.171504 0.788188
0.120855 0.210549 0.035130
0.121840 0.211565 0.078244
0.122827 0.212583 0.122827
0.123817 0.213605 0.168368
0.124810 0.214629 0.214629
0.125806 0.215656 0.261468
0.126805 0.216685 0.308791
0.127806 0.217718 0.356532
0.128811 0.218753 0.404642
0.129818 0.219790 0.453081
0.130827 0.220830 0.501817
0.131840 0.221873 0.550826
0.132855 0.222918 0.600085
0.133872 0.223966 0.649577
0.134892 0.225016 0.699286
0.135914 0.226068 0.749198
0.136939 0.227123 0.799301
0.130732 0.266599 0.044382
0.131744 0.267653 0.087914
0.132759 0.268709 0.132759
0.133776 0.269767 0.178497
0.134796 0.270828 0.224917
0.135818 0.271892 0.271892
0.136843 0.272957 0.319334
0.137870 0.274025 0.367183
0.138899 0.275095 0.415391
0.139931 0.276168 0.463920
0.140966 0.277243 0.512740
0.142002 0.278320 0.561828
0.143041 0.279399 0.611162
0.144082 0.280480 0.660724
0.145126 0.281564 0.710501
0.146171 0.282649 0.760477
0.147219 0.283737 0.810642
0.140868 0.323556 0.053951
0.141904 0.324642 0.097854
0.142943 0.325730 0.142943
0.143984 0.326821 0.188868
0.145027 0.327914 0.235441
0.146073 0.329008 0.282547
0.147121 0.330105 0.330105
0.148170 0.331204 0.378058
0.149223 0.332305 0.426360
0.150277 0.333408 0.474976
0.151333 0.334513 0.523878
0.152391 0.335620 0.573042
0.153452 0.336729 0.622448
0.154514 0.337839 0.672079
0.155579 0.338952 0.721920
0.156646 0.340067 0.771958
0.157714 0.341183 0.822183
0.151233 0.381286 0.063796
0.152292 0.382401 0.108033
0.153352 0.383518 0.153352
0.154414 0.384637 0.199454
0.155479 0.385758 0.246175
0.156545 0.386880 0.293408
0.157614 0.388005 0.341078
0.158684 0.389131 0.389131
0.159756 0.390259 0.437525
0.160831 0.391389 0.486226
0.161907 0.392521 0.535207
0.162985 0.393655 0.584445
0.164065 0.394790 0.633921
0.165147 0.395927 0.683618
0.166231 0.397066 0.733522
0.167317 0.398206 0.783621
0.168405 0.399348 0.833903
0.161806 0.439694 0.073887
0.162884 0.440835 0.118429
0.163964 0.441977 0.163964
0.165046 0.443121 0.210236
0.166129 0.444267 0.257099
0.167215 0.445415 0.304454
0.168302 0.446564 0.352233
0.169392 0.447715 0.400384
0.170483 0.448868 0.448868
0.171575 0.450022 0.497652
0.172670 0.451178 0.546710
0.173767 0.452336 0.596020
0.174865 0.453495 0.645564
0.175965 0.454656 0.695325
0.177066 0.455818 0.745291
0.178170 0.456982 0.795448
0.179275 0.458148 0.845787
0.172567 0.498705 0.084201
0.173663 0.499869 0.129022
0.174761 0.501034 0.174761
0.175861 0.502202 0.221197
0.176963 0.503370 0.268197
0.178066 0.504541 0.315671
0.179171 0.505713 0.363556
0.180277 0.506886 0.411802
0.181386 0.508061 0.460373
0.182496 0.509238 0.509238
0.183608 0.510416 0.558371
0.184721 0.511595 0.607752
0.185836 0.512776 0.657362
0.186952 0.513959 0.707187
0.188071 0.515143 0.757213
0.189191 0.516328 0.807428
0.190312 0.517515 0.857822
0.183503 0.558259 0.094719
0.184616 0.559445 0.139798
0.185731 0.560632 0.185731
0.186847 0.561820 0.232323
0.187965 0.563010 0.279455
0.189085 0.564201 0.327045
0.190206 0.565394 0.375033
0.191329 0.566588 0.423373
0.192454 0.567784 0.472029
0.193580 0.568981 0.520972
0.194707 0.570179 0.570179
0.195836 0.571379 0.619629
0.196967 0.572580 0.669305
0.198099 0.573783 0.719191
0.199233 0.574987 0.769276
0.200368 0.576192 0.819547
0.201505 0.577398 0.869995
0.194601 0.618310 0.105425
0.195730 0.619515 0.150744
0.196861 0.620722 0.196861
0.197993 0.621930 0.243603
0.199126 0.623139 0.290864
0.200261 0.624350 0.338566
0.201398 0.625562 0.386654
0.202536 0.626775 0.435085
0.203675 0.627990 0.483824
0.204817 0.629206 0.532845
0.205959 0.630423 0.582124
0.207103 0.631642 0.631642
0.208248 0.632862 0.681382
0.209395 0.634083 0.731329
0.210544 0.635305 0.781472
0.211693 0.636529 0.831798
0.212844 0.637754 0.882299
0.205851 0.678818 0.116305
0.206995 0.680041 0.161849
0.208140 0.681266 0.208140
0.209287 0.682492 0.255028
0.210435 0.683720 0.302413
0.211585 0.684949 0.350224
0.212736 0.686179 0.398410
0.213888 0.687410 0.446930
0.215042 0.688642 0.495751
0.216197 0.689876 0.544848
0.217354 0.691111 0.594198
0.218512 0.692347 0.643782
0.219671 0.693585 0.693585
0.220832 0.694823 0.743592
0.221994 0.696063 0.793791
0.223157 0.697304 0.844172
0.224322 0.698546 0.894725
0.217245 0.739748 0.127348
0.218403 0.740989 0.173103
0.219562 0.742231 0.219562
0.220723 0.743475 0.266589
0.221885 0.744719 0.314094
0.223048 0.745965 0.362012
0.224212 0.747212 0.410293
0.225378 0.748460 0.458900
0.226546 0.749709 0.507802
0.227714 0.750959 0.556973
0.228884 0.752211 0.606393
0.230056 0.753464 0.656042
0.231228 0.754718 0.705907
0.232402 0.755973 0.755973
0.233577 0.757229 0.806228
0.234753 0.758486 0.856663
0.235931 0.759745 0.907267
0.228774 0.801074 0.138544
0.229945 0.802331 0.184498
0.231118 0.803589 0.231118
0.232291 0.804849 0.278280
0.233466 0.806109 0.325901
0.234643 0.807371 0.373923
0.235820 0.808634 0.422298
0.236999 0.809898 0.470990
0.238179 0.811163 0.519970
0.239361 0.812429 0.569214
0.240543 0.813696 0.618702
0.241727 0.814964 0.668416
0.242912 0.816234 0.718342
0.244099 0.817504 0.768465
0.245286 0.818776 0.818776
0.246475 0.820048 0.869263
0.247665 0.821322 0.919918
0.240432 0.862770 0.149885
0.241616 0.864042 0.196028
0.242801 0.865316 0.242801
0.243987 0.866590 0.290093
0.245174 0.867866 0.337828
0.246363 0.869143 0.385951
0.247553 0.870420 0.434417
0.248744 0.871699 0.483192
0.249936 0.872979 0.532250
0.251130 0.874260 0.581566
0.252325 0.875542 0.631121
0.253521 0.876825 0.680898
0.254718 0.878109 0.730883
0.255916 0.879395 0.781064
0.257115 0.880681 0.831429
0.258316 0.881968 0.881968
0.259518 0.883256 0.932672
0.252212 0.924813 0.161363
0.253408 0.926100 0.207685
0.254605 0.927388 0.254605
0.255803 0.928677 0.302023
0.257002 0.929968 0.349869
0.258203 0.931259 0.398090
0.259405 0.932551 0.446645
0.260608 0.933844 0.495503
0.261812 0.935138 0.544636
0.263017 0.936433 0.594022
0.264223 0.937729 0.643644
0.265431 0.939026 0.693483
0.266639 0.940324 0.743528
0.267849 0.941623 0.793764
0.269060 0.942924 0.844183
0.270272 0.944225 0.894773
0.271485 0.945527 0.945527
0.131399 0.005017 0.005017
0.132215 0.005698 0.045778
0.133042 0.006392 0.089183
0.133878 0.007098 0.133878
0.134724 0.007816 0.179460
0.135577 0.008544 0.225721
0.136438 0.009282 0.272537
0.137307 0.010030 0.319822
0.138182 0.010786 0.367514
0.139065 0.011551 0.415566
0.139953 0.012324 0.463943
0.140847 0.013105 0.512613
0.141747 0.013893 0.561552
0.142653 0.014688 0.610740
0.143564 0.015490 0.660159
0.144480 0.016298 0.709794
