assets/luts/dark-moody.cube
# montage LUT: dark-moody — 暗黑电影感（悬疑/压迫）（原创，MIT）
TITLE "montage dark moody suspense"
LUT_3D_SIZE 9
DOMAIN_MIN 0.0 0.0 0.0
DOMAIN_MAX 1.0 1.0 1.0
0.000000 0.000000 0.000000
0.000860 0.000860 0.082517
0.001958 0.001958 0.172256
0.003169 0.003169 0.264952
0.004460 0.004460 0.359626
0.005812 0.005812 0.455800
0.007217 0.007217 0.553188
0.008666 0.008666 0.651597
0.010155 0.010155 0.750891
0.013087 0.096799 0.013087
0.014670 0.098567 0.098567
0.016280 0.100356 0.189350
0.017916 0.102165 0.282789
0.019576 0.103993 0.378059
0.021258 0.105839 0.474739
0.022962 0.107702 0.572570
0.024686 0.109580 0.671377
0.026429 0.111474 0.771031
0.029801 0.204630 0.029801
0.031595 0.206628 0.117057
0.033405 0.208639 0.208639
0.035231 0.210662 0.302644
0.037072 0.212697 0.398369
0.038928 0.214743 0.495437
0.040797 0.216800 0.593611
0.042680 0.218868 0.692727
0.044577 0.220946 0.792665
0.048226 0.317204 0.048226
0.050159 0.319352 0.136860
0.052103 0.321510 0.229157
0.054059 0.323676 0.323676
0.056026 0.325851 0.419814
0.058005 0.328035 0.517232
0.059993 0.330227 0.615714
0.061993 0.332427 0.715107
0.064002 0.334635 0.815299
0.067859 0.433013 0.067859
0.069897 0.435275 0.157631
0.071945 0.437544 0.250583
0.074001 0.439820 0.345580
0.076067 0.442104 0.442104
0.078142 0.444394 0.539851
0.080225 0.446692 0.638622
0.082317 0.448996 0.738275
0.084417 0.451306 0.838703
0.088443 0.551309 0.088443
0.090567 0.553663 0.179189
0.092698 0.556024 0.272743
0.094838 0.558391 0.368191
0.096985 0.560763 0.465082
0.099140 0.563142 0.563142
0.101302 0.565526 0.662188
0.103471 0.567916 0.762088
0.105648 0.570312 0.862742
0.109816 0.671638 0.109816
0.112013 0.674071 0.201417
0.114217 0.676510 0.295530
0.116427 0.678953 0.391405
0.118644 0.681402 0.488645
0.120868 0.683856 0.587005
0.123098 0.686315 0.686315
0.125335 0.688779 0.786453
0.127578 0.691248 0.887323
0.131870 0.793694 0.131870
0.134130 0.796196 0.224232
0.136397 0.798702 0.318867
0.138670 0.801213 0.415147
0.140949 0.803729 0.512722
0.143233 0.806249 0.611370
0.145523 0.808774 0.710936
0.147819 0.811303 0.811303
0.150121 0.813836 0.912384
0.154523 0.917256 0.154523
0.156841 0.919818 0.247573
0.159164 0.922385 0.342697
0.161492 0.924956 0.439362
0.163826 0.927531 0.537260
0.166165 0.930111 0.636186
0.168509 0.932694 0.735998
0.170858 0.935281 0.836588
0.173213 0.937873 0.937873
0.085296 0.003100 0.003100
0.086833 0.004386 0.086833
0.088419 0.005736 0.176956
0.090046 0.007138 0.269922
0.091708 0.008585 0.364810
0.093401 0.010071 0.461162
0.095122 0.011594 0.558704
0.096867 0.013148 0.657251
0.098636 0.014732 0.756667
0.102065 0.102065 0.017825
0.103892 0.103892 0.103892
0.105736 0.105736 0.194924
0.107598 0.107598 0.288538
0.109475 0.109475 0.383950
0.111368 0.111368 0.480752
0.113276 0.113276 0.578690
0.115197 0.115197 0.677594
0.117132 0.117132 0.777337
0.120855 0.210549 0.035130
0.122827 0.212583 0.122827
0.124810 0.214629 0.214629
0.126805 0.216685 0.308791
0.128811 0.218753 0.404642
0.130827 0.220830 0.501817
0.132855 0.222918 0.600085
0.134892 0.225016 0.699286
0.136939 0.227123 0.799301
0.140868 0.323556 0.053951
0.142943 0.325730 0.142943
0.145027 0.327914 0.235441
0.147121 0.330105 0.330105
0.149223 0.332305 0.426360
0.151333 0.334513 0.523878
0.153452 0.336729 0.622448
0.155579 0.338952 0.721920
0.157714 0.341183 0.822183
0.161806 0.439694 0.073887
0.163964 0.441977 0.163964
0.166129 0.444267 0.257099
0.168302 0.446564 0.352233
0.170483 0.448868 0.448868
0.172670 0.451178 0.546710
0.174865 0.453495 0.645564
0.177066 0.455818 0.745291
0.179275 0.458148 0.845787
0.183503 0.558259 0.094719
0.185731 0.560632 0.185731
0.187965 0.563010 0.279455
0.190206 0.565394 0.375033
0.192454 0.567784 0.472029
0.194707 0.570179 0.570179
0.196967 0.572580 0.669305
0.199233 0.574987 0.769276
0.201505 0.577398 0.869995
0.205851 0.678818 0.116305
0.208140 0.681266 0.208140
0.210435 0.683720 0.302413
0.212736 0.686179 0.398410
0.215042 0.688642 0.495751
0.217354 0.691111 0.594198
0.219671 0.693585 0.693585
0.221994 0.696063 0.793791
0.224322 0.698546 0.894725
0.228774 0.801074 0.138544
0.231118 0.803589 0.231118
0.233466 0.806109 0.325901
0.235820 0.808634 0.422298
0.238179 0.811163 0.519970
0.240543 0.813696 0.618702
0.242912 0.816234 0.718342
0.245286 0.818776 0.818776
0.247665 0.821322 0.919918
0.252212 0.924813 0.161363
0.254605 0.927388 0.254605
0.257002 0.929968 0.349869
0.259405 0.932551 0.446645
0.261812 0.935138 0.544636
0.264223 0.937729 0.643644
0.266639 0.940324 0.743528
0.269060 0.942924 0.844183
0.271485 0.945527 0.945527
0.178553 0.007059 0.007059
0.180279 0.008503 0.091615
0.182036 0.009988 0.182036
0.183821 0.011508 0.275216
0.185631 0.013061 0.370277
0.187465 0.014643 0.466778
0.189319 0.016253 0.564450
0.191194 0.017889 0.663114
0.193087 0.019548 0.762638
0.196743 0.107494 0.022772
0.198685 0.109371 0.109371
0.200641 0.111263 0.200641
0.202612 0.113170 0.294425
0.204597 0.115090 0.389973
0.206595 0.117025 0.486890
0.208605 0.118972 0.584930
0.210628 0.120932 0.683926
0.212663 0.122904 0.783754
0.216571 0.216571 0.040589
0.218638 0.218638 0.128699
0.220715 0.220715 0.220715
0.222802 0.222802 0.315030
0.224899 0.224899 0.411004
0.227006 0.227006 0.508284
0.229122 0.229122 0.606644
0.231247 0.231247 0.705927
0.233381 0.233381 0.806018
0.237473 0.329984 0.059772
0.239632 0.332183 0.149106
0.241799 0.334390 0.241799
0.243974 0.336606 0.336606
0.246157 0.338829 0.432976
0.248348 0.341059 0.530592
0.250546 0.343297 0.629247
0.252752 0.345543 0.728796
0.254965 0.347795 0.829130
0.259203 0.446437 0.079994
0.261436 0.448740 0.170362
0.263677 0.451050 0.263677
0.265924 0.453366 0.358945
0.268178 0.455689 0.455689
0.270439 0.458018 0.553624
0.272706 0.460354 0.652560
0.274979 0.462695 0.752361
0.277258 0.465043 0.852924
0.281620 0.565262 0.101062
0.283917 0.567651 0.192329
0.286221 0.570046 0.286221
0.288530 0.572447 0.381925
0.290845 0.574853 0.479025
0.293165 0.577265 0.577265
0.295492 0.579682 0.676469
0.297823 0.582104 0.776511
0.300161 0.584532 0.877295
0.304631 0.686042 0.122851
0.306984 0.688506 0.214914
0.309342 0.690974 0.309342
0.311706 0.693448 0.405460
0.314075 0.695926 0.502901
0.316449 0.698409 0.601434
0.318828 0.700897 0.700897
0.321212 0.703389 0.801172
0.323601 0.705886 0.902168
0.328167 0.808494 0.145269
0.330570 0.811022 0.238048
0.332978 0.813555 0.332978
0.335391 0.816093 0.429489
0.337808 0.818635 0.527258
0.340230 0.821181 0.626072
0.342657 0.823731 0.725785
0.345088 0.826286 0.826286
0.347523 0.828845 0.927488
0.352178 0.932407 0.168249
0.354626 0.934995 0.261678
0.357079 0.937586 0.357079
0.359536 0.940181 0.453965
0.361998 0.942779 0.552048
0.364464 0.945382 0.651136
0.366934 0.947989 0.751091
0.369408 0.950600 0.851811
0.371887 0.953214 0.953214
0.275114 0.011423 0.011423
0.276965 0.012974 0.096673
0.278839 0.014555 0.187362
0.280734 0.016164 0.280734
0.282650 0.017798 0.375951
0.284585 0.019456 0.472585
0.286537 0.021137 0.570375
0.288506 0.022839 0.669145
0.290490 0.024561 0.768766
0.294313 0.113064 0.027896
0.296339 0.114984 0.114984
0.298379 0.116917 0.206484
0.300431 0.118864 0.300431
0.302495 0.120823 0.396109
0.304571 0.122794 0.493138
0.306658 0.124777 0.591276
0.308756 0.126772 0.690361
0.310865 0.128777 0.790270
0.314912 0.222686 0.046168
0.317050 0.224783 0.134666
0.319197 0.226889 0.226889
0.321354 0.229005 0.321354
0.323520 0.231129 0.417448
0.325694 0.233263 0.514830
0.327877 0.235405 0.613280
0.330069 0.237556 0.712644
0.332268 0.239715 0.812809
0.336483 0.336483 0.065685
0.338705 0.338705 0.155343
0.340936 0.340936 0.248226
0.343173 0.343173 0.343173
0.345418 0.345418 0.439656
0.347670 0.347670 0.537369
0.349929 0.349929 0.636109
0.352196 0.352196 0.735734
0.354468 0.354468 0.836138
0.358819 0.453238 0.086175
0.361111 0.455560 0.176822
0.363409 0.457889 0.270313
0.365714 0.460224 0.365714
0.368025 0.462565 0.462565
0.370342 0.464913 0.560592
0.372665 0.467266 0.659609
0.374994 0.469625 0.759483
0.377329 0.471989 0.860112
0.381795 0.572314 0.107468
0.384146 0.574720 0.198982
0.386503 0.577131 0.293037
0.388866 0.579548 0.388866
0.391234 0.581970 0.486069
0.393608 0.584397 0.584397
0.395986 0.586829 0.683679
0.398370 0.589267 0.783791
0.400759 0.591710 0.884639
0.405327 0.693310 0.129453
0.407731 0.695788 0.221736
0.410140 0.698271 0.316317
0.412554 0.700759 0.412554
0.414972 0.703251 0.510094
0.417396 0.705748 0.608711
0.419824 0.708249 0.708249
0.422257 0.710755 0.808592
0.424695 0.713265 0.909650
0.429354 0.815952 0.152044
0.431805 0.818494 0.245023
0.434260 0.821040 0.340096
0.436720 0.823590 0.436720
0.439185 0.826144 0.534583
0.441653 0.828703 0.633480
0.444127 0.831265 0.733266
0.446604 0.833832 0.833832
0.449086 0.836403 0.935095
0.453827 0.940037 0.175180
0.456321 0.942635 0.268791
0.458819 0.945238 0.364327
0.461322 0.947844 0.461322
0.463828 0.950455 0.559496
0.466338 0.953069 0.658663
0.468852 0.955687 0.758689
0.471371 0.958309 0.859472
0.473893 0.960934 0.960934
0.373896 0.016074 0.016074
0.375842 0.017706 0.101934
0.377807 0.019363 0.192877
0.379790 0.021043 0.286428
0.381789 0.022744 0.381789
0.383805 0.024465 0.478547
0.385835 0.026206 0.576447
0.387880 0.027965 0.675316
0.389938 0.029741 0.775028
0.393897 0.118755 0.033174
0.395993 0.120714 0.120714
0.398100 0.122684 0.212437
0.400218 0.124667 0.306542
0.402348 0.126661 0.402348
0.404488 0.128666 0.499484
0.406638 0.130682 0.597718
0.408798 0.132708 0.696888
0.410968 0.134745 0.796876
0.415130 0.228887 0.051855
0.417326 0.231011 0.140719
0.419532 0.233144 0.233144
0.421746 0.235286 0.327756
0.423968 0.237437 0.423968
0.426199 0.239596 0.521450
0.428438 0.241763 0.619988
0.430684 0.243938 0.719432
0.432938 0.246121 0.819669
0.437255 0.343049 0.071683
0.439530 0.345294 0.161651
0.441813 0.347545 0.254719
0.444102 0.349804 0.349804
0.446399 0.352070 0.446399
0.448702 0.354342 0.544206
0.451012 0.356622 0.643030
0.453328 0.358907 0.742730
0.455651 0.361200 0.843202
0.460095 0.460095 0.092426
0.462436 0.462436 0.183343
0.464782 0.464782 0.277006
0.467135 0.467135 0.372536
0.469494 0.469494 0.469494
0.471858 0.471858 0.567611
0.474228 0.474228 0.666708
0.476604 0.476604 0.766653
0.478986 0.478986 0.867349
0.483539 0.579414 0.113936
0.485936 0.581835 0.205687
0.488339 0.584262 0.299902
0.490746 0.586694 0.395854
0.493159 0.589132 0.493159
0.495577 0.591574 0.591574
0.498000 0.594021 0.690933
0.500428 0.596474 0.791115
0.502861 0.598931 0.892026
0.507511 0.700621 0.136108
0.509958 0.703113 0.228605
0.512409 0.705609 0.323336
0.514866 0.708110 0.419690
0.517327 0.710616 0.517327
0.519792 0.713126 0.616028
0.522263 0.715641 0.715641
0.524737 0.718160 0.816051
0.527216 0.720683 0.917170
0.531953 0.823448 0.158867
0.534445 0.826003 0.252040
0.536941 0.828561 0.347253
0.539442 0.831123 0.443989
0.541946 0.833690 0.541946
0.544455 0.836261 0.640925
0.546968 0.838835 0.740782
0.549485 0.841414 0.841414
0.552006 0.843996 0.942736
0.556823 0.947700 0.182154
0.559355 0.950310 0.275944
0.561892 0.952924 0.371612
0.564433 0.955542 0.468713
0.566978 0.958163 0.566978
0.569526 0.960788 0.666223
0.572078 0.963417 0.766320
0.574635 0.966050 0.867166
0.577194 0.968686 0.968686
0.474370 0.020949 0.020949
0.476394 0.022649 0.107360
0.478434 0.024369 0.198544
0.480489 0.026109 0.292267
0.482558 0.027867 0.387766
0.484642 0.029643 0.484642
0.486738 0.031435 0.582645
0.488847 0.033244 0.681608
0.490969 0.035069 0.781405
0.495044 0.124557 0.038587
0.497199 0.126550 0.126550
0.499364 0.128555 0.218489
0.501539 0.130570 0.312749
0.503725 0.132596 0.408678
0.505920 0.134632 0.505920
0.508125 0.136678 0.604247
0.510339 0.138734 0.703500
0.512561 0.140799 0.803564
0.516822 0.235167 0.057642
0.519069 0.237317 0.146853
0.521325 0.239476 0.239476
0.523589 0.241642 0.334231
0.525861 0.243817 0.430559
0.528140 0.245999 0.528140
0.530427 0.248190 0.626764
0.532721 0.250387 0.726286
0.535022 0.252593 0.826594
0.539427 0.349679 0.077762
0.541749 0.351944 0.168025
0.544077 0.354216 0.261275
0.546412 0.356495 0.356495
0.548753 0.358781 0.453199
0.551100 0.361072 0.551100
0.553454 0.363371 0.650007
0.555814 0.365675 0.749781
0.558180 0.367986 0.850320
0.562706 0.467005 0.098745
0.565090 0.469363 0.189920
0.567479 0.471727 0.283752
0.569873 0.474097 0.379410
0.572274 0.476472 0.476472
0.574680 0.478853 0.574680
0.577091 0.481240 0.673855
0.579507 0.483632 0.773872
0.581929 0.486029 0.874632
0.586560 0.586560 0.120461
0.588997 0.588997 0.212442
0.591439 0.591439 0.306814
0.593886 0.593886 0.402888
0.596338 0.596338 0.500293
0.598794 0.598794 0.598794
0.601256 0.601256 0.698230
0.603723 0.603723 0.798480
0.606194 0.606194 0.899454
0.610916 0.707972 0.142815
0.613401 0.710477 0.235520
0.615890 0.712987 0.330397
0.618384 0.715501 0.426866
0.620882 0.718020 0.524600
0.623385 0.720543 0.623385
0.625892 0.723071 0.723071
0.628403 0.725603 0.823547
0.630919 0.728139 0.924728
0.635724 0.830981 0.165737
0.638252 0.833548 0.259098
0.640784 0.836118 0.354450
0.643320 0.838692 0.451296
0.645860 0.841271 0.549346
0.648404 0.843853 0.648404
0.650952 0.846440 0.748334
0.653505 0.849030 0.849030
0.656061 0.851624 0.950411
0.660943 0.955397 0.189171
0.663510 0.958018 0.283134
0.666081 0.960643 0.378932
0.668656 0.963272 0.476139
0.671234 0.965904 0.574493
0.673817 0.968540 0.673817
0.676403 0.971179 0.773982
0.678992 0.973823 0.874892
0.681586 0.976469 0.976469
0.576216 0.026012 0.026012
0.578306 0.027769 0.112926
0.580410 0.029544 0.204343
0.582528 0.031335 0.298231
0.584658 0.033143 0.393863
0.586800 0.034967 0.490851
0.588954 0.036806 0.588954
0.591120 0.038659 0.688007
0.593297 0.040527 0.787886
0.597474 0.130458 0.044124
0.599681 0.132483 0.132483
0.601897 0.134519 0.224632
0.604123 0.136564 0.319042
0.606358 0.138620 0.415093
0.608603 0.140685 0.512438
0.610855 0.142759 0.610855
0.613117 0.144842 0.710190
0.615387 0.146935 0.810328
0.619735 0.241522 0.063522
0.622028 0.243696 0.153064
0.624328 0.245878 0.245878
0.626636 0.248068 0.340775
0.628952 0.250266 0.437217
0.631274 0.252470 0.534894
0.633604 0.254683 0.633604
0.635941 0.256902 0.733202
0.638284 0.259129 0.833580
0.642768 0.356369 0.083916
0.645131 0.358654 0.174463
0.647500 0.360945 0.267891
0.649875 0.363243 0.363243
0.652256 0.365548 0.460056
0.654643 0.367858 0.558049
0.657037 0.370175 0.657037
0.659436 0.372497 0.756884
0.661841 0.374826 0.857490
0.666440 0.473966 0.105129
0.668861 0.476341 0.196553
0.671288 0.478721 0.290549
0.673720 0.481108 0.386334
0.676158 0.483499 0.483499
0.678601 0.485896 0.581795
0.681049 0.488299 0.681049
0.683502 0.490706 0.781136
0.685960 0.493119 0.881960
0.690659 0.593750 0.127043
0.693132 0.596202 0.219247
0.695610 0.598658 0.313772
0.698092 0.601120 0.409966
0.700579 0.603586 0.507470
0.703071 0.606057 0.606057
0.705568 0.608532 0.705568
0.708069 0.611013 0.805886
0.710574 0.613498 0.906922
0.715362 0.715362 0.149572
0.717881 0.717881 0.242479
0.720404 0.720404 0.337500
0.722931 0.722931 0.434083
0.725462 0.725462 0.531912
0.727998 0.727998 0.630779
0.730538 0.730538 0.730538
0.733083 0.733083 0.831081
0.735631 0.735631 0.932322
0.740499 0.838550 0.172651
0.743059 0.841128 0.266197
0.745623 0.843710 0.361684
0.748191 0.846296 0.458639
0.750763 0.848886 0.556780
0.753339 0.851480 0.655919
0.755919 0.854078 0.755919
0.758503 0.856679 0.856679
0.761090 0.859285 0.958120
0.766032 0.963126 0.196229
0.768630 0.965758 0.290362
0.771232 0.968394 0.386288
0.773838 0.971033 0.483599
0.776447 0.973676 0.582041
0.779060 0.976323 0.681442
0.781676 0.978973 0.781676
0.784296 0.981626 0.882649
0.786920 0.984283 0.984283
0.679221 0.031236 0.031236
0.681369 0.033043 0.118615
0.683530 0.034866 0.210257
0.685702 0.036704 0.304306
0.687886 0.038556 0.400065
0.690080 0.040423 0.497163
0.692286 0.042304 0.595363
0.694502 0.044198 0.694502
0.696728 0.046104 0.794461
0.700997 0.136451 0.049772
0.703250 0.138506 0.138506
0.705513 0.140570 0.230858
0.707784 0.142644 0.325417
0.710064 0.144727 0.421586
0.712352 0.146819 0.519032
0.714648 0.148919 0.617538
0.716953 0.151028 0.716953
0.719265 0.153146 0.817164
0.723693 0.247947 0.069490
0.726027 0.250144 0.159346
0.728368 0.252348 0.252348
0.730716 0.254560 0.347383
0.733071 0.256779 0.443937
0.735433 0.259005 0.541710
0.737802 0.261238 0.640504
0.740177 0.263478 0.740177
0.742558 0.265725 0.840624
0.747115 0.363116 0.090142
0.749515 0.365420 0.180962
0.751920 0.367730 0.274563
0.754332 0.370046 0.370046
0.756750 0.372369 0.466966
0.759173 0.374697 0.565050
0.761602 0.377031 0.664118
0.764037 0.379371 0.764037
0.766478 0.381717 0.864709
0.771143 0.480975 0.111574
0.773599 0.483367 0.203240
0.776061 0.485763 0.297397
0.778527 0.488165 0.393305
0.780999 0.490573 0.490573
0.783475 0.492985 0.588956
0.785957 0.495403 0.688287
0.788444 0.497825 0.788444
0.790935 0.500253 0.889332
0.795697 0.600983 0.133679
0.798202 0.603449 0.226099
0.800712 0.605920 0.320775
0.803227 0.608395 0.417087
0.805746 0.610875 0.514689
0.808270 0.613360 0.613360
0.810798 0.615849 0.712945
0.813331 0.618343 0.813331
0.815868 0.620841 0.914428
0.820715 0.722791 0.156378
0.823265 0.725322 0.249480
0.825818 0.727858 0.344643
0.828376 0.730398 0.441339
0.830939 0.732942 0.539261
0.833505 0.735490 0.638210
0.836075 0.738042 0.738042
0.838650 0.740598 0.838650
0.841228 0.743158 0.939950
0.846153 0.846153 0.179610
0.848743 0.848743 0.273335
0.851336 0.851336 0.368956
0.853934 0.853934 0.466018
0.856535 0.856535 0.564250
0.859140 0.859140 0.663467
0.861749 0.861749 0.763538
0.864362 0.864362 0.864362
0.866978 0.866978 0.965860
0.871974 0.970887 0.203327
0.874601 0.973530 0.297626
0.877231 0.976176 0.393678
0.879865 0.978826 0.491091
0.882502 0.981479 0.589621
0.885143 0.984136 0.689098
0.887788 0.986796 0.789401
0.890435 0.989460 0.890435
0.893087 0.992127 0.992127
0.783231 0.036602 0.036602
0.785430 0.038453 0.124414
0.787641 0.040319 0.216274
0.789862 0.042199 0.310478
0.792094 0.044092 0.406363
0.794336 0.045998 0.503567
0.796588 0.047917 0.601860
0.798849 0.049847 0.701084
0.801120 0.051790 0.801120
0.805472 0.142529 0.055524
0.807768 0.144611 0.144611
0.810073 0.146702 0.237162
0.812385 0.148803 0.331866
0.814706 0.150911 0.428152
0.817035 0.153029 0.525697
0.819371 0.155154 0.624290
0.821714 0.157288 0.723783
0.824065 0.159429 0.824065
0.828566 0.254437 0.075540
0.830937 0.256656 0.165697
0.833316 0.258881 0.258881
0.835701 0.261114 0.354052
0.838093 0.263354 0.450717
0.840491 0.265600 0.548584
0.842895 0.267853 0.647460
0.845306 0.270113 0.747208
0.847722 0.272379 0.847722
0.852345 0.369918 0.096437
0.854779 0.372240 0.187519
0.857219 0.374568 0.281290
0.859665 0.376902 0.376902
0.862116 0.379241 0.473926
0.864573 0.381587 0.572101
0.867035 0.383938 0.671248
0.869502 0.386294 0.771239
0.871975 0.388656 0.871975
0.876703 0.488032 0.118079
0.879191 0.490439 0.209977
0.881684 0.492851 0.304292
0.884182 0.495269 0.400322
0.886685 0.497691 0.497691
0.889193 0.500118 0.596161
0.891705 0.502550 0.695568
0.894223 0.504988 0.795794
0.896745 0.507430 0.896745
0.901564 0.608258 0.140367
0.904100 0.610738 0.232997
0.906640 0.613222 0.327821
0.909184 0.615711 0.424249
0.911733 0.618204 0.521948
0.914287 0.620702 0.620702
0.916844 0.623204 0.720362
0.919406 0.625711 0.820814
0.921972 0.628222 0.921972
0.926875 0.730257 0.163230
0.929453 0.732800 0.256524
0.932035 0.735348 0.351825
0.934622 0.737900 0.448632
0.937212 0.740456 0.546648
0.939806 0.743017 0.645677
0.942405 0.745581 0.745581
0.945007 0.748149 0.846253
0.947613 0.750721 0.947613
0.952591 0.853790 0.186611
0.955208 0.856391 0.280512
0.957829 0.858996 0.376263
0.960454 0.861604 0.473432
0.963082 0.864217 0.571753
0.965714 0.866833 0.671049
0.968350 0.869452 0.771189
0.970989 0.872076 0.872076
0.973632 0.874703 0.973632
0.978679 0.978679 0.210464
0.981332 0.981332 0.304925
0.983989 0.983989 0.401102
0.986649 0.986649 0.498616
0.989312 0.989312 0.597232
0.991979 0.991979 0.696786
0.994649 0.994649 0.797156
0.997323 0.997323 0.898252
1.000000 1.000000 1.000000
