assets/luts/dark-moody.cube
# montage LUT: dark-moody — 暗黑电影感（悬疑/压迫）（原创，MIT）
TITLE "montage dark moody suspense"
LUT_3D_SIZE 5
DOMAIN_MIN 0.0 0.0 0.0
DOMAIN_MAX 1.0 1.0 1.0
0.000000 0.000000 0.000000
0.001958 0.001958 0.172256
0.004460 0.004460 0.359626
0.007217 0.007217 0.553188
0.010155 0.010155 0.750891
0.029801 0.204630 0.029801
0.033405 0.208639 0.208639
0.037072 0.212697 0.398369
0.040797 0.216800 0.593611
0.044577 0.220946 0.792665
0.067859 0.433013 0.067859
0.071945 0.437544 0.250583
0.076067 0.442104 0.442104
0.080225 0.446692 0.638622
0.084417 0.451306 0.838703
0.109816 0.671638 0.109816
0.114217 0.676510 0.295530
0.118644 0.681402 0.488645
0.123098 0.686315 0.686315
0.127578 0.691248 0.887323
0.154523 0.917256 0.154523
0.159164 0.922385 0.342697
0.163826 0.927531 0.537260
0.168509 0.932694 0.735998
0.173213 0.937873 0.937873
0.178553 0.007059 0.007059
0.182036 0.009988 0.182036
0.185631 0.013061 0.370277
0.189319 0.016253 0.564450
0.193087 0.019548 0.762638
0.216571 0.216571 0.040589
0.220715 0.220715 0.220715
0.224899 0.224899 0.411004
0.229122 0.229122 0.606644
0.233381 0.233381 0.806018
0.259203 0.446437 0.079994
0.263677 0.451050 0.263677
0.268178 0.455689 0.455689
0.272706 0.460354 0.652560
0.277258 0.465043 0.852924
0.304631 0.686042 0.122851
0.309342 0.690974 0.309342
0.314075 0.695926 0.502901
0.318828 0.700897 0.700897
0.323601 0.705886 0.902168
0.352178 0.932407 0.168249
0.357079 0.937586 0.357079
0.361998 0.942779 0.552048
0.366934 0.947989 0.751091
0.371887 0.953214 0.953214
0.373896 0.016074 0.016074
0.377807 0.019363 0.192877
0.381789 0.022744 0.381789
0.385835 0.026206 0.576447
0.389938 0.029741 0.775028
0.415130 0.228887 0.051855
0.419532 0.233144 0.233144
0.423968 0.237437 0.423968
0.428438 0.241763 0.619988
0.432938 0.246121 0.819669
0.460095 0.460095 0.092426
0.464782 0.464782 0.277006
0.469494 0.469494 0.469494
0.474228 0.474228 0.666708
0.478986 0.478986 0.867349
0.507511 0.700621 0.136108
0.512409 0.705609 0.323336
0.517327 0.710616 0.517327
0.522263 0.715641 0.715641
0.527216 0.720683 0.917170
0.556823 0.947700 0.182154
0.561892 0.952924 0.371612
0.566978 0.958163 0.566978
0.572078 0.963417 0.766320
0.577194 0.968686 0.968686
0.576216 0.026012 0.026012
0.580410 0.029544 0.204343
0.584658 0.033143 0.393863
0.588954 0.036806 0.588954
0.593297 0.040527 0.787886
0.619735 0.241522 0.063522
0.624328 0.245878 0.245878
0.628952 0.250266 0.437217
0.633604 0.254683 0.633604
0.638284 0.259129 0.833580
0.666440 0.473966 0.105129
0.671288 0.478721 0.290549
0.676158 0.483499 0.483499
0.681049 0.488299 0.681049
0.685960 0.493119 0.881960
0.715362 0.715362 0.149572
0.720404 0.720404 0.337500
0.725462 0.725462 0.531912
0.730538 0.730538 0.730538
0.735631 0.735631 0.932322
0.766032 0.963126 0.196229
0.771232 0.968394 0.386288
0.776447 0.973676 0.582041
0.781676 0.978973 0.781676
0.786920 0.984283 0.984283
0.783231 0.036602 0.036602
0.787641 0.040319 0.216274
0.792094 0.044092 0.406363
0.796588 0.047917 0.601860
0.801120 0.051790 0.801120
0.828566 0.254437 0.075540
0.833316 0.258881 0.258881
0.838093 0.263354 0.450717
0.842895 0.267853 0.647460
0.847722 0.272379 0.847722
0.876703 0.488032 0.118079
0.881684 0.492851 0.304292
0.886685 0.497691 0.497691
0.891705 0.502550 0.695568
0.896745 0.507430 0.896745
0.926875 0.730257 0.163230
0.932035 0.735348 0.351825
0.937212 0.740456 0.546648
0.942405 0.745581 0.745581
0.947613 0.750721 0.947613
0.978679 0.978679 0.210464
0.983989 0.983989 0.401102
0.989312 0.989312 0.597232
0.994649 0.994649 0.797156
1.000000 1.000000 1.000000
