assets/luts/muted-documentary.cube
# montage LUT: muted-documentary — 纪实低饱和（纪录片）（原创，MIT）
TITLE "montage muted documentary"
LUT_3D_SIZE 5
DOMAIN_MIN 0.0 0.0 0.0
DOMAIN_MAX 1.0 1.0 1.0
0.040000 0.040000 0.040000
0.044982 0.044982 0.205982
0.049964 0.049964 0.371964
0.054945 0.054945 0.537945
0.059927 0.059927 0.703927
0.089349 0.250349 0.089349
0.094331 0.255331 0.255331
0.099312 0.260312 0.421312
0.104294 0.265294 0.587294
0.109276 0.270276 0.753276
0.138698 0.460698 0.138698
0.143679 0.465679 0.304679
0.148661 0.470661 0.470661
0.153643 0.475643 0.636643
0.158625 0.480625 0.802625
0.188046 0.671046 0.188046
0.193028 0.676028 0.354028
0.198010 0.681010 0.520010
0.202992 0.685992 0.685992
0.207974 0.690974 0.851974
0.237395 0.881395 0.237395
0.242377 0.886377 0.403377
0.247359 0.891359 0.569359
0.252341 0.896341 0.735341
0.257322 0.901322 0.901322
0.215669 0.054669 0.054669
0.220651 0.059651 0.220651
0.225633 0.064633 0.386633
0.230615 0.069615 0.552615
0.235597 0.074597 0.718597
0.265018 0.265018 0.104018
0.270000 0.270000 0.270000
0.274982 0.274982 0.435982
0.279964 0.279964 0.601964
0.284945 0.284945 0.767945
0.314367 0.475367 0.153367
0.319349 0.480349 0.319349
0.324331 0.485331 0.485331
0.329312 0.490312 0.651312
0.334294 0.495294 0.817294
0.363716 0.685716 0.202716
0.368698 0.690698 0.368698
0.373679 0.695679 0.534679
0.378661 0.700661 0.700661
0.383643 0.705643 0.866643
0.413065 0.896065 0.252065
0.418046 0.901046 0.418046
0.423028 0.906028 0.584028
0.428010 0.911010 0.750010
0.432992 0.915992 0.915992
0.391339 0.069339 0.069339
0.396321 0.074321 0.235321
0.401302 0.079302 0.401302
0.406284 0.084284 0.567284
0.411266 0.089266 0.733266
0.440688 0.279688 0.118688
0.445669 0.284669 0.284669
0.450651 0.289651 0.450651
0.455633 0.294633 0.616633
0.460615 0.299615 0.782615
0.490036 0.490036 0.168036
0.495018 0.495018 0.334018
0.500000 0.500000 0.500000
0.504982 0.504982 0.665982
0.509964 0.509964 0.831964
0.539385 0.700385 0.217385
0.544367 0.705367 0.383367
0.549349 0.710349 0.549349
0.554331 0.715331 0.715331
0.559312 0.720312 0.881312
0.588734 0.910734 0.266734
0.593716 0.915716 0.432716
0.598698 0.920698 0.598698
0.603679 0.925679 0.764679
0.608661 0.930661 0.930661
0.567008 0.084008 0.084008
0.571990 0.088990 0.249990
0.576972 0.093972 0.415972
0.581954 0.098954 0.581954
0.586935 0.103935 0.747935
0.616357 0.294357 0.133357
0.621339 0.299339 0.299339
0.626321 0.304321 0.465321
0.631302 0.309302 0.631302
0.636284 0.314284 0.797284
0.665706 0.504706 0.182706
0.670688 0.509688 0.348688
0.675669 0.514669 0.514669
0.680651 0.519651 0.680651
0.685633 0.524633 0.846633
0.715055 0.715055 0.232055
0.720036 0.720036 0.398036
0.725018 0.725018 0.564018
0.730000 0.730000 0.730000
0.734982 0.734982 0.895982
0.764403 0.925403 0.281403
0.769385 0.930385 0.447385
0.774367 0.935367 0.613367
0.779349 0.940349 0.779349
0.784331 0.945331 0.945331
0.742678 0.098678 0.098678
0.747659 0.103659 0.264659
0.752641 0.108641 0.430641
0.757623 0.113623 0.596623
0.762605 0.118605 0.762605
0.792026 0.309026 0.148026
0.797008 0.314008 0.314008
0.801990 0.318990 0.479990
0.806972 0.323972 0.645972
0.811954 0.328954 0.811954
0.841375 0.519375 0.197375
0.846357 0.524357 0.363357
0.851339 0.529339 0.529339
0.856321 0.534321 0.695321
0.861302 0.539302 0.861302
0.890724 0.729724 0.246724
0.895706 0.734706 0.412706
0.900688 0.739688 0.578688
0.905669 0.744669 0.744669
0.910651 0.749651 0.910651
0.940073 0.940073 0.296073
0.945055 0.945055 0.462055
0.950036 0.950036 0.628036
0.955018 0.955018 0.794018
0.960000 0.960000 0.960000
