assets/luts/muted-documentary.cube
# montage LUT: muted-documentary — 纪实低饱和（纪录片）（原创，MIT）
TITLE "montage muted documentary"
LUT_3D_SIZE 9
DOMAIN_MIN 0.0 0.0 0.0
DOMAIN_MAX 1.0 1.0 1.0
0.040000 0.040000 0.040000
0.042491 0.042491 0.122991
0.044982 0.044982 0.205982
0.047473 0.047473 0.288973
0.049964 0.049964 0.371964
0.052454 0.052454 0.454954
0.054945 0.054945 0.537945
0.057436 0.057436 0.620936
0.059927 0.059927 0.703927
0.064674 0.145174 0.064674
0.067165 0.147665 0.147665
0.069656 0.150156 0.230656
0.072147 0.152647 0.313647
0.074638 0.155138 0.396638
0.077129 0.157629 0.479629
0.079620 0.160120 0.562620
0.082111 0.162611 0.645611
0.084602 0.165102 0.728602
0.089349 0.250349 0.089349
0.091840 0.252840 0.172340
0.094331 0.255331 0.255331
0.096822 0.257821 0.338321
0.099312 0.260312 0.421312
0.101803 0.262803 0.504303
0.104294 0.265294 0.587294
0.106785 0.267785 0.670285
0.109276 0.270276 0.753276
0.114023 0.355523 0.114023
0.116514 0.358014 0.197014
0.119005 0.360505 0.280005
0.121496 0.362996 0.362996
0.123987 0.365487 0.445987
0.126478 0.367978 0.528978
0.128969 0.370469 0.611969
0.131460 0.372959 0.694959
0.133950 0.375450 0.777950
0.138698 0.460698 0.138698
0.141188 0.463189 0.221688
0.143679 0.465679 0.304679
0.146170 0.468170 0.387670
0.148661 0.470661 0.470661
0.151152 0.473152 0.553652
0.153643 0.475643 0.636643
0.156134 0.478134 0.719634
0.158625 0.480625 0.802625
0.163372 0.565872 0.163372
0.165863 0.568363 0.246363
0.168354 0.570854 0.329354
0.170845 0.573345 0.412345
0.173336 0.575836 0.495336
0.175826 0.578326 0.578326
0.178317 0.580817 0.661317
0.180808 0.583308 0.744308
0.183299 0.585799 0.827299
0.188046 0.671046 0.188046
0.190537 0.673537 0.271037
0.193028 0.676028 0.354028
0.195519 0.678519 0.437019
0.198010 0.681010 0.520010
0.200501 0.683501 0.603001
0.202992 0.685992 0.685992
0.205483 0.688483 0.768983
0.207974 0.690974 0.851974
0.212721 0.776221 0.212721
0.215212 0.778712 0.295712
0.217703 0.781203 0.378703
0.220193 0.783693 0.461693
0.222684 0.786184 0.544684
0.225175 0.788675 0.627675
0.227666 0.791166 0.710666
0.230157 0.793657 0.793657
0.232648 0.796148 0.876648
0.237395 0.881395 0.237395
0.239886 0.883886 0.320386
0.242377 0.886377 0.403377
0.244868 0.888868 0.486368
0.247359 0.891359 0.569359
0.249850 0.893850 0.652350
0.252341 0.896341 0.735341
0.254831 0.898832 0.818331
0.257322 0.901322 0.901322
0.127835 0.047335 0.047335
0.130326 0.049826 0.130326
0.132817 0.052316 0.213316
0.135307 0.054807 0.296307
0.137798 0.057298 0.379298
0.140289 0.059789 0.462289
0.142780 0.062280 0.545280
0.145271 0.064771 0.628271
0.147762 0.067262 0.711262
0.152509 0.152509 0.072009
0.155000 0.155000 0.155000
0.157491 0.157491 0.237991
0.159982 0.159982 0.320982
0.162473 0.162473 0.403973
0.164964 0.164964 0.486964
0.167454 0.167454 0.569954
0.169945 0.169945 0.652945
0.172436 0.172436 0.735936
0.177183 0.257683 0.096683
0.179674 0.260174 0.179674
0.182165 0.262665 0.262665
0.184656 0.265156 0.345656
0.187147 0.267647 0.428647
0.189638 0.270138 0.511638
0.192129 0.272629 0.594629
0.194620 0.275120 0.677620
0.197111 0.277611 0.760611
0.201858 0.362858 0.121358
0.204349 0.365349 0.204349
0.206840 0.367840 0.287340
0.209331 0.370331 0.370331
0.211821 0.372821 0.453321
0.214312 0.375312 0.536312
0.216803 0.377803 0.619303
0.219294 0.380294 0.702294
0.221785 0.382785 0.785285
0.226532 0.468032 0.146032
0.229023 0.470523 0.229023
0.231514 0.473014 0.312014
0.234005 0.475505 0.395005
0.236496 0.477996 0.477996
0.238987 0.480487 0.560987
0.241478 0.482978 0.643978
0.243969 0.485469 0.726969
0.246459 0.487959 0.809959
0.251207 0.573207 0.170707
0.253698 0.575698 0.253698
0.256189 0.578188 0.336688
0.258679 0.580679 0.419679
0.261170 0.583170 0.502670
0.263661 0.585661 0.585661
0.266152 0.588152 0.668652
0.268643 0.590643 0.751643
0.271134 0.593134 0.834634
0.275881 0.678381 0.195381
0.278372 0.680872 0.278372
0.280863 0.683363 0.361363
0.283354 0.685854 0.444354
0.285845 0.688345 0.527345
0.288336 0.690836 0.610336
0.290826 0.693326 0.693326
0.293317 0.695817 0.776317
0.295808 0.698308 0.859308
0.300555 0.783555 0.220055
0.303046 0.786046 0.303046
0.305537 0.788537 0.386037
0.308028 0.791028 0.469028
0.310519 0.793519 0.552019
0.313010 0.796010 0.635010
0.315501 0.798501 0.718001
0.317992 0.800992 0.800992
0.320483 0.803483 0.883983
0.325230 0.888730 0.244730
0.327721 0.891221 0.327721
0.330212 0.893712 0.410712
0.332703 0.896203 0.493703
0.335193 0.898693 0.576693
0.337684 0.901184 0.659684
0.340175 0.903675 0.742675
0.342666 0.906166 0.825666
0.345157 0.908657 0.908657
0.215669 0.054669 0.054669
0.218160 0.057160 0.137660
0.220651 0.059651 0.220651
0.223142 0.062142 0.303642
0.225633 0.064633 0.386633
0.228124 0.067124 0.469624
0.230615 0.069615 0.552615
0.233106 0.072106 0.635606
0.235597 0.074597 0.718597
0.240344 0.159844 0.079344
0.242835 0.162335 0.162335
0.245326 0.164826 0.245326
0.247816 0.167316 0.328317
0.250307 0.169807 0.411307
0.252798 0.172298 0.494298
0.255289 0.174789 0.577289
0.257780 0.177280 0.660280
0.260271 0.179771 0.743271
0.265018 0.265018 0.104018
0.267509 0.267509 0.187009
0.270000 0.270000 0.270000
0.272491 0.272491 0.352991
0.274982 0.274982 0.435982
0.277473 0.277473 0.518973
0.279964 0.279964 0.601964
0.282454 0.282454 0.684955
0.284945 0.284945 0.767945
0.289693 0.370193 0.128693
0.292183 0.372683 0.211684
0.294674 0.375174 0.294674
0.297165 0.377665 0.377665
0.299656 0.380156 0.460656
0.302147 0.382647 0.543647
0.304638 0.385138 0.626638
0.307129 0.387629 0.709629
0.309620 0.390120 0.792620
0.314367 0.475367 0.153367
0.316858 0.477858 0.236358
0.319349 0.480349 0.319349
0.321840 0.482840 0.402340
0.324331 0.485331 0.485331
0.326821 0.487821 0.568322
0.329312 0.490312 0.651312
0.331803 0.492803 0.734303
0.334294 0.495294 0.817294
0.339041 0.580541 0.178041
0.341532 0.583032 0.261032
0.344023 0.585523 0.344023
0.346514 0.588014 0.427014
0.349005 0.590505 0.510005
0.351496 0.592996 0.592996
0.353987 0.595487 0.675987
0.356478 0.597978 0.758978
0.358969 0.600469 0.841969
0.363716 0.685716 0.202716
0.366207 0.688207 0.285707
0.368698 0.690698 0.368698
0.371189 0.693188 0.451688
0.373679 0.695679 0.534679
0.376170 0.698170 0.617670
0.378661 0.700661 0.700661
0.381152 0.703152 0.783652
0.383643 0.705643 0.866643
0.388390 0.790890 0.227390
0.390881 0.793381 0.310381
0.393372 0.795872 0.393372
0.395863 0.798363 0.476363
0.398354 0.800854 0.559354
0.400845 0.803345 0.642345
0.403336 0.805836 0.725336
0.405826 0.808326 0.808326
0.408317 0.810817 0.891317
0.413065 0.896065 0.252065
0.415555 0.898555 0.335055
0.418046 0.901046 0.418046
0.420537 0.903537 0.501037
0.423028 0.906028 0.584028
0.425519 0.908519 0.667019
0.428010 0.911010 0.750010
0.430501 0.913501 0.833001
0.432992 0.915992 0.915992
0.303504 0.062004 0.062004
0.305995 0.064495 0.144995
0.308486 0.066986 0.227986
0.310977 0.069477 0.310977
0.313468 0.071968 0.393968
0.315959 0.074459 0.476959
0.318449 0.076949 0.559949
0.320940 0.079440 0.642940
0.323431 0.081931 0.725931
0.328178 0.167179 0.086678
0.330669 0.169669 0.169669
0.333160 0.172160 0.252660
0.335651 0.174651 0.335651
0.338142 0.177142 0.418642
0.340633 0.179633 0.501633
0.343124 0.182124 0.584624
0.345615 0.184615 0.667615
0.348106 0.187106 0.750606
0.352853 0.272353 0.111353
0.355344 0.274844 0.194344
0.357835 0.277335 0.277335
0.360326 0.279826 0.360326
0.362816 0.282316 0.443317
0.365307 0.284807 0.526307
0.367798 0.287298 0.609298
0.370289 0.289789 0.692289
0.372780 0.292280 0.775280
0.377527 0.377527 0.136027
0.380018 0.380018 0.219018
0.382509 0.382509 0.302009
0.385000 0.385000 0.385000
0.387491 0.387491 0.467991
0.389982 0.389982 0.550982
0.392473 0.392473 0.633973
0.394964 0.394964 0.716964
0.397454 0.397454 0.799955
0.402202 0.482702 0.160702
0.404693 0.485193 0.243693
0.407183 0.487683 0.326683
0.409674 0.490174 0.409674
0.412165 0.492665 0.492665
0.414656 0.495156 0.575656
0.417147 0.497647 0.658647
0.419638 0.500138 0.741638
0.422129 0.502629 0.824629
0.426876 0.587876 0.185376
0.429367 0.590367 0.268367
0.431858 0.592858 0.351358
0.434349 0.595349 0.434349
0.436840 0.597840 0.517340
0.439331 0.600331 0.600331
0.441821 0.602822 0.683321
0.444312 0.605312 0.766312
0.446803 0.607803 0.849303
0.451550 0.693050 0.210050
0.454041 0.695541 0.293041
0.456532 0.698032 0.376032
0.459023 0.700523 0.459023
0.461514 0.703014 0.542014
0.464005 0.705505 0.625005
0.466496 0.707996 0.707996
0.468987 0.710487 0.790987
0.471478 0.712978 0.873978
0.476225 0.798225 0.234725
0.478716 0.800716 0.317716
0.481207 0.803207 0.400707
0.483698 0.805698 0.483698
0.486188 0.808188 0.566688
0.488679 0.810679 0.649679
0.491170 0.813170 0.732670
0.493661 0.815661 0.815661
0.496152 0.818152 0.898652
0.500899 0.903399 0.259399
0.503390 0.905890 0.342390
0.505881 0.908381 0.425381
0.508372 0.910872 0.508372
0.510863 0.913363 0.591363
0.513354 0.915854 0.674354
0.515845 0.918345 0.757345
0.518336 0.920836 0.840336
0.520826 0.923326 0.923326
0.391339 0.069339 0.069339
0.393830 0.071830 0.152330
0.396321 0.074321 0.235321
0.398811 0.076811 0.318311
0.401302 0.079302 0.401302
0.403793 0.081793 0.484293
0.406284 0.084284 0.567284
0.408775 0.086775 0.650275
0.411266 0.089266 0.733266
0.416013 0.174513 0.094013
0.418504 0.177004 0.177004
0.420995 0.179495 0.259995
0.423486 0.181986 0.342986
0.425977 0.184477 0.425977
0.428468 0.186968 0.508968
0.430959 0.189459 0.591959
0.433449 0.191949 0.674949
0.435940 0.194440 0.757940
0.440688 0.279688 0.118688
0.443178 0.282178 0.201678
0.445669 0.284669 0.284669
0.448160 0.287160 0.367660
0.450651 0.289651 0.450651
0.453142 0.292142 0.533642
0.455633 0.294633 0.616633
0.458124 0.297124 0.699624
0.460615 0.299615 0.782615
0.465362 0.384862 0.143362
0.467853 0.387353 0.226353
0.470344 0.389844 0.309344
0.472835 0.392335 0.392335
0.475326 0.394826 0.475326
0.477817 0.397316 0.558316
0.480307 0.399807 0.641307
0.482798 0.402298 0.724298
0.485289 0.404789 0.807289
0.490036 0.490036 0.168036
0.492527 0.492527 0.251027
0.495018 0.495018 0.334018
0.497509 0.497509 0.417009
0.500000 0.500000 0.500000
0.502491 0.502491 0.582991
0.504982 0.504982 0.665982
0.507473 0.507473 0.748973
0.509964 0.509964 0.831964
0.514711 0.595211 0.192711
0.517202 0.597702 0.275702
0.519693 0.600193 0.358693
0.522184 0.602683 0.441683
0.524674 0.605174 0.524674
0.527165 0.607665 0.607665
0.529656 0.610156 0.690656
0.532147 0.612647 0.773647
0.534638 0.615138 0.856638
0.539385 0.700385 0.217385
0.541876 0.702876 0.300376
0.544367 0.705367 0.383367
0.546858 0.707858 0.466358
0.549349 0.710349 0.549349
0.551840 0.712840 0.632340
0.554331 0.715331 0.715331
0.556821 0.717821 0.798321
0.559312 0.720312 0.881312
0.564060 0.805560 0.242060
0.566550 0.808050 0.325051
0.569041 0.810541 0.408041
0.571532 0.813032 0.491032
0.574023 0.815523 0.574023
0.576514 0.818014 0.657014
0.579005 0.820505 0.740005
0.581496 0.822996 0.822996
0.583987 0.825487 0.905987
0.588734 0.910734 0.266734
0.591225 0.913225 0.349725
0.593716 0.915716 0.432716
0.596207 0.918207 0.515707
0.598698 0.920698 0.598698
0.601188 0.923188 0.681688
0.603679 0.925679 0.764679
0.606170 0.928170 0.847670
0.608661 0.930661 0.930661
0.479174 0.076674 0.076674
0.481664 0.079164 0.159664
0.484155 0.081655 0.242655
0.486646 0.084146 0.325646
0.489137 0.086637 0.408637
0.491628 0.089128 0.491628
0.494119 0.091619 0.574619
0.496610 0.094110 0.657610
0.499101 0.096601 0.740601
0.503848 0.181848 0.101348
0.506339 0.184339 0.184339
0.508830 0.186830 0.267330
0.511321 0.189321 0.350321
0.513811 0.191811 0.433311
0.516302 0.194302 0.516302
0.518793 0.196793 0.599293
0.521284 0.199284 0.682284
0.523775 0.201775 0.765275
0.528522 0.287022 0.126022
0.531013 0.289513 0.209013
0.533504 0.292004 0.292004
0.535995 0.294495 0.374995
0.538486 0.296986 0.457986
0.540977 0.299477 0.540977
0.543468 0.301968 0.623968
0.545959 0.304459 0.706959
0.548450 0.306949 0.789950
0.553197 0.392197 0.150697
0.555688 0.394688 0.233688
0.558179 0.397178 0.316678
0.560669 0.399669 0.399669
0.563160 0.402160 0.482660
0.565651 0.404651 0.565651
0.568142 0.407142 0.648642
0.570633 0.409633 0.731633
0.573124 0.412124 0.814624
0.577871 0.497371 0.175371
0.580362 0.499862 0.258362
0.582853 0.502353 0.341353
0.585344 0.504844 0.424344
0.587835 0.507335 0.507335
0.590326 0.509826 0.590326
0.592817 0.512316 0.673316
0.595307 0.514807 0.756307
0.597798 0.517298 0.839298
0.602546 0.602546 0.200045
0.605036 0.605036 0.283036
0.607527 0.607527 0.366027
0.610018 0.610018 0.449018
0.612509 0.612509 0.532009
0.615000 0.615000 0.615000
0.617491 0.617491 0.697991
0.619982 0.619982 0.780982
0.622473 0.622473 0.863973
0.627220 0.707720 0.224720
0.629711 0.710211 0.307711
0.632202 0.712702 0.390702
0.634693 0.715193 0.473693
0.637184 0.717683 0.556683
0.639674 0.720174 0.639674
0.642165 0.722665 0.722665
0.644656 0.725156 0.805656
0.647147 0.727647 0.888647
0.651894 0.812894 0.249394
0.654385 0.815385 0.332385
0.656876 0.817876 0.415376
0.659367 0.820367 0.498367
0.661858 0.822858 0.581358
0.664349 0.825349 0.664349
0.666840 0.827840 0.747340
0.669331 0.830331 0.830331
0.671821 0.832821 0.913321
0.676569 0.918069 0.274069
0.679060 0.920560 0.357060
0.681550 0.923050 0.440050
0.684041 0.925541 0.523041
0.686532 0.928032 0.606032
0.689023 0.930523 0.689023
0.691514 0.933014 0.772014
0.694005 0.935505 0.855005
0.696496 0.937996 0.937996
0.567008 0.084008 0.084008
0.569499 0.086499 0.166999
0.571990 0.088990 0.249990
0.574481 0.091481 0.332981
0.576972 0.093972 0.415972
0.579463 0.096463 0.498963
0.581954 0.098954 0.581954
0.584444 0.101444 0.664944
0.586935 0.103935 0.747935
0.591683 0.189183 0.108683
0.594173 0.191673 0.191673
0.596664 0.194164 0.274664
0.599155 0.196655 0.357655
0.601646 0.199146 0.440646
0.604137 0.201637 0.523637
0.606628 0.204128 0.606628
0.609119 0.206619 0.689619
0.611610 0.209110 0.772610
0.616357 0.294357 0.133357
0.618848 0.296848 0.216348
0.621339 0.299339 0.299339
0.623830 0.301830 0.382330
0.626321 0.304321 0.465321
0.628811 0.306812 0.548311
0.631302 0.309302 0.631302
0.633793 0.311793 0.714293
0.636284 0.314284 0.797284
0.641031 0.399531 0.158031
0.643522 0.402022 0.241022
0.646013 0.404513 0.324013
0.648504 0.407004 0.407004
0.650995 0.409495 0.489995
0.653486 0.411986 0.572986
0.655977 0.414477 0.655977
0.658468 0.416968 0.738968
0.660959 0.419459 0.821959
0.665706 0.504706 0.182706
0.668197 0.507197 0.265697
0.670688 0.509688 0.348688
0.673178 0.512178 0.431678
0.675669 0.514669 0.514669
0.678160 0.517160 0.597660
0.680651 0.519651 0.680651
0.683142 0.522142 0.763642
0.685633 0.524633 0.846633
0.690380 0.609880 0.207380
0.692871 0.612371 0.290371
0.695362 0.614862 0.373362
0.697853 0.617353 0.456353
0.700344 0.619844 0.539344
0.702835 0.622335 0.622335
0.705326 0.624826 0.705326
0.707816 0.627317 0.788316
0.710307 0.629807 0.871307
0.715055 0.715055 0.232055
0.717545 0.717545 0.315045
0.720036 0.720036 0.398036
0.722527 0.722527 0.481027
0.725018 0.725018 0.564018
0.727509 0.727509 0.647009
0.730000 0.730000 0.730000
0.732491 0.732491 0.812991
0.734982 0.734982 0.895982
0.739729 0.820229 0.256729
0.742220 0.822720 0.339720
0.744711 0.825211 0.422711
0.747202 0.827702 0.505702
0.749693 0.830193 0.588693
0.752183 0.832683 0.671683
0.754674 0.835174 0.754674
0.757165 0.837665 0.837665
0.759656 0.840156 0.920656
0.764403 0.925403 0.281403
0.766894 0.927894 0.364394
0.769385 0.930385 0.447385
0.771876 0.932876 0.530376
0.774367 0.935367 0.613367
0.776858 0.937858 0.696358
0.779349 0.940349 0.779349
0.781840 0.942840 0.862340
0.784331 0.945331 0.945331
0.654843 0.091343 0.091343
0.657334 0.093834 0.174334
0.659825 0.096325 0.257325
0.662316 0.098816 0.340316
0.664806 0.101307 0.423306
0.667297 0.103797 0.506297
0.669788 0.106288 0.589288
0.672279 0.108779 0.672279
0.674770 0.111270 0.755270
0.679517 0.196517 0.116017
0.682008 0.199008 0.199008
0.684499 0.201499 0.281999
0.686990 0.203990 0.364990
0.689481 0.206481 0.447981
0.691972 0.208972 0.530972
0.694463 0.211463 0.613963
0.696954 0.213954 0.696954
0.699444 0.216444 0.779944
0.704192 0.301692 0.140692
0.706683 0.304183 0.223683
0.709173 0.306673 0.306673
0.711664 0.309164 0.389664
0.714155 0.311655 0.472655
0.716646 0.314146 0.555646
0.719137 0.316637 0.638637
0.721628 0.319128 0.721628
0.724119 0.321619 0.804619
0.728866 0.406866 0.165366
0.731357 0.409357 0.248357
0.733848 0.411848 0.331348
0.736339 0.414339 0.414339
0.738830 0.416830 0.497330
0.741321 0.419321 0.580321
0.743811 0.421811 0.663311
0.746302 0.424302 0.746302
0.748793 0.426793 0.829293
0.753540 0.512040 0.190041
0.756031 0.514531 0.273031
0.758522 0.517022 0.356022
0.761013 0.519513 0.439013
0.763504 0.522004 0.522004
0.765995 0.524495 0.604995
0.768486 0.526986 0.687986
0.770977 0.529477 0.770977
0.773468 0.531968 0.853968
0.778215 0.617215 0.214715
0.780706 0.619706 0.297706
0.783197 0.622197 0.380697
0.785688 0.624688 0.463688
0.788178 0.627179 0.546678
0.790669 0.629669 0.629669
0.793160 0.632160 0.712660
0.795651 0.634651 0.795651
0.798142 0.637142 0.878642
0.802889 0.722389 0.239389
0.805380 0.724880 0.322380
0.807871 0.727371 0.405371
0.810362 0.729862 0.488362
0.812853 0.732353 0.571353
0.815344 0.734844 0.654344
0.817835 0.737335 0.737335
0.820326 0.739826 0.820326
0.822816 0.742316 0.903316
0.827564 0.827564 0.264064
0.830055 0.830055 0.347055
0.832545 0.832545 0.430045
0.835036 0.835036 0.513036
0.837527 0.837527 0.596027
0.840018 0.840018 0.679018
0.842509 0.842509 0.762009
0.845000 0.845000 0.845000
0.847491 0.847491 0.927991
0.852238 0.932738 0.288738
0.854729 0.935229 0.371729
0.857220 0.937720 0.454720
0.859711 0.940211 0.537711
0.862202 0.942702 0.620702
0.864693 0.945193 0.703693
0.867183 0.947683 0.786683
0.869674 0.950174 0.869674
0.872165 0.952665 0.952665
0.742678 0.098678 0.098678
0.745169 0.101168 0.181669
0.747659 0.103659 0.264659
0.750150 0.106150 0.347650
0.752641 0.108641 0.430641
0.755132 0.111132 0.513632
0.757623 0.113623 0.596623
0.760114 0.116114 0.679614
0.762605 0.118605 0.762605
0.767352 0.203852 0.123352
0.769843 0.206343 0.206343
0.772334 0.208834 0.289334
0.774825 0.211325 0.372325
0.777316 0.213816 0.455316
0.779806 0.216307 0.538307
0.782297 0.218797 0.621297
0.784788 0.221288 0.704288
0.787279 0.223779 0.787279
0.792026 0.309026 0.148026
0.794517 0.311517 0.231017
0.797008 0.314008 0.314008
0.799499 0.316499 0.396999
0.801990 0.318990 0.479990
0.804481 0.321481 0.562981
0.806972 0.323972 0.645972
0.809463 0.326463 0.728963
0.811954 0.328954 0.811954
0.816701 0.414201 0.172701
0.819192 0.416692 0.255692
0.821683 0.419183 0.338683
0.824173 0.421673 0.421673
0.826664 0.424164 0.504664
0.829155 0.426655 0.587655
0.831646 0.429146 0.670646
0.834137 0.431637 0.753637
0.836628 0.434128 0.836628
0.841375 0.519375 0.197375
0.843866 0.521866 0.280366
0.846357 0.524357 0.363357
0.848848 0.526848 0.446348
0.851339 0.529339 0.529339
0.853830 0.531830 0.612330
0.856321 0.534321 0.695321
0.858812 0.536811 0.778312
0.861302 0.539302 0.861302
0.866050 0.624550 0.222050
0.868540 0.627040 0.305040
0.871031 0.629531 0.388031
0.873522 0.632022 0.471022
0.876013 0.634513 0.554013
0.878504 0.637004 0.637004
0.880995 0.639495 0.719995
0.883486 0.641986 0.802986
0.885977 0.644477 0.885977
0.890724 0.729724 0.246724
0.893215 0.732215 0.329715
0.895706 0.734706 0.412706
0.898197 0.737197 0.495697
0.900688 0.739688 0.578688
0.903178 0.742178 0.661679
0.905669 0.744669 0.744669
0.908160 0.747160 0.827660
0.910651 0.749651 0.910651
0.915398 0.834898 0.271398
0.917889 0.837389 0.354389
0.920380 0.839880 0.437380
0.922871 0.842371 0.520371
0.925362 0.844862 0.603362
0.927853 0.847353 0.686353
0.930344 0.849844 0.769344
0.932835 0.852335 0.852335
0.935326 0.854826 0.935326
0.940073 0.940073 0.296073
0.942564 0.942564 0.379064
0.945055 0.945055 0.462055
0.947545 0.947545 0.545045
0.950036 0.950036 0.628036
0.952527 0.952527 0.711027
0.955018 0.955018 0.794018
0.957509 0.957509 0.877009
0.960000 0.960000 0.960000
