assets/luts/muted-documentary.cube
# montage LUT: muted-documentary — 纪实低饱和（纪录片）（原创，MIT）
TITLE "montage muted documentary"
LUT_3D_SIZE 17
DOMAIN_MIN 0.0 0.0 0.0
DOMAIN_MAX 1.0 1.0 1.0
0.040000 0.040000 0.040000
0.041245 0.041245 0.081495
0.042491 0.042491 0.122991
0.043736 0.043736 0.164486
0.044982 0.044982 0.205982
0.046227 0.046227 0.247477
0.047473 0.047473 0.288973
0.048718 0.048718 0.330468
0.049964 0.049964 0.371964
0.051209 0.051209 0.413459
0.052454 0.052454 0.454954
0.053700 0.053700 0.496450
0.054945 0.054945 0.537945
0.056191 0.056191 0.579441
0.057436 0.057436 0.620936
0.058682 0.058682 0.662432
0.059927 0.059927 0.703927
0.052337 0.092587 0.052337
0.053583 0.093833 0.093833
0.054828 0.095078 0.135328
0.056074 0.096324 0.176824
0.057319 0.097569 0.218319
0.058564 0.098814 0.259814
0.059810 0.100060 0.301310
0.061055 0.101305 0.342805
0.062301 0.102551 0.384301
0.063546 0.103796 0.425796
0.064792 0.105042 0.467292
0.066037 0.106287 0.508787
0.067283 0.107533 0.550283
0.068528 0.108778 0.591778
0.069773 0.110023 0.633273
0.071019 0.111269 0.674769
0.072264 0.112514 0.716264
0.064674 0.145174 0.064674
0.065920 0.146420 0.106170
0.067165 0.147665 0.147665
0.068411 0.148911 0.189161
0.069656 0.150156 0.230656
0.070902 0.151402 0.272152
0.072147 0.152647 0.313647
0.073393 0.153893 0.355143
0.074638 0.155138 0.396638
0.075883 0.156383 0.438133
0.077129 0.157629 0.479629
0.078374 0.158874 0.521124
0.079620 0.160120 0.562620
0.080865 0.161365 0.604115
0.082111 0.162611 0.645611
0.083356 0.163856 0.687106
0.084602 0.165102 0.728602
0.077012 0.197762 0.077012
0.078257 0.199007 0.118507
0.079502 0.200252 0.160002
0.080748 0.201498 0.201498
0.081993 0.202743 0.242993
0.083239 0.203989 0.284489
0.084484 0.205234 0.325984
0.085730 0.206480 0.367480
0.086975 0.207725 0.408975
0.088221 0.208971 0.450471
0.089466 0.210216 0.491966
0.090712 0.211462 0.533462
0.091957 0.212707 0.574957
0.093202 0.213952 0.616452
0.094448 0.215198 0.657948
0.095693 0.216443 0.699443
0.096939 0.217689 0.740939
0.089349 0.250349 0.089349
0.090594 0.251594 0.130844
0.091840 0.252840 0.172340
0.093085 0.254085 0.213835
0.094331 0.255331 0.255331
0.095576 0.256576 0.296826
0.096822 0.257821 0.338321
0.098067 0.259067 0.379817
0.099312 0.260312 0.421312
0.100558 0.261558 0.462808
0.101803 0.262803 0.504303
0.103049 0.264049 0.545799
0.104294 0.265294 0.587294
0.105540 0.266540 0.628790
0.106785 0.267785 0.670285
0.108031 0.269031 0.711781
0.109276 0.270276 0.753276
0.101686 0.302936 0.101686
0.102931 0.304181 0.143181
0.104177 0.305427 0.184677
0.105422 0.306672 0.226172
0.106668 0.307918 0.267668
0.107913 0.309163 0.309163
0.109159 0.310409 0.350659
0.110404 0.311654 0.392154
0.111650 0.312900 0.433650
0.112895 0.314145 0.475145
0.114140 0.315390 0.516641
0.115386 0.316636 0.558136
0.116631 0.317881 0.599631
0.117877 0.319127 0.641127
0.119122 0.320372 0.682622
0.120368 0.321618 0.724118
0.121613 0.322863 0.765613
0.114023 0.355523 0.114023
0.115269 0.356769 0.155519
0.116514 0.358014 0.197014
0.117760 0.359260 0.238510
0.119005 0.360505 0.280005
0.120250 0.361750 0.321500
0.121496 0.362996 0.362996
0.122741 0.364241 0.404491
0.123987 0.365487 0.445987
0.125232 0.366732 0.487482
0.126478 0.367978 0.528978
0.127723 0.369223 0.570473
0.128969 0.370469 0.611969
0.130214 0.371714 0.653464
0.131460 0.372959 0.694959
0.132705 0.374205 0.736455
0.133950 0.375450 0.777950
0.126360 0.408110 0.126360
0.127606 0.409356 0.167856
0.128851 0.410601 0.209351
0.130097 0.411847 0.250847
0.131342 0.413092 0.292342
0.132588 0.414338 0.333838
0.133833 0.415583 0.375333
0.135079 0.416829 0.416829
0.136324 0.418074 0.458324
0.137569 0.419319 0.499819
0.138815 0.420565 0.541315
0.140060 0.421810 0.582810
0.141306 0.423056 0.624306
0.142551 0.424301 0.665801
0.143797 0.425547 0.707297
0.145042 0.426792 0.748792
0.146288 0.428038 0.790288
0.138698 0.460698 0.138698
0.139943 0.461943 0.180193
0.141188 0.463189 0.221688
0.142434 0.464434 0.263184
0.143679 0.465679 0.304679
0.144925 0.466925 0.346175
0.146170 0.468170 0.387670
0.147416 0.469416 0.429166
0.148661 0.470661 0.470661
0.149907 0.471907 0.512157
0.151152 0.473152 0.553652
0.152398 0.474398 0.595148
0.153643 0.475643 0.636643
0.154888 0.476888 0.678138
0.156134 0.478134 0.719634
0.157379 0.479379 0.761129
0.158625 0.480625 0.802625
0.151035 0.513285 0.151035
0.152280 0.514530 0.192530
0.153526 0.515776 0.234026
0.154771 0.517021 0.275521
0.156017 0.518267 0.317017
0.157262 0.519512 0.358512
0.158507 0.520757 0.400007
0.159753 0.522003 0.441503
0.160998 0.523248 0.482998
0.162244 0.524494 0.524494
0.163489 0.525739 0.565989
0.164735 0.526985 0.607485
0.165980 0.528230 0.648980
0.167226 0.529476 0.690476
0.168471 0.530721 0.731971
0.169717 0.531967 0.773467
0.170962 0.533212 0.814962
0.163372 0.565872 0.163372
0.164617 0.567117 0.204867
0.165863 0.568363 0.246363
0.167108 0.569608 0.287858
0.168354 0.570854 0.329354
0.169599 0.572099 0.370849
0.170845 0.573345 0.412345
0.172090 0.574590 0.453840
0.173336 0.575836 0.495336
0.174581 0.577081 0.536831
0.175826 0.578326 0.578326
0.177072 0.579572 0.619822
0.178317 0.580817 0.661317
0.179563 0.582063 0.702813
0.180808 0.583308 0.744308
0.182054 0.584554 0.785804
0.183299 0.585799 0.827299
0.175709 0.618459 0.175709
0.176955 0.619705 0.217205
0.178200 0.620950 0.258700
0.179446 0.622196 0.300196
0.180691 0.623441 0.341691
0.181936 0.624686 0.383186
0.183182 0.625932 0.424682
0.184427 0.627177 0.466177
0.185673 0.628423 0.507673
0.186918 0.629668 0.549168
0.188164 0.630914 0.590664
0.189409 0.632159 0.632159
0.190655 0.633405 0.673655
0.191900 0.634650 0.715150
0.193145 0.635895 0.756645
0.194391 0.637141 0.798141
0.195636 0.638386 0.839636
0.188046 0.671046 0.188046
0.189292 0.672292 0.229542
0.190537 0.673537 0.271037
0.191783 0.674783 0.312533
0.193028 0.676028 0.354028
0.194274 0.677274 0.395524
0.195519 0.678519 0.437019
0.196765 0.679765 0.478515
0.198010 0.681010 0.520010
0.199255 0.682255 0.561505
0.200501 0.683501 0.603001
0.201746 0.684746 0.644496
0.202992 0.685992 0.685992
0.204237 0.687237 0.727487
0.205483 0.688483 0.768983
0.206728 0.689728 0.810478
0.207974 0.690974 0.851974
0.200384 0.723634 0.200384
0.201629 0.724879 0.241879
0.202874 0.726124 0.283374
0.204120 0.727370 0.324870
0.205365 0.728615 0.366365
0.206611 0.729861 0.407861
0.207856 0.731106 0.449356
0.209102 0.732352 0.490852
0.210347 0.733597 0.532347
0.211593 0.734843 0.573843
0.212838 0.736088 0.615338
0.214084 0.737334 0.656834
0.215329 0.738579 0.698329
0.216574 0.739824 0.739824
0.217820 0.741070 0.781320
0.219065 0.742315 0.822815
0.220311 0.743561 0.864311
0.212721 0.776221 0.212721
0.213966 0.777466 0.254216
0.215212 0.778712 0.295712
0.216457 0.779957 0.337207
0.217703 0.781203 0.378703
0.218948 0.782448 0.420198
0.220193 0.783693 0.461693
0.221439 0.784939 0.503189
0.222684 0.786184 0.544684
0.223930 0.787430 0.586180
0.225175 0.788675 0.627675
0.226421 0.789921 0.669171
0.227666 0.791166 0.710666
0.228912 0.792412 0.752162
0.230157 0.793657 0.793657
0.231403 0.794903 0.835153
0.232648 0.796148 0.876648
0.225058 0.828808 0.225058
0.226303 0.830053 0.266553
0.227549 0.831299 0.308049
0.228794 0.832544 0.349544
0.230040 0.833790 0.391040
0.231285 0.835035 0.432535
0.232531 0.836281 0.474031
0.233776 0.837526 0.515526
0.235022 0.838772 0.557022
0.236267 0.840017 0.598517
0.237512 0.841263 0.640012
0.238758 0.842508 0.681508
0.240003 0.843753 0.723003
0.241249 0.844999 0.764499
0.242494 0.846244 0.805994
0.243740 0.847490 0.847490
0.244985 0.848735 0.888985
0.237395 0.881395 0.237395
0.238641 0.882641 0.278891
0.239886 0.883886 0.320386
0.241132 0.885132 0.361882
0.242377 0.886377 0.403377
0.243622 0.887622 0.444872
0.244868 0.888868 0.486368
0.246113 0.890113 0.527863
0.247359 0.891359 0.569359
0.248604 0.892604 0.610854
0.249850 0.893850 0.652350
0.251095 0.895095 0.693845
0.252341 0.896341 0.735341
0.253586 0.897586 0.776836
0.254831 0.898832 0.818331
0.256077 0.900077 0.859827
0.257322 0.901322 0.901322
0.083917 0.043667 0.043667
0.085163 0.044913 0.085163
0.086408 0.046158 0.126658
0.087654 0.047404 0.168154
0.088899 0.048649 0.209649
0.090145 0.049895 0.251145
0.091390 0.051140 0.292640
0.092635 0.052385 0.334135
0.093881 0.053631 0.375631
0.095126 0.054876 0.417126
0.096372 0.056122 0.458622
0.097617 0.057367 0.500117
0.098863 0.058613 0.541613
0.100108 0.059858 0.583108
0.101354 0.061104 0.624604
0.102599 0.062349 0.666099
0.103845 0.063595 0.707595
0.096255 0.096255 0.056005
0.097500 0.097500 0.097500
0.098745 0.098745 0.138995
0.099991 0.099991 0.180491
0.101236 0.101236 0.221986
0.102482 0.102482 0.263482
0.103727 0.103727 0.304977
0.104973 0.104973 0.346473
0.106218 0.106218 0.387968
0.107464 0.107464 0.429464
0.108709 0.108709 0.470959
0.109954 0.109954 0.512455
0.111200 0.111200 0.553950
0.112445 0.112445 0.595445
0.113691 0.113691 0.636941
0.114936 0.114936 0.678436
0.116182 0.116182 0.719932
0.108592 0.148842 0.068342
0.109837 0.150087 0.109837
0.111083 0.151333 0.151333
0.112328 0.152578 0.192828
0.113574 0.153824 0.234324
0.114819 0.155069 0.275819
0.116064 0.156314 0.317314
0.117310 0.157560 0.358810
0.118555 0.158805 0.400305
0.119801 0.160051 0.441801
0.121046 0.161296 0.483296
0.122292 0.162542 0.524792
0.123537 0.163787 0.566287
0.124783 0.165033 0.607783
0.126028 0.166278 0.649278
0.127273 0.167523 0.690774
0.128519 0.168769 0.732269
0.120929 0.201429 0.080679
0.122174 0.202674 0.122174
0.123420 0.203920 0.163670
0.124665 0.205165 0.205165
0.125911 0.206411 0.246661
0.127156 0.207656 0.288156
0.128402 0.208902 0.329652
0.129647 0.210147 0.371147
0.130893 0.211393 0.412643
0.132138 0.212638 0.454138
0.133383 0.213883 0.495633
0.134629 0.215129 0.537129
0.135874 0.216374 0.578624
0.137120 0.217620 0.620120
0.138365 0.218865 0.661615
0.139611 0.220111 0.703111
0.140856 0.221356 0.744606
0.133266 0.254016 0.093016
0.134512 0.255262 0.134512
0.135757 0.256507 0.176007
0.137002 0.257752 0.217502
0.138248 0.258998 0.258998
0.139493 0.260243 0.300493
0.140739 0.261489 0.341989
0.141984 0.262734 0.383484
0.143230 0.263980 0.424980
0.144475 0.265225 0.466475
0.145721 0.266471 0.507971
0.146966 0.267716 0.549466
0.148212 0.268962 0.590962
0.149457 0.270207 0.632457
0.150702 0.271452 0.673952
0.151948 0.272698 0.715448
0.153193 0.273943 0.756943
0.145603 0.306603 0.105353
0.146849 0.307849 0.146849
0.148094 0.309094 0.188344
0.149340 0.310340 0.229840
0.150585 0.311585 0.271335
0.151831 0.312831 0.312831
0.153076 0.314076 0.354326
0.154322 0.315321 0.395821
0.155567 0.316567 0.437317
0.156812 0.317812 0.478812
0.158058 0.319058 0.520308
0.159303 0.320303 0.561803
0.160549 0.321549 0.603299
0.161794 0.322794 0.644794
0.163040 0.324040 0.686290
0.164285 0.325285 0.727785
0.165531 0.326531 0.769281
0.157941 0.359191 0.117691
0.159186 0.360436 0.159186
0.160431 0.361681 0.200681
0.161677 0.362927 0.242177
0.162922 0.364172 0.283672
0.164168 0.365418 0.325168
0.165413 0.366663 0.366663
0.166659 0.367909 0.408159
0.167904 0.369154 0.449654
0.169150 0.370400 0.491150
0.170395 0.371645 0.532645
0.171640 0.372890 0.574140
0.172886 0.374136 0.615636
0.174131 0.375381 0.657131
0.175377 0.376627 0.698627
0.176622 0.377872 0.740122
0.177868 0.379118 0.781618
0.170278 0.411778 0.130028
0.171523 0.413023 0.171523
0.172769 0.414269 0.213019
0.174014 0.415514 0.254514
0.175260 0.416760 0.296010
0.176505 0.418005 0.337505
0.177750 0.419250 0.379000
0.178996 0.420496 0.420496
0.180241 0.421741 0.461991
0.181487 0.422987 0.503487
0.182732 0.424232 0.544982
0.183978 0.425478 0.586478
0.185223 0.426723 0.627973
0.186469 0.427969 0.669469
0.187714 0.429214 0.710964
0.188960 0.430459 0.752459
0.190205 0.431705 0.793955
0.182615 0.464365 0.142365
0.183860 0.465610 0.183860
0.185106 0.466856 0.225356
0.186351 0.468101 0.266851
0.187597 0.469347 0.308347
0.188842 0.470592 0.349842
0.190088 0.471838 0.391338
0.191333 0.473083 0.432833
0.192579 0.474329 0.474329
0.193824 0.475574 0.515824
0.195069 0.476819 0.557319
0.196315 0.478065 0.598815
0.197560 0.479310 0.640310
0.198806 0.480556 0.681806
0.200051 0.481801 0.723301
0.201297 0.483047 0.764797
0.202542 0.484292 0.806292
0.194952 0.516952 0.154702
0.196198 0.518198 0.196198
0.197443 0.519443 0.237693
0.198688 0.520688 0.279188
0.199934 0.521934 0.320684
0.201179 0.523179 0.362179
0.202425 0.524425 0.403675
0.203670 0.525670 0.445170
0.204916 0.526916 0.486666
0.206161 0.528161 0.528161
0.207407 0.529407 0.569657
0.208652 0.530652 0.611152
0.209898 0.531898 0.652648
0.211143 0.533143 0.694143
0.212388 0.534388 0.735638
0.213634 0.535634 0.777134
0.214879 0.536879 0.818629
0.207289 0.569539 0.167039
0.208535 0.570785 0.208535
0.209780 0.572030 0.250030
0.211026 0.573276 0.291526
0.212271 0.574521 0.333021
0.213517 0.575767 0.374517
0.214762 0.577012 0.416012
0.216007 0.578258 0.457507
0.217253 0.579503 0.499003
0.218498 0.580748 0.540498
0.219744 0.581994 0.581994
0.220989 0.583239 0.623489
0.222235 0.584485 0.664985
0.223480 0.585730 0.706480
0.224726 0.586976 0.747976
0.225971 0.588221 0.789471
0.227217 0.589467 0.830967
0.219627 0.622127 0.179377
0.220872 0.623372 0.220872
0.222117 0.624617 0.262367
0.223363 0.625863 0.303863
0.224608 0.627108 0.345358
0.225854 0.628354 0.386854
0.227099 0.629599 0.428349
0.228345 0.630845 0.469845
0.229590 0.632090 0.511340
0.230836 0.633336 0.552836
0.232081 0.634581 0.594331
0.233326 0.635826 0.635826
0.234572 0.637072 0.677322
0.235817 0.638317 0.718817
0.237063 0.639563 0.760313
0.238308 0.640808 0.801808
0.239554 0.642054 0.843304
0.231964 0.674714 0.191714
0.233209 0.675959 0.233209
0.234455 0.677205 0.274705
0.235700 0.678450 0.316200
0.236946 0.679696 0.357696
0.238191 0.680941 0.399191
0.239436 0.682186 0.440686
0.240682 0.683432 0.482182
0.241927 0.684677 0.523677
0.243173 0.685923 0.565173
0.244418 0.687168 0.606668
0.245664 0.688414 0.648164
0.246909 0.689659 0.689659
0.248155 0.690905 0.731155
0.249400 0.692150 0.772650
0.250645 0.693395 0.814145
0.251891 0.694641 0.855641
0.244301 0.727301 0.204051
0.245546 0.728546 0.245546
0.246792 0.729792 0.287042
0.248037 0.731037 0.328537
0.249283 0.732283 0.370033
0.250528 0.733528 0.411528
0.251774 0.734774 0.453024
0.253019 0.736019 0.494519
0.254265 0.737265 0.536015
0.255510 0.738510 0.577510
0.256755 0.739755 0.619005
0.258001 0.741001 0.660501
0.259246 0.742246 0.701996
0.260492 0.743492 0.743492
0.261737 0.744737 0.784987
0.262983 0.745983 0.826483
0.264228 0.747228 0.867978
0.256638 0.779888 0.216388
0.257884 0.781134 0.257884
0.259129 0.782379 0.299379
0.260374 0.783624 0.340874
0.261620 0.784870 0.382370
0.262865 0.786115 0.423865
0.264111 0.787361 0.465361
0.265356 0.788606 0.506856
0.266602 0.789852 0.548352
0.267847 0.791097 0.589847
0.269093 0.792343 0.631343
0.270338 0.793588 0.672838
0.271584 0.794834 0.714334
0.272829 0.796079 0.755829
0.274074 0.797324 0.797324
0.275320 0.798570 0.838820
0.276565 0.799815 0.880315
0.268975 0.832475 0.228725
0.270221 0.833721 0.270221
0.271466 0.834966 0.311716
0.272712 0.836212 0.353212
0.273957 0.837457 0.394707
0.275203 0.838703 0.436203
0.276448 0.839948 0.477698
0.277693 0.841193 0.519193
0.278939 0.842439 0.560689
0.280184 0.843684 0.602184
0.281430 0.844930 0.643680
0.282675 0.846175 0.685175
0.283921 0.847421 0.726671
0.285166 0.848666 0.768166
0.286412 0.849912 0.809662
0.287657 0.851157 0.851157
0.288903 0.852403 0.892653
0.281313 0.885063 0.241063
0.282558 0.886308 0.282558
0.283803 0.887553 0.324053
0.285049 0.888799 0.365549
0.286294 0.890044 0.407044
0.287540 0.891290 0.448540
0.288785 0.892535 0.490035
0.290031 0.893781 0.531531
0.291276 0.895026 0.573026
0.292522 0.896272 0.614522
0.293767 0.897517 0.656017
0.295012 0.898762 0.697512
0.296258 0.900008 0.739008
0.297503 0.901253 0.780503
0.298749 0.902499 0.821999
0.299994 0.903744 0.863494
0.301240 0.904990 0.904990
0.127835 0.047335 0.047335
0.129080 0.048580 0.088830
0.130326 0.049826 0.130326
0.131571 0.051071 0.171821
0.132817 0.052316 0.213316
0.134062 0.053562 0.254812
0.135307 0.054807 0.296307
0.136553 0.056053 0.337803
0.137798 0.057298 0.379298
0.139044 0.058544 0.420794
0.140289 0.059789 0.462289
0.141535 0.061035 0.503785
0.142780 0.062280 0.545280
0.144026 0.063526 0.586776
0.145271 0.064771 0.628271
0.146516 0.066016 0.669766
0.147762 0.067262 0.711262
0.140172 0.099922 0.059672
0.141417 0.101167 0.101167
0.142663 0.102413 0.142663
0.143908 0.103658 0.184158
0.145154 0.104904 0.225654
0.146399 0.106149 0.267149
0.147645 0.107395 0.308645
0.148890 0.108640 0.350140
0.150135 0.109885 0.391635
0.151381 0.111131 0.433131
0.152626 0.112376 0.474626
0.153872 0.113622 0.516122
0.155117 0.114867 0.557617
0.156363 0.116113 0.599113
0.157608 0.117358 0.640608
0.158854 0.118604 0.682104
0.160099 0.119849 0.723599
0.152509 0.152509 0.072009
0.153755 0.153755 0.113505
0.155000 0.155000 0.155000
0.156245 0.156245 0.196495
0.157491 0.157491 0.237991
0.158736 0.158736 0.279486
0.159982 0.159982 0.320982
0.161227 0.161227 0.362477
0.162473 0.162473 0.403973
0.163718 0.163718 0.445468
0.164964 0.164964 0.486964
0.166209 0.166209 0.528459
0.167454 0.167454 0.569954
0.168700 0.168700 0.611450
0.169945 0.169945 0.652945
0.171191 0.171191 0.694441
0.172436 0.172436 0.735936
0.164846 0.205096 0.084346
0.166092 0.206342 0.125842
0.167337 0.207587 0.167337
0.168583 0.208833 0.208833
0.169828 0.210078 0.250328
0.171074 0.211324 0.291824
0.172319 0.212569 0.333319
0.173564 0.213814 0.374814
0.174810 0.215060 0.416310
0.176055 0.216305 0.457805
0.177301 0.217551 0.499301
0.178546 0.218796 0.540796
0.179792 0.220042 0.582292
0.181037 0.221287 0.623787
0.182283 0.222533 0.665283
0.183528 0.223778 0.706778
0.184773 0.225023 0.748273
0.177183 0.257683 0.096683
0.178429 0.258929 0.138179
0.179674 0.260174 0.179674
0.180920 0.261420 0.221170
0.182165 0.262665 0.262665
0.183411 0.263911 0.304161
0.184656 0.265156 0.345656
0.185902 0.266402 0.387152
0.187147 0.267647 0.428647
0.188393 0.268893 0.470143
0.189638 0.270138 0.511638
0.190883 0.271383 0.553133
0.192129 0.272629 0.594629
0.193374 0.273874 0.636124
0.194620 0.275120 0.677620
0.195865 0.276365 0.719115
0.197111 0.277611 0.760611
0.189521 0.310271 0.109021
0.190766 0.311516 0.150516
0.192012 0.312762 0.192012
0.193257 0.314007 0.233507
0.194502 0.315252 0.275002
0.195748 0.316498 0.316498
0.196993 0.317743 0.357993
0.198239 0.318989 0.399489
0.199484 0.320234 0.440984
0.200730 0.321480 0.482480
0.201975 0.322725 0.523975
0.203221 0.323971 0.565471
0.204466 0.325216 0.606966
0.205712 0.326462 0.648462
0.206957 0.327707 0.689957
0.208202 0.328952 0.731452
0.209448 0.330198 0.772948
0.201858 0.362858 0.121358
0.203103 0.364103 0.162853
0.204349 0.365349 0.204349
0.205594 0.366594 0.245844
0.206840 0.367840 0.287340
0.208085 0.369085 0.328835
0.209331 0.370331 0.370331
0.210576 0.371576 0.411826
0.211821 0.372821 0.453321
0.213067 0.374067 0.494817
0.214312 0.375312 0.536312
0.215558 0.376558 0.577808
0.216803 0.377803 0.619303
0.218049 0.379049 0.660799
0.219294 0.380294 0.702294
0.220540 0.381540 0.743790
0.221785 0.382785 0.785285
0.214195 0.415445 0.133695
0.215441 0.416691 0.175191
0.216686 0.417936 0.216686
0.217931 0.419181 0.258181
0.219177 0.420427 0.299677
0.220422 0.421672 0.341172
0.221668 0.422918 0.382668
0.222913 0.424163 0.424163
0.224159 0.425409 0.465659
0.225404 0.426654 0.507154
0.226650 0.427900 0.548650
0.227895 0.429145 0.590145
0.229140 0.430391 0.631640
0.230386 0.431636 0.673136
0.231631 0.432881 0.714631
0.232877 0.434127 0.756127
0.234122 0.435372 0.797622
0.226532 0.468032 0.146032
0.227778 0.469278 0.187528
0.229023 0.470523 0.229023
0.230269 0.471769 0.270519
0.231514 0.473014 0.312014
0.232760 0.474260 0.353510
0.234005 0.475505 0.395005
0.235250 0.476750 0.436500
0.236496 0.477996 0.477996
0.237741 0.479241 0.519491
0.238987 0.480487 0.560987
0.240232 0.481732 0.602482
0.241478 0.482978 0.643978
0.242723 0.484223 0.685473
0.243969 0.485469 0.726969
0.245214 0.486714 0.768464
0.246459 0.487959 0.809959
0.238869 0.520619 0.158369
0.240115 0.521865 0.199865
0.241360 0.523110 0.241360
0.242606 0.524356 0.282856
0.243851 0.525601 0.324351
0.245097 0.526847 0.365847
0.246342 0.528092 0.407342
0.247588 0.529338 0.448838
0.248833 0.530583 0.490333
0.250079 0.531829 0.531829
0.251324 0.533074 0.573324
0.252569 0.534319 0.614819
0.253815 0.535565 0.656315
0.255060 0.536810 0.697810
0.256306 0.538056 0.739306
0.257551 0.539301 0.780801
0.258797 0.540547 0.822297
0.251207 0.573207 0.170707
0.252452 0.574452 0.212202
0.253698 0.575698 0.253698
0.254943 0.576943 0.295193
0.256189 0.578188 0.336688
0.257434 0.579434 0.378184
0.258679 0.580679 0.419679
0.259925 0.581925 0.461175
0.261170 0.583170 0.502670
0.262416 0.584416 0.544166
0.263661 0.585661 0.585661
0.264907 0.586907 0.627157
0.266152 0.588152 0.668652
0.267398 0.589398 0.710148
0.268643 0.590643 0.751643
0.269888 0.591888 0.793138
0.271134 0.593134 0.834634
0.263544 0.625794 0.183044
0.264789 0.627039 0.224539
0.266035 0.628285 0.266035
0.267280 0.629530 0.307530
0.268526 0.630776 0.349026
0.269771 0.632021 0.390521
0.271017 0.633267 0.432017
0.272262 0.634512 0.473512
0.273508 0.635757 0.515007
0.274753 0.637003 0.556503
0.275998 0.638248 0.597998
0.277244 0.639494 0.639494
0.278489 0.640739 0.680989
0.279735 0.641985 0.722485
0.280980 0.643230 0.763980
0.282226 0.644476 0.805476
0.283471 0.645721 0.846971
0.275881 0.678381 0.195381
0.277127 0.679627 0.236877
0.278372 0.680872 0.278372
0.279617 0.682117 0.319867
0.280863 0.683363 0.361363
0.282108 0.684608 0.402858
0.283354 0.685854 0.444354
0.284599 0.687099 0.485849
0.285845 0.688345 0.527345
0.287090 0.689590 0.568840
0.288336 0.690836 0.610336
0.289581 0.692081 0.651831
0.290826 0.693326 0.693326
0.292072 0.694572 0.734822
0.293317 0.695817 0.776317
0.294563 0.697063 0.817813
0.295808 0.698308 0.859308
0.288218 0.730968 0.207718
0.289464 0.732214 0.249214
0.290709 0.733459 0.290709
0.291955 0.734705 0.332205
0.293200 0.735950 0.373700
0.294446 0.737196 0.415196
0.295691 0.738441 0.456691
0.296936 0.739686 0.498186
0.298182 0.740932 0.539682
0.299427 0.742177 0.581177
0.300673 0.743423 0.622673
0.301918 0.744668 0.664168
0.303164 0.745914 0.705664
0.304409 0.747159 0.747159
0.305655 0.748405 0.788655
0.306900 0.749650 0.830150
0.308145 0.750895 0.871646
0.300555 0.783555 0.220055
0.301801 0.784801 0.261551
0.303046 0.786046 0.303046
0.304292 0.787292 0.344542
0.305537 0.788537 0.386037
0.306783 0.789783 0.427533
0.308028 0.791028 0.469028
0.309274 0.792274 0.510524
0.310519 0.793519 0.552019
0.311765 0.794765 0.593515
0.313010 0.796010 0.635010
0.314255 0.797255 0.676505
0.315501 0.798501 0.718001
0.316746 0.799746 0.759496
0.317992 0.800992 0.800992
0.319237 0.802237 0.842487
0.320483 0.803483 0.883983
0.312893 0.836143 0.232393
0.314138 0.837388 0.273888
0.315384 0.838634 0.315384
0.316629 0.839879 0.356879
0.317874 0.841125 0.398374
0.319120 0.842370 0.439870
0.320365 0.843615 0.481365
0.321611 0.844861 0.522861
0.322856 0.846106 0.564356
0.324102 0.847352 0.605852
0.325347 0.848597 0.647347
0.326593 0.849843 0.688843
0.327838 0.851088 0.730338
0.329084 0.852334 0.771834
0.330329 0.853579 0.813329
0.331574 0.854824 0.854824
0.332820 0.856070 0.896320
0.325230 0.888730 0.244730
0.326475 0.889975 0.286225
0.327721 0.891221 0.327721
0.328966 0.892466 0.369216
0.330212 0.893712 0.410712
0.331457 0.894957 0.452207
0.332703 0.896203 0.493703
0.333948 0.897448 0.535198
0.335193 0.898693 0.576693
0.336439 0.899939 0.618189
0.337684 0.901184 0.659684
0.338930 0.902430 0.701180
0.340175 0.903675 0.742675
0.341421 0.904921 0.784171
0.342666 0.906166 0.825666
0.343912 0.907412 0.867162
0.345157 0.908657 0.908657
0.171752 0.051002 0.051002
0.172997 0.052248 0.092498
0.174243 0.053493 0.133993
0.175488 0.054738 0.175488
0.176734 0.055984 0.216984
0.177979 0.057229 0.258479
0.179225 0.058475 0.299975
0.180470 0.059720 0.341470
0.181716 0.060966 0.382966
0.182961 0.062211 0.424461
0.184207 0.063457 0.465957
0.185452 0.064702 0.507452
0.186697 0.065947 0.548947
0.187943 0.067193 0.590443
0.189188 0.068438 0.631938
0.190434 0.069684 0.673434
