assets/luts/teal-orange.cube
# montage LUT: teal-orange — 青橙对比（电影感标配）（原创，MIT）
TITLE "montage teal-orange cinematic contrast"
LUT_3D_SIZE 5
DOMAIN_MIN 0.0 0.0 0.0
DOMAIN_MAX 1.0 1.0 1.0
0.000000 0.020000 0.070000
0.000000 0.019639 0.317473
0.000000 0.019278 0.564946
0.000000 0.018917 0.812419
0.000000 0.018556 1.000000
0.000000 0.266424 0.044968
0.000000 0.266063 0.292441
0.000000 0.265702 0.539914
0.000000 0.265341 0.787387
0.000000 0.264980 1.000000
0.000000 0.512848 0.019936
0.000000 0.512487 0.267409
0.000000 0.512126 0.514882
0.000000 0.511765 0.762355
0.001576 0.511404 1.000000
0.014368 0.759272 0.000000
0.016534 0.758911 0.242377
0.018700 0.758550 0.489850
0.020866 0.758189 0.737323
0.023032 0.757828 0.984796
0.035824 1.000000 0.000000
0.037990 1.000000 0.217345
0.040156 1.000000 0.464818
0.042322 1.000000 0.712291
0.044488 1.000000 0.959764
0.206378 0.018937 0.062559
0.208544 0.018576 0.310032
0.210710 0.018215 0.557505
0.212876 0.017854 0.804978
0.215042 0.017493 1.000000
0.227834 0.265361 0.037527
0.230000 0.265000 0.285000
0.232166 0.264639 0.532473
0.234332 0.264278 0.779946
0.236498 0.263917 1.000000
0.249290 0.511785 0.012495
0.251456 0.511424 0.259968
0.253622 0.511063 0.507441
0.255788 0.510702 0.754914
0.257954 0.510341 1.000000
0.270746 0.758209 0.000000
0.272912 0.757848 0.234936
0.275078 0.757487 0.482409
0.277244 0.757126 0.729882
0.279410 0.756765 0.977355
0.292202 1.000000 0.000000
0.294368 1.000000 0.209904
0.296534 1.000000 0.457377
0.298700 1.000000 0.704850
0.300866 1.000000 0.952323
0.462756 0.017874 0.055118
0.464922 0.017513 0.302591
0.467088 0.017152 0.550064
0.469254 0.016791 0.797537
0.471420 0.016430 1.000000
0.484212 0.264298 0.030086
0.486378 0.263937 0.277559
0.488544 0.263576 0.525032
0.490710 0.263215 0.772505
0.492876 0.262854 1.000000
0.505668 0.510722 0.005054
0.507834 0.510361 0.252527
0.510000 0.510000 0.500000
0.512166 0.509639 0.747473
0.514332 0.509278 0.994946
0.527124 0.757146 0.000000
0.529290 0.756785 0.227495
0.531456 0.756424 0.474968
0.533622 0.756063 0.722441
0.535788 0.755702 0.969914
0.548580 1.000000 0.000000
0.550746 1.000000 0.202463
0.552912 1.000000 0.449936
0.555078 1.000000 0.697409
0.557244 1.000000 0.944882
0.719134 0.016811 0.047677
0.721300 0.016450 0.295150
0.723466 0.016089 0.542623
0.725632 0.015728 0.790096
0.727798 0.015367 1.000000
0.740590 0.263235 0.022645
0.742756 0.262874 0.270118
0.744922 0.262513 0.517591
0.747088 0.262152 0.765064
0.749254 0.261791 1.000000
0.762046 0.509659 0.000000
0.764212 0.509298 0.245086
0.766378 0.508937 0.492559
0.768544 0.508576 0.740032
0.770710 0.508215 0.987505
0.783502 0.756083 0.000000
0.785668 0.755722 0.220054
0.787834 0.755361 0.467527
0.790000 0.755000 0.715000
0.792166 0.754639 0.962473
0.804958 1.000000 0.000000
0.807124 1.000000 0.195022
0.809290 1.000000 0.442495
0.811456 1.000000 0.689968
0.813622 1.000000 0.937441
0.975512 0.015748 0.040236
0.977678 0.015387 0.287709
0.979844 0.015026 0.535182
0.982010 0.014665 0.782655
0.984176 0.014304 1.000000
0.996968 0.262172 0.015204
0.999134 0.261811 0.262677
1.000000 0.261450 0.510150
1.000000 0.261089 0.757623
1.000000 0.260728 1.000000
1.000000 0.508596 0.000000
1.000000 0.508235 0.237645
1.000000 0.507874 0.485118
1.000000 0.507513 0.732591
1.000000 0.507152 0.980064
1.000000 0.755020 0.000000
1.000000 0.754659 0.212613
1.000000 0.754298 0.460086
1.000000 0.753937 0.707559
1.000000 0.753576 0.955032
1.000000 1.000000 0.000000
1.000000 1.000000 0.187581
1.000000 1.000000 0.435054
1.000000 1.000000 0.682527
1.000000 1.000000 0.930000
