assets/luts/teal-orange.cube
# montage LUT: teal-orange — 青橙对比（电影感标配）（原创，MIT）
TITLE "montage teal-orange cinematic contrast"
LUT_3D_SIZE 17
DOMAIN_MIN 0.0 0.0 0.0
DOMAIN_MAX 1.0 1.0 1.0
0.000000 0.020000 0.070000
0.000000 0.019910 0.131868
0.000000 0.019820 0.193737
0.000000 0.019729 0.255605
0.000000 0.019639 0.317473
0.000000 0.019549 0.379341
0.000000 0.019459 0.441209
0.000000 0.019368 0.503078
0.000000 0.019278 0.564946
0.000000 0.019188 0.626814
0.000000 0.019097 0.688682
0.000000 0.019007 0.750551
0.000000 0.018917 0.812419
0.000000 0.018827 0.874287
0.000000 0.018736 0.936156
0.000000 0.018646 0.998024
0.000000 0.018556 1.000000
0.000000 0.081606 0.063742
0.000000 0.081516 0.125610
0.000000 0.081425 0.187478
0.000000 0.081335 0.249347
0.000000 0.081245 0.311215
0.000000 0.081155 0.373083
0.000000 0.081064 0.434951
0.000000 0.080974 0.496820
0.000000 0.080884 0.558688
0.000000 0.080794 0.620556
0.000000 0.080703 0.682424
0.000000 0.080613 0.744293
0.000000 0.080523 0.806161
0.000000 0.080433 0.868029
0.000000 0.080342 0.929898
0.000000 0.080252 0.991766
0.000000 0.080162 1.000000
0.000000 0.143212 0.057484
0.000000 0.143122 0.119352
0.000000 0.143032 0.181221
0.000000 0.142941 0.243089
0.000000 0.142851 0.304957
0.000000 0.142761 0.366825
0.000000 0.142671 0.428694
0.000000 0.142580 0.490562
0.000000 0.142490 0.552430
0.000000 0.142400 0.614298
0.000000 0.142310 0.676167
0.000000 0.142219 0.738035
0.000000 0.142129 0.799903
0.000000 0.142039 0.861771
0.000000 0.141949 0.923640
0.000000 0.141858 0.985508
0.000000 0.141768 1.000000
0.000000 0.204818 0.051226
0.000000 0.204728 0.113094
0.000000 0.204637 0.174963
0.000000 0.204547 0.236831
0.000000 0.204457 0.298699
0.000000 0.204367 0.360567
0.000000 0.204276 0.422436
0.000000 0.204186 0.484304
0.000000 0.204096 0.546172
0.000000 0.204006 0.608040
0.000000 0.203915 0.669909
0.000000 0.203825 0.731777
0.000000 0.203735 0.793645
0.000000 0.203645 0.855513
0.000000 0.203554 0.917381
0.000000 0.203464 0.979250
0.000000 0.203374 1.000000
0.000000 0.266424 0.044968
0.000000 0.266334 0.106836
0.000000 0.266244 0.168704
0.000000 0.266153 0.230573
0.000000 0.266063 0.292441
0.000000 0.265973 0.354309
0.000000 0.265883 0.416178
0.000000 0.265792 0.478046
0.000000 0.265702 0.539914
0.000000 0.265612 0.601782
0.000000 0.265522 0.663651
0.000000 0.265431 0.725519
0.000000 0.265341 0.787387
0.000000 0.265251 0.849255
0.000000 0.265161 0.911123
0.000000 0.265070 0.972992
0.000000 0.264980 1.000000
0.000000 0.328030 0.038710
0.000000 0.327940 0.100578
0.000000 0.327850 0.162446
0.000000 0.327759 0.224315
0.000000 0.327669 0.286183
0.000000 0.327579 0.348051
0.000000 0.327489 0.409920
0.000000 0.327398 0.471788
0.000000 0.327308 0.533656
0.000000 0.327218 0.595524
0.000000 0.327128 0.657393
0.000000 0.327037 0.719261
0.000000 0.326947 0.781129
0.000000 0.326857 0.842997
0.000000 0.326767 0.904865
0.000000 0.326676 0.966734
0.000000 0.326586 1.000000
0.000000 0.389636 0.032452
0.000000 0.389546 0.094320
0.000000 0.389456 0.156189
0.000000 0.389365 0.218057
0.000000 0.389275 0.279925
0.000000 0.389185 0.341793
0.000000 0.389095 0.403661
0.000000 0.389004 0.465530
0.000000 0.388914 0.527398
0.000000 0.388824 0.589266
0.000000 0.388734 0.651134
0.000000 0.388643 0.713003
0.000000 0.388553 0.774871
0.000000 0.388463 0.836739
0.000000 0.388373 0.898608
0.000000 0.388282 0.960476
0.000000 0.388192 1.000000
0.000000 0.451242 0.026194
0.000000 0.451152 0.088062
0.000000 0.451062 0.149931
0.000000 0.450971 0.211799
0.000000 0.450881 0.273667
0.000000 0.450791 0.335535
0.000000 0.450701 0.397404
0.000000 0.450610 0.459272
0.000000 0.450520 0.521140
0.000000 0.450430 0.583008
0.000000 0.450340 0.644876
0.000000 0.450249 0.706745
0.000000 0.450159 0.768613
0.000000 0.450069 0.830481
0.000000 0.449979 0.892350
0.000000 0.449888 0.954218
0.000000 0.449798 1.000000
0.000000 0.512848 0.019936
0.000000 0.512758 0.081804
0.000000 0.512668 0.143673
0.000000 0.512577 0.205541
0.000000 0.512487 0.267409
0.000000 0.512397 0.329277
0.000000 0.512306 0.391145
0.000000 0.512216 0.453014
0.000000 0.512126 0.514882
0.000000 0.512036 0.576750
0.000000 0.511946 0.638618
0.000000 0.511855 0.700487
0.000000 0.511765 0.762355
0.000000 0.511675 0.824223
0.000493 0.511584 0.886092
0.001035 0.511494 0.947960
0.001576 0.511404 1.000000
0.000000 0.574454 0.013678
0.000000 0.574364 0.075546
0.000000 0.574273 0.137414
0.000000 0.574183 0.199283
0.000442 0.574093 0.261151
0.000983 0.574003 0.323019
0.001525 0.573913 0.384887
0.002067 0.573822 0.446756
0.002608 0.573732 0.508624
0.003150 0.573642 0.570492
0.003691 0.573551 0.632360
0.004233 0.573461 0.694229
0.004774 0.573371 0.756097
0.005315 0.573281 0.817965
0.005857 0.573191 0.879834
0.006399 0.573100 0.941702
0.006940 0.573010 1.000000
0.003640 0.636060 0.007420
0.004181 0.635970 0.069288
0.004723 0.635880 0.131157
0.005264 0.635789 0.193025
0.005806 0.635699 0.254893
0.006347 0.635609 0.316761
0.006889 0.635518 0.378630
0.007430 0.635428 0.440498
0.007972 0.635338 0.502366
0.008514 0.635248 0.564234
0.009055 0.635158 0.626103
0.009596 0.635067 0.687971
0.010138 0.634977 0.749839
0.010679 0.634887 0.811707
0.011221 0.634796 0.873576
0.011762 0.634706 0.935444
0.012304 0.634616 0.997312
0.009004 0.697666 0.001162
0.009545 0.697576 0.063030
0.010087 0.697485 0.124899
0.010629 0.697395 0.186767
0.011170 0.697305 0.248635
0.011711 0.697215 0.310503
0.012253 0.697125 0.372372
0.012795 0.697034 0.434240
0.013336 0.696944 0.496108
0.013877 0.696854 0.557976
0.014419 0.696763 0.619845
0.014961 0.696673 0.681713
0.015502 0.696583 0.743581
0.016043 0.696493 0.805449
0.016585 0.696403 0.867317
0.017126 0.696312 0.929186
0.017668 0.696222 0.991054
0.014368 0.759272 0.000000
0.014910 0.759182 0.056772
0.015451 0.759092 0.118640
0.015992 0.759001 0.180509
0.016534 0.758911 0.242377
0.017076 0.758821 0.304245
0.017617 0.758730 0.366114
0.018158 0.758640 0.427982
0.018700 0.758550 0.489850
0.019242 0.758460 0.551718
0.019783 0.758370 0.613587
0.020324 0.758279 0.675455
0.020866 0.758189 0.737323
0.021407 0.758099 0.799191
0.021949 0.758008 0.861059
0.022491 0.757918 0.922928
0.023032 0.757828 0.984796
0.019732 0.820878 0.000000
0.020274 0.820788 0.050514
0.020815 0.820697 0.112382
0.021356 0.820607 0.174251
0.021898 0.820517 0.236119
0.022440 0.820427 0.297987
0.022981 0.820337 0.359856
0.023522 0.820246 0.421724
0.024064 0.820156 0.483592
0.024606 0.820066 0.545460
0.025147 0.819975 0.607329
0.025688 0.819885 0.669197
0.026230 0.819795 0.731065
0.026771 0.819705 0.792933
0.027313 0.819615 0.854801
0.027854 0.819524 0.916670
0.028396 0.819434 0.978538
0.025096 0.882484 0.000000
0.025637 0.882394 0.044256
0.026179 0.882304 0.106125
0.026720 0.882213 0.167993
0.027262 0.882123 0.229861
0.027803 0.882033 0.291729
0.028345 0.881942 0.353598
0.028886 0.881852 0.415466
0.029428 0.881762 0.477334
0.029969 0.881672 0.539202
0.030511 0.881582 0.601071
0.031052 0.881491 0.662939
0.031594 0.881401 0.724807
0.032135 0.881311 0.786675
0.032677 0.881220 0.848544
0.033218 0.881130 0.910412
0.033760 0.881040 0.972280
0.030460 0.944090 0.000000
0.031002 0.944000 0.037998
0.031543 0.943909 0.099867
0.032085 0.943819 0.161735
0.032626 0.943729 0.223603
0.033168 0.943639 0.285471
0.033709 0.943549 0.347339
0.034251 0.943458 0.409208
0.034792 0.943368 0.471076
0.035334 0.943278 0.532944
0.035875 0.943187 0.594812
0.036417 0.943097 0.656681
0.036958 0.943007 0.718549
0.037499 0.942917 0.780417
0.038041 0.942827 0.842286
0.038583 0.942736 0.904154
0.039124 0.942646 0.966022
0.035824 1.000000 0.000000
0.036366 1.000000 0.031740
0.036907 1.000000 0.093609
0.037448 1.000000 0.155477
0.037990 1.000000 0.217345
0.038532 1.000000 0.279213
0.039073 1.000000 0.341081
0.039614 1.000000 0.402950
0.040156 1.000000 0.464818
0.040698 1.000000 0.526686
0.041239 1.000000 0.588554
0.041780 1.000000 0.650423
0.042322 1.000000 0.712291
0.042863 1.000000 0.774159
0.043405 1.000000 0.836028
0.043946 1.000000 0.897896
0.044488 1.000000 0.959764
0.014095 0.019734 0.068140
0.014636 0.019644 0.130008
0.015177 0.019554 0.191876
0.015719 0.019464 0.253744
0.016261 0.019373 0.315613
0.016802 0.019283 0.377481
0.017343 0.019193 0.439349
0.017885 0.019103 0.501217
0.018427 0.019012 0.563086
0.018968 0.018922 0.624954
0.019509 0.018832 0.686822
0.020051 0.018742 0.748691
0.020593 0.018651 0.810559
0.021134 0.018561 0.872427
0.021675 0.018471 0.934295
0.022217 0.018381 0.996163
0.022759 0.018290 1.000000
0.019458 0.081340 0.061882
0.020000 0.081250 0.123750
0.020541 0.081160 0.185618
0.021083 0.081070 0.247486
0.021624 0.080979 0.309355
0.022166 0.080889 0.371223
0.022707 0.080799 0.433091
0.023249 0.080709 0.494960
0.023790 0.080618 0.556828
0.024332 0.080528 0.618696
0.024873 0.080438 0.680564
0.025415 0.080348 0.742433
0.025956 0.080257 0.804301
0.026498 0.080167 0.866169
0.027039 0.080077 0.928037
0.027581 0.079987 0.989905
0.028122 0.079896 1.000000
0.024823 0.142946 0.055624
0.025364 0.142856 0.117492
0.025905 0.142766 0.179360
0.026447 0.142676 0.241229
0.026988 0.142585 0.303097
0.027530 0.142495 0.364965
0.028071 0.142405 0.426833
0.028613 0.142315 0.488701
0.029154 0.142224 0.550570
0.029696 0.142134 0.612438
0.030238 0.142044 0.674306
0.030779 0.141954 0.736174
0.031321 0.141863 0.798043
0.031862 0.141773 0.859911
0.032404 0.141683 0.921779
0.032945 0.141593 0.983648
0.033486 0.141502 1.000000
0.030186 0.204552 0.049366
0.030728 0.204462 0.111234
0.031269 0.204372 0.173102
0.031811 0.204282 0.234971
0.032352 0.204191 0.296839
0.032894 0.204101 0.358707
0.033435 0.204011 0.420575
0.033977 0.203921 0.482443
0.034518 0.203830 0.544312
0.035060 0.203740 0.606180
0.035601 0.203650 0.668048
0.036143 0.203560 0.729916
0.036684 0.203469 0.791785
0.037226 0.203379 0.853653
0.037767 0.203289 0.915521
0.038309 0.203199 0.977390
0.038850 0.203108 1.000000
0.035550 0.266158 0.043108
0.036092 0.266068 0.104976
0.036633 0.265978 0.166844
0.037175 0.265887 0.228713
0.037717 0.265797 0.290581
0.038258 0.265707 0.352449
0.038800 0.265617 0.414317
0.039341 0.265526 0.476185
0.039883 0.265436 0.538054
0.040424 0.265346 0.599922
0.040966 0.265256 0.661790
0.041507 0.265165 0.723658
0.042049 0.265075 0.785527
0.042590 0.264985 0.847395
0.043132 0.264895 0.909263
0.043673 0.264804 0.971132
0.044215 0.264714 1.000000
0.040914 0.327764 0.036850
0.041456 0.327674 0.098718
0.041997 0.327584 0.160586
0.042539 0.327493 0.222454
0.043081 0.327403 0.284323
0.043622 0.327313 0.346191
0.044163 0.327223 0.408059
0.044705 0.327132 0.469927
0.045246 0.327042 0.531796
0.045788 0.326952 0.593664
0.046329 0.326862 0.655532
0.046871 0.326771 0.717400
0.047412 0.326681 0.779269
0.047954 0.326591 0.841137
0.048495 0.326501 0.903005
0.049037 0.326410 0.964874
0.049578 0.326320 1.000000
0.046279 0.389370 0.030592
0.046820 0.389280 0.092460
0.047362 0.389190 0.154328
0.047903 0.389099 0.216197
0.048445 0.389009 0.278065
0.048986 0.388919 0.339933
0.049528 0.388829 0.401801
0.050069 0.388738 0.463670
0.050611 0.388648 0.525538
0.051152 0.388558 0.587406
0.051694 0.388468 0.649274
0.052235 0.388377 0.711143
0.052777 0.388287 0.773011
0.053318 0.388197 0.834879
0.053860 0.388107 0.896747
0.054401 0.388016 0.958615
0.054942 0.387926 1.000000
0.051642 0.450976 0.024334
0.052184 0.450886 0.086202
0.052725 0.450796 0.148070
0.053267 0.450705 0.209939
0.053808 0.450615 0.271807
0.054350 0.450525 0.333675
0.054891 0.450435 0.395543
0.055433 0.450344 0.457412
0.055974 0.450254 0.519280
0.056516 0.450164 0.581148
0.057057 0.450074 0.643016
0.057599 0.449983 0.704885
0.058140 0.449893 0.766753
0.058682 0.449803 0.828621
0.059223 0.449713 0.890489
0.059765 0.449622 0.952357
0.060306 0.449532 1.000000
0.057007 0.512582 0.018076
0.057548 0.512492 0.079944
0.058090 0.512402 0.141812
0.058631 0.512312 0.203680
0.059173 0.512221 0.265549
0.059714 0.512131 0.327417
0.060256 0.512041 0.389285
0.060797 0.511950 0.451154
0.061339 0.511860 0.513022
0.061880 0.511770 0.574890
0.062422 0.511680 0.636758
0.062963 0.511590 0.698627
0.063505 0.511499 0.760495
0.064046 0.511409 0.822363
0.064588 0.511319 0.884231
0.065129 0.511228 0.946099
0.065671 0.511138 1.000000
0.062370 0.574188 0.011818
0.062912 0.574098 0.073686
0.063454 0.574008 0.135554
0.063995 0.573917 0.197423
0.064536 0.573827 0.259291
0.065078 0.573737 0.321159
0.065620 0.573647 0.383027
0.066161 0.573557 0.444895
0.066702 0.573466 0.506764
0.067244 0.573376 0.568632
0.067786 0.573286 0.630500
0.068327 0.573195 0.692368
0.068868 0.573105 0.754237
0.069410 0.573015 0.816105
0.069952 0.572925 0.877973
0.070493 0.572835 0.939841
0.071035 0.572744 1.000000
0.067735 0.635794 0.005560
0.068276 0.635704 0.067428
0.068818 0.635614 0.129296
0.069359 0.635524 0.191165
0.069901 0.635433 0.253033
0.070442 0.635343 0.314901
0.070984 0.635253 0.376769
0.071525 0.635162 0.438638
0.072067 0.635072 0.500506
0.072608 0.634982 0.562374
0.073150 0.634892 0.624242
0.073691 0.634802 0.686111
0.074233 0.634711 0.747979
0.074774 0.634621 0.809847
0.075316 0.634531 0.871715
0.075857 0.634440 0.933584
0.076399 0.634350 0.995452
0.073098 0.697400 0.000000
0.073640 0.697310 0.061170
0.074181 0.697220 0.123038
0.074723 0.697129 0.184907
0.075264 0.697039 0.246775
0.075806 0.696949 0.308643
0.076347 0.696859 0.370511
0.076889 0.696769 0.432379
0.077430 0.696678 0.494248
0.077972 0.696588 0.556116
0.078513 0.696498 0.617984
0.079055 0.696407 0.679852
0.079596 0.696317 0.741721
0.080138 0.696227 0.803589
0.080679 0.696137 0.865457
0.081221 0.696047 0.927326
0.081762 0.695956 0.989194
0.078463 0.759006 0.000000
0.079004 0.758916 0.054912
0.079545 0.758826 0.116780
0.080087 0.758736 0.178648
0.080629 0.758645 0.240517
0.081170 0.758555 0.302385
0.081711 0.758465 0.364253
0.082253 0.758374 0.426121
0.082795 0.758284 0.487990
0.083336 0.758194 0.549858
0.083877 0.758104 0.611726
0.084419 0.758014 0.673594
0.084961 0.757923 0.735463
0.085502 0.757833 0.797331
0.086043 0.757743 0.859199
0.086585 0.757652 0.921068
0.087127 0.757562 0.982936
0.083826 0.820612 0.000000
0.084368 0.820522 0.048654
0.084909 0.820432 0.110522
0.085451 0.820342 0.172391
0.085992 0.820251 0.234259
0.086534 0.820161 0.296127
0.087075 0.820071 0.357995
0.087617 0.819981 0.419864
0.088159 0.819890 0.481732
0.088700 0.819800 0.543600
0.089241 0.819710 0.605468
0.089783 0.819619 0.667336
0.090325 0.819529 0.729205
0.090866 0.819439 0.791073
0.091407 0.819349 0.852941
0.091949 0.819259 0.914810
0.092491 0.819168 0.976678
0.089190 0.882218 0.000000
0.089732 0.882128 0.042396
0.090273 0.882038 0.104264
0.090815 0.881947 0.166133
0.091356 0.881857 0.228001
0.091898 0.881767 0.289869
0.092439 0.881677 0.351737
0.092981 0.881587 0.413606
0.093522 0.881496 0.475474
0.094064 0.881406 0.537342
0.094605 0.881316 0.599210
0.095147 0.881225 0.661079
0.095688 0.881135 0.722947
0.096230 0.881045 0.784815
0.096771 0.880955 0.846683
0.097313 0.880865 0.908551
0.097854 0.880774 0.970420
0.094555 0.943824 0.000000
0.095096 0.943734 0.036138
0.095637 0.943644 0.098006
0.096179 0.943554 0.159874
0.096721 0.943463 0.221743
0.097262 0.943373 0.283611
0.097803 0.943283 0.345479
0.098345 0.943192 0.407348
0.098887 0.943102 0.469216
0.099428 0.943012 0.531084
0.099969 0.942922 0.592952
0.100511 0.942832 0.654821
0.101053 0.942741 0.716689
0.101594 0.942651 0.778557
0.102135 0.942561 0.840425
0.102677 0.942470 0.902293
0.103219 0.942380 0.964162
0.099918 1.000000 0.000000
0.100460 1.000000 0.029880
0.101001 1.000000 0.091748
0.101543 1.000000 0.153616
0.102084 1.000000 0.215485
0.102626 1.000000 0.277353
0.103167 1.000000 0.339221
0.103709 1.000000 0.401090
0.104250 1.000000 0.462958
0.104792 1.000000 0.524826
0.105333 1.000000 0.586694
0.105875 1.000000 0.648563
0.106416 1.000000 0.710431
0.106958 1.000000 0.772299
0.107499 1.000000 0.834167
0.108041 1.000000 0.896035
0.108582 1.000000 0.957904
0.078189 0.019468 0.066280
0.078731 0.019378 0.128148
0.079272 0.019288 0.190016
0.079813 0.019198 0.251884
0.080355 0.019107 0.313752
0.080897 0.019017 0.375621
0.081438 0.018927 0.437489
0.081979 0.018837 0.499357
0.082521 0.018746 0.561226
0.083062 0.018656 0.623094
0.083604 0.018566 0.684962
0.084145 0.018476 0.746830
0.084687 0.018385 0.808698
0.085228 0.018295 0.870567
0.085770 0.018205 0.932435
0.086311 0.018115 0.994303
0.086853 0.018024 1.000000
0.083553 0.081074 0.060022
0.084094 0.080984 0.121890
0.084636 0.080894 0.183758
0.085178 0.080804 0.245626
0.085719 0.080713 0.307495
0.086260 0.080623 0.369363
0.086802 0.080533 0.431231
0.087344 0.080443 0.493099
0.087885 0.080352 0.554967
0.088426 0.080262 0.616836
0.088968 0.080172 0.678704
0.089510 0.080082 0.740572
0.090051 0.079991 0.802441
0.090592 0.079901 0.864309
0.091134 0.079811 0.926177
0.091676 0.079721 0.988045
0.092217 0.079630 1.000000
0.088917 0.142680 0.053764
0.089459 0.142590 0.115632
0.090000 0.142500 0.177500
0.090541 0.142410 0.239368
0.091083 0.142319 0.301236
0.091624 0.142229 0.363105
0.092166 0.142139 0.424973
0.092707 0.142049 0.486841
0.093249 0.141958 0.548709
0.093790 0.141868 0.610578
0.094332 0.141778 0.672446
0.094873 0.141688 0.734314
0.095415 0.141597 0.796183
0.095956 0.141507 0.858051
0.096498 0.141417 0.919919
0.097040 0.141327 0.981787
0.097581 0.141236 1.000000
0.094281 0.204287 0.047506
0.094823 0.204196 0.109374
0.095364 0.204106 0.171242
0.095905 0.204016 0.233110
0.096447 0.203926 0.294978
0.096989 0.203835 0.356847
0.097530 0.203745 0.418715
0.098071 0.203655 0.480583
0.098613 0.203565 0.542451
0.099155 0.203474 0.604320
0.099696 0.203384 0.666188
0.100237 0.203294 0.728056
0.100779 0.203204 0.789925
0.101321 0.203113 0.851793
0.101862 0.203023 0.913661
0.102403 0.202933 0.975529
0.102945 0.202843 1.000000
0.099645 0.265892 0.041248
0.100186 0.265802 0.103116
0.100728 0.265712 0.164984
0.101269 0.265622 0.226852
0.101811 0.265531 0.288720
0.102352 0.265441 0.350589
0.102894 0.265351 0.412457
0.103435 0.265261 0.474325
0.103977 0.265170 0.536193
0.104519 0.265080 0.598062
0.105060 0.264990 0.659930
0.105601 0.264900 0.721798
0.106143 0.264809 0.783667
0.106684 0.264719 0.845535
0.107226 0.264629 0.907403
0.107767 0.264539 0.969271
0.108309 0.264448 1.000000
0.105009 0.327499 0.034989
0.105550 0.327408 0.096858
0.106092 0.327318 0.158726
0.106634 0.327228 0.220594
0.107175 0.327138 0.282463
0.107716 0.327047 0.344331
0.108258 0.326957 0.406199
0.108799 0.326867 0.468067
0.109341 0.326777 0.529936
0.109882 0.326686 0.591804
0.110424 0.326596 0.653672
0.110966 0.326506 0.715540
0.111507 0.326416 0.777409
0.112048 0.326325 0.839277
0.112590 0.326235 0.901145
0.113131 0.326145 0.963013
0.113673 0.326055 1.000000
0.110373 0.389105 0.028732
0.110914 0.389014 0.090600
0.111456 0.388924 0.152468
0.111997 0.388834 0.214336
0.112539 0.388744 0.276205
0.113081 0.388653 0.338073
0.113622 0.388563 0.399941
0.114164 0.388473 0.461809
0.114705 0.388383 0.523678
0.115246 0.388292 0.585546
0.115788 0.388202 0.647414
0.116330 0.388112 0.709282
0.116871 0.388022 0.771150
0.117413 0.387931 0.833019
0.117954 0.387841 0.894887
0.118496 0.387751 0.956755
0.119037 0.387661 1.000000
0.115737 0.450711 0.022474
0.116279 0.450620 0.084342
0.116820 0.450530 0.146210
0.117361 0.450440 0.208078
0.117903 0.450350 0.269947
0.118445 0.450259 0.331815
0.118986 0.450169 0.393683
0.119527 0.450079 0.455551
0.120069 0.449989 0.517420
0.120611 0.449898 0.579288
0.121152 0.449808 0.641156
0.121693 0.449718 0.703024
0.122235 0.449628 0.764892
0.122777 0.449537 0.826761
0.123318 0.449447 0.888629
0.123859 0.449357 0.950497
0.124401 0.449267 1.000000
0.121101 0.512316 0.016216
0.121643 0.512226 0.078084
0.122184 0.512136 0.139952
0.122726 0.512046 0.201820
0.123267 0.511956 0.263689
0.123809 0.511865 0.325557
0.124350 0.511775 0.387425
0.124891 0.511685 0.449293
0.125433 0.511594 0.511162
0.125974 0.511504 0.573030
0.126516 0.511414 0.634898
0.127058 0.511324 0.696766
0.127599 0.511234 0.758634
0.128140 0.511143 0.820503
0.128682 0.511053 0.882371
0.129223 0.510963 0.944239
0.129765 0.510872 1.000000
0.126465 0.573923 0.009957
0.127006 0.573832 0.071826
0.127548 0.573742 0.133694
0.128089 0.573652 0.195562
0.128631 0.573561 0.257430
0.129172 0.573471 0.319299
0.129714 0.573381 0.381167
0.130255 0.573291 0.443035
0.130797 0.573201 0.504903
0.131338 0.573110 0.566772
0.131880 0.573020 0.628640
0.132421 0.572930 0.690508
0.132963 0.572839 0.752377
0.133504 0.572749 0.814245
0.134046 0.572659 0.876113
0.134587 0.572569 0.937981
0.135129 0.572479 0.999850
0.131829 0.635529 0.003700
0.132371 0.635438 0.065568
0.132912 0.635348 0.127436
0.133454 0.635258 0.189304
0.133995 0.635167 0.251172
0.134536 0.635077 0.313041
0.135078 0.634987 0.374909
0.135620 0.634897 0.436777
0.136161 0.634807 0.498645
0.136703 0.634716 0.560514
0.137244 0.634626 0.622382
0.137786 0.634536 0.684250
0.138327 0.634445 0.746119
0.138868 0.634355 0.807987
0.139410 0.634265 0.869855
0.139952 0.634175 0.931723
0.140493 0.634085 0.993591
0.137193 0.697134 0.000000
0.137735 0.697044 0.059310
0.138276 0.696954 0.121178
0.138817 0.696864 0.183046
0.139359 0.696774 0.244914
0.139901 0.696683 0.306783
0.140442 0.696593 0.368651
0.140983 0.696503 0.430519
0.141525 0.696412 0.492388
0.142067 0.696322 0.554256
0.142608 0.696232 0.616124
0.143149 0.696142 0.677992
0.143691 0.696052 0.739861
0.144232 0.695961 0.801729
0.144774 0.695871 0.863597
0.145315 0.695781 0.925465
0.145857 0.695690 0.987333
0.142557 0.758741 0.000000
0.143098 0.758650 0.053052
0.143640 0.758560 0.114920
0.144181 0.758470 0.176788
0.144723 0.758379 0.238656
0.145264 0.758289 0.300525
0.145806 0.758199 0.362393
0.146348 0.758109 0.424261
0.146889 0.758019 0.486129
0.147430 0.757928 0.547998
0.147972 0.757838 0.609866
0.148514 0.757748 0.671734
0.149055 0.757657 0.733602
0.149596 0.757567 0.795471
0.150138 0.757477 0.857339
0.150680 0.757387 0.919207
0.151221 0.757297 0.981075
0.147921 0.820346 0.000000
0.148462 0.820256 0.046794
0.149004 0.820166 0.108662
0.149545 0.820076 0.170530
0.150087 0.819986 0.232399
0.150629 0.819895 0.294267
0.151170 0.819805 0.356135
0.151711 0.819715 0.418003
0.152253 0.819624 0.479872
0.152794 0.819534 0.541740
0.153336 0.819444 0.603608
0.153878 0.819354 0.665476
0.154419 0.819264 0.727344
0.154961 0.819173 0.789213
0.155502 0.819083 0.851081
0.156044 0.818993 0.912949
0.156585 0.818902 0.974818
0.153285 0.881953 0.000000
0.153826 0.881862 0.040536
0.154368 0.881772 0.102404
0.154910 0.881682 0.164272
0.155451 0.881591 0.226141
0.155993 0.881501 0.288009
0.156534 0.881411 0.349877
0.157076 0.881321 0.411745
0.157617 0.881231 0.473613
0.158158 0.881140 0.535482
0.158700 0.881050 0.597350
0.159242 0.880960 0.659218
0.159783 0.880869 0.721086
0.160324 0.880779 0.782955
0.160866 0.880689 0.844823
0.161408 0.880599 0.906691
0.161949 0.880509 0.968559
0.158649 0.943558 0.000000
0.159191 0.943468 0.034278
0.159732 0.943378 0.096146
0.160274 0.943288 0.158014
0.160815 0.943198 0.219883
0.161357 0.943107 0.281751
0.161898 0.943017 0.343619
0.162439 0.942927 0.405487
0.162981 0.942836 0.467356
0.163523 0.942746 0.529224
0.164064 0.942656 0.591092
0.164606 0.942566 0.652960
0.165147 0.942476 0.714828
0.165689 0.942385 0.776697
0.166230 0.942295 0.838565
0.166771 0.942205 0.900433
0.167313 0.942114 0.962302
0.164013 1.000000 0.000000
0.164554 1.000000 0.028020
0.165096 1.000000 0.089888
0.165638 1.000000 0.151756
0.166179 1.000000 0.213625
0.166720 1.000000 0.275493
0.167262 1.000000 0.337361
0.167803 1.000000 0.399229
0.168345 1.000000 0.461097
0.168886 1.000000 0.522966
0.169428 1.000000 0.584834
0.169970 1.000000 0.646702
0.170511 1.000000 0.708570
0.171052 1.000000 0.770439
0.171594 1.000000 0.832307
0.172135 1.000000 0.894175
0.172677 1.000000 0.956044
0.142284 0.019203 0.064419
0.142825 0.019113 0.126287
0.143367 0.019022 0.188156
0.143908 0.018932 0.250024
0.144450 0.018842 0.311892
0.144991 0.018752 0.373760
0.145533 0.018661 0.435629
0.146074 0.018571 0.497497
0.146616 0.018481 0.559365
0.147157 0.018391 0.621233
0.147699 0.018300 0.683102
0.148240 0.018210 0.744970
0.148782 0.018120 0.806838
0.149323 0.018030 0.868707
0.149865 0.017939 0.930575
0.150406 0.017849 0.992443
