assets/luts/teal-orange.cube
# montage LUT: teal-orange — 青橙对比（电影感标配）（原创，MIT）
TITLE "montage teal-orange cinematic contrast"
LUT_3D_SIZE 9
DOMAIN_MIN 0.0 0.0 0.0
DOMAIN_MAX 1.0 1.0 1.0
0.000000 0.020000 0.070000
0.000000 0.019820 0.193737
0.000000 0.019639 0.317473
0.000000 0.019459 0.441209
0.000000 0.019278 0.564946
0.000000 0.019097 0.688682
0.000000 0.018917 0.812419
0.000000 0.018736 0.936156
0.000000 0.018556 1.000000
0.000000 0.143212 0.057484
0.000000 0.143032 0.181221
0.000000 0.142851 0.304957
0.000000 0.142671 0.428694
0.000000 0.142490 0.552430
0.000000 0.142310 0.676167
0.000000 0.142129 0.799903
0.000000 0.141949 0.923640
0.000000 0.141768 1.000000
0.000000 0.266424 0.044968
0.000000 0.266244 0.168704
0.000000 0.266063 0.292441
0.000000 0.265883 0.416178
0.000000 0.265702 0.539914
0.000000 0.265522 0.663651
0.000000 0.265341 0.787387
0.000000 0.265161 0.911123
0.000000 0.264980 1.000000
0.000000 0.389636 0.032452
0.000000 0.389456 0.156189
0.000000 0.389275 0.279925
0.000000 0.389095 0.403661
0.000000 0.388914 0.527398
0.000000 0.388734 0.651134
0.000000 0.388553 0.774871
0.000000 0.388373 0.898608
0.000000 0.388192 1.000000
0.000000 0.512848 0.019936
0.000000 0.512668 0.143673
0.000000 0.512487 0.267409
0.000000 0.512306 0.391145
0.000000 0.512126 0.514882
0.000000 0.511946 0.638618
0.000000 0.511765 0.762355
0.000493 0.511584 0.886092
0.001576 0.511404 1.000000
0.003640 0.636060 0.007420
0.004723 0.635880 0.131157
0.005806 0.635699 0.254893
0.006889 0.635518 0.378630
0.007972 0.635338 0.502366
0.009055 0.635158 0.626103
0.010138 0.634977 0.749839
0.011221 0.634796 0.873576
0.012304 0.634616 0.997312
0.014368 0.759272 0.000000
0.015451 0.759092 0.118640
0.016534 0.758911 0.242377
0.017617 0.758730 0.366114
0.018700 0.758550 0.489850
0.019783 0.758370 0.613587
0.020866 0.758189 0.737323
0.021949 0.758008 0.861059
0.023032 0.757828 0.984796
0.025096 0.882484 0.000000
0.026179 0.882304 0.106125
0.027262 0.882123 0.229861
0.028345 0.881942 0.353598
0.029428 0.881762 0.477334
0.030511 0.881582 0.601071
0.031594 0.881401 0.724807
0.032677 0.881220 0.848544
0.033760 0.881040 0.972280
0.035824 1.000000 0.000000
0.036907 1.000000 0.093609
0.037990 1.000000 0.217345
0.039073 1.000000 0.341081
0.040156 1.000000 0.464818
0.041239 1.000000 0.588554
0.042322 1.000000 0.712291
0.043405 1.000000 0.836028
0.044488 1.000000 0.959764
0.078189 0.019468 0.066280
0.079272 0.019288 0.190016
0.080355 0.019107 0.313752
0.081438 0.018927 0.437489
0.082521 0.018746 0.561226
0.083604 0.018566 0.684962
0.084687 0.018385 0.808698
0.085770 0.018205 0.932435
0.086853 0.018024 1.000000
0.088917 0.142680 0.053764
0.090000 0.142500 0.177500
0.091083 0.142319 0.301236
0.092166 0.142139 0.424973
0.093249 0.141958 0.548709
0.094332 0.141778 0.672446
0.095415 0.141597 0.796183
0.096498 0.141417 0.919919
0.097581 0.141236 1.000000
0.099645 0.265892 0.041248
0.100728 0.265712 0.164984
0.101811 0.265531 0.288720
0.102894 0.265351 0.412457
0.103977 0.265170 0.536193
0.105060 0.264990 0.659930
0.106143 0.264809 0.783667
0.107226 0.264629 0.907403
0.108309 0.264448 1.000000
0.110373 0.389105 0.028732
0.111456 0.388924 0.152468
0.112539 0.388744 0.276205
0.113622 0.388563 0.399941
0.114705 0.388383 0.523678
0.115788 0.388202 0.647414
0.116871 0.388022 0.771150
0.117954 0.387841 0.894887
0.119037 0.387661 1.000000
0.121101 0.512316 0.016216
0.122184 0.512136 0.139952
0.123267 0.511956 0.263689
0.124350 0.511775 0.387425
0.125433 0.511594 0.511162
0.126516 0.511414 0.634898
0.127599 0.511234 0.758634
0.128682 0.511053 0.882371
0.129765 0.510872 1.000000
0.131829 0.635529 0.003700
0.132912 0.635348 0.127436
0.133995 0.635167 0.251172
0.135078 0.634987 0.374909
0.136161 0.634807 0.498645
0.137244 0.634626 0.622382
0.138327 0.634445 0.746119
0.139410 0.634265 0.869855
0.140493 0.634085 0.993591
0.142557 0.758741 0.000000
0.143640 0.758560 0.114920
0.144723 0.758379 0.238656
0.145806 0.758199 0.362393
0.146889 0.758019 0.486129
0.147972 0.757838 0.609866
0.149055 0.757657 0.733602
0.150138 0.757477 0.857339
0.151221 0.757297 0.981075
0.153285 0.881953 0.000000
0.154368 0.881772 0.102404
0.155451 0.881591 0.226141
0.156534 0.881411 0.349877
0.157617 0.881231 0.473613
0.158700 0.881050 0.597350
0.159783 0.880869 0.721086
0.160866 0.880689 0.844823
0.161949 0.880509 0.968559
0.164013 1.000000 0.000000
0.165096 1.000000 0.089888
0.166179 1.000000 0.213625
0.167262 1.000000 0.337361
0.168345 1.000000 0.461097
0.169428 1.000000 0.584834
0.170511 1.000000 0.708570
0.171594 1.000000 0.832307
0.172677 1.000000 0.956044
0.206378 0.018937 0.062559
0.207461 0.018757 0.186296
0.208544 0.018576 0.310032
0.209627 0.018396 0.433769
0.210710 0.018215 0.557505
0.211793 0.018035 0.681241
0.212876 0.017854 0.804978
0.213959 0.017674 0.928714
0.215042 0.017493 1.000000
0.217106 0.142149 0.050043
0.218189 0.141968 0.173780
0.219272 0.141788 0.297516
0.220355 0.141607 0.421252
0.221438 0.141427 0.544989
0.222521 0.141246 0.668725
0.223604 0.141066 0.792462
0.224687 0.140885 0.916199
0.225770 0.140705 1.000000
0.227834 0.265361 0.037527
0.228917 0.265180 0.161264
0.230000 0.265000 0.285000
0.231083 0.264819 0.408737
0.232166 0.264639 0.532473
0.233249 0.264458 0.656210
0.234332 0.264278 0.779946
0.235415 0.264097 0.903683
0.236498 0.263917 1.000000
0.238562 0.388573 0.025011
0.239645 0.388392 0.148747
0.240728 0.388212 0.272484
0.241811 0.388031 0.396221
0.242894 0.387851 0.519957
0.243977 0.387671 0.643694
0.245060 0.387490 0.767430
0.246143 0.387309 0.891166
0.247226 0.387129 1.000000
0.249290 0.511785 0.012495
0.250373 0.511605 0.136232
0.251456 0.511424 0.259968
0.252539 0.511243 0.383705
0.253622 0.511063 0.507441
0.254705 0.510883 0.631178
0.255788 0.510702 0.754914
0.256871 0.510521 0.878651
0.257954 0.510341 1.000000
0.260018 0.634997 0.000000
0.261101 0.634817 0.123716
0.262184 0.634636 0.247452
0.263267 0.634455 0.371188
0.264350 0.634275 0.494925
0.265433 0.634095 0.618661
0.266516 0.633914 0.742398
0.267599 0.633733 0.866135
0.268682 0.633553 0.989871
0.270746 0.758209 0.000000
0.271829 0.758028 0.111200
0.272912 0.757848 0.234936
0.273995 0.757668 0.358673
0.275078 0.757487 0.482409
0.276161 0.757306 0.606146
0.277244 0.757126 0.729882
0.278327 0.756946 0.853618
0.279410 0.756765 0.977355
0.281474 0.881421 0.000000
0.282557 0.881240 0.098684
0.283640 0.881060 0.222420
0.284723 0.880880 0.346157
0.285806 0.880699 0.469893
0.286889 0.880518 0.593630
0.287972 0.880338 0.717366
0.289055 0.880158 0.841102
0.290138 0.879977 0.964839
0.292202 1.000000 0.000000
0.293285 1.000000 0.086168
0.294368 1.000000 0.209904
0.295451 1.000000 0.333641
0.296534 1.000000 0.457377
0.297617 1.000000 0.581113
0.298700 1.000000 0.704850
0.299783 1.000000 0.828587
0.300866 1.000000 0.952323
0.334567 0.018405 0.058838
0.335650 0.018225 0.182575
0.336733 0.018045 0.306312
0.337816 0.017864 0.430048
0.338899 0.017683 0.553785
0.339982 0.017503 0.677521
0.341065 0.017323 0.801257
0.342148 0.017142 0.924994
0.343231 0.016962 1.000000
0.345295 0.141618 0.046323
0.346378 0.141437 0.170059
0.347461 0.141257 0.293796
0.348544 0.141076 0.417532
0.349627 0.140896 0.541269
0.350710 0.140715 0.665005
0.351793 0.140535 0.788741
0.352876 0.140354 0.912478
0.353959 0.140174 1.000000
0.356023 0.264829 0.033807
0.357106 0.264649 0.157543
0.358189 0.264468 0.281279
0.359272 0.264288 0.405016
0.360355 0.264107 0.528752
0.361438 0.263927 0.652489
0.362521 0.263746 0.776226
0.363604 0.263566 0.899962
0.364687 0.263385 1.000000
0.366751 0.388041 0.021290
0.367834 0.387861 0.145027
0.368917 0.387680 0.268763
0.370000 0.387500 0.392500
0.371083 0.387319 0.516236
0.372166 0.387139 0.639973
0.373249 0.386958 0.763710
0.374332 0.386778 0.887446
0.375415 0.386597 1.000000
0.377479 0.511254 0.008775
0.378562 0.511073 0.132511
0.379645 0.510892 0.256248
0.380728 0.510712 0.379984
0.381811 0.510532 0.503721
0.382894 0.510351 0.627457
0.383977 0.510170 0.751193
0.385060 0.509990 0.874930
0.386143 0.509810 0.998667
0.388207 0.634466 0.000000
0.389290 0.634285 0.119995
0.390373 0.634104 0.243732
0.391456 0.633924 0.367468
0.392539 0.633744 0.491205
0.393622 0.633563 0.614941
0.394705 0.633382 0.738677
0.395788 0.633202 0.862414
0.396871 0.633022 0.986151
0.398935 0.757678 0.000000
0.400018 0.757497 0.107479
0.401101 0.757316 0.231215
0.402184 0.757136 0.354952
0.403267 0.756956 0.478688
0.404350 0.756775 0.602425
0.405433 0.756594 0.726162
0.406516 0.756414 0.849898
0.407599 0.756234 0.973634
0.409663 0.880889 0.000000
0.410746 0.880709 0.094963
0.411829 0.880529 0.218699
0.412912 0.880348 0.342436
0.413995 0.880167 0.466172
0.415078 0.879987 0.589909
0.416161 0.879807 0.713646
0.417244 0.879626 0.837382
0.418327 0.879445 0.961118
0.420391 1.000000 0.000000
0.421474 1.000000 0.082447
0.422557 1.000000 0.206184
0.423640 1.000000 0.329920
0.424723 1.000000 0.453656
0.425806 1.000000 0.577393
0.426889 1.000000 0.701129
0.427972 1.000000 0.824866
0.429055 1.000000 0.948603
0.462756 0.017874 0.055118
0.463839 0.017694 0.178854
0.464922 0.017513 0.302591
0.466005 0.017333 0.426328
0.467088 0.017152 0.550064
0.468171 0.016972 0.673801
0.469254 0.016791 0.797537
0.470337 0.016611 0.921273
0.471420 0.016430 1.000000
0.473484 0.141086 0.042602
0.474567 0.140905 0.166339
0.475650 0.140725 0.290075
0.476733 0.140544 0.413812
0.477816 0.140364 0.537548
0.478899 0.140183 0.661285
0.479982 0.140003 0.785021
0.481065 0.139822 0.908757
0.482148 0.139642 1.000000
0.484212 0.264298 0.030086
0.485295 0.264118 0.153823
0.486378 0.263937 0.277559
0.487461 0.263757 0.401295
0.488544 0.263576 0.525032
0.489627 0.263396 0.648768
0.490710 0.263215 0.772505
0.491793 0.263035 0.896242
0.492876 0.262854 1.000000
0.494940 0.387510 0.017570
0.496023 0.387329 0.141307
0.497106 0.387149 0.265043
0.498189 0.386968 0.388780
0.499272 0.386788 0.512516
0.500355 0.386607 0.636252
0.501438 0.386427 0.759989
0.502521 0.386246 0.883726
0.503604 0.386066 1.000000
0.505668 0.510722 0.005054
0.506751 0.510541 0.128790
0.507834 0.510361 0.252527
0.508917 0.510181 0.376264
0.510000 0.510000 0.500000
0.511083 0.509819 0.623737
0.512166 0.509639 0.747473
0.513249 0.509459 0.871209
0.514332 0.509278 0.994946
0.516396 0.633934 0.000000
0.517479 0.633753 0.116275
0.518562 0.633573 0.240011
0.519645 0.633393 0.363748
0.520728 0.633212 0.487484
0.521811 0.633031 0.611221
0.522894 0.632851 0.734957
0.523977 0.632671 0.858693
0.525060 0.632490 0.982430
0.527124 0.757146 0.000000
0.528207 0.756965 0.103758
0.529290 0.756785 0.227495
0.530373 0.756605 0.351231
0.531456 0.756424 0.474968
0.532539 0.756243 0.598704
0.533622 0.756063 0.722441
0.534705 0.755883 0.846178
0.535788 0.755702 0.969914
0.537852 0.880358 0.000000
0.538935 0.880178 0.091243
0.540018 0.879997 0.214979
0.541101 0.879817 0.338716
0.542184 0.879636 0.462452
0.543267 0.879455 0.586189
0.544350 0.879275 0.709925
0.545433 0.879095 0.833662
0.546516 0.878914 0.957398
0.548580 1.000000 0.000000
0.549663 1.000000 0.078727
0.550746 1.000000 0.202463
0.551829 1.000000 0.326200
0.552912 1.000000 0.449936
0.553995 1.000000 0.573673
0.555078 1.000000 0.697409
0.556161 1.000000 0.821145
0.557244 1.000000 0.944882
0.590945 0.017343 0.051397
0.592028 0.017162 0.175134
0.593111 0.016982 0.298870
0.594194 0.016801 0.422607
0.595277 0.016620 0.546343
0.596360 0.016440 0.670080
0.597443 0.016259 0.793817
0.598526 0.016079 0.917553
0.599609 0.015898 1.000000
0.601673 0.140554 0.038881
0.602756 0.140374 0.162618
0.603839 0.140193 0.286355
0.604922 0.140013 0.410091
0.606005 0.139832 0.533828
0.607088 0.139652 0.657564
0.608171 0.139471 0.781300
0.609254 0.139291 0.905037
0.610337 0.139110 1.000000
0.612401 0.263767 0.026366
0.613484 0.263586 0.150102
0.614567 0.263406 0.273839
0.615650 0.263225 0.397575
0.616733 0.263045 0.521312
0.617816 0.262864 0.645048
0.618899 0.262684 0.768784
0.619982 0.262503 0.892521
0.621065 0.262323 1.000000
0.623129 0.386979 0.013849
0.624212 0.386798 0.137586
0.625295 0.386618 0.261322
0.626378 0.386437 0.385059
0.627461 0.386257 0.508795
0.628544 0.386076 0.632532
0.629627 0.385896 0.756269
0.630710 0.385715 0.880005
0.631793 0.385535 1.000000
0.633857 0.510190 0.001334
0.634940 0.510010 0.125070
0.636023 0.509830 0.248806
0.637106 0.509649 0.372543
0.638189 0.509468 0.496280
0.639272 0.509288 0.620016
0.640355 0.509108 0.743753
0.641438 0.508927 0.867489
0.642521 0.508746 0.991225
0.644585 0.633402 0.000000
0.645668 0.633222 0.112554
0.646751 0.633042 0.236291
0.647834 0.632861 0.360027
0.648917 0.632680 0.483764
0.650000 0.632500 0.607500
0.651083 0.632320 0.731236
0.652166 0.632139 0.854973
0.653249 0.631958 0.978710
0.655313 0.756614 0.000000
0.656396 0.756434 0.100038
0.657479 0.756254 0.223775
0.658562 0.756073 0.347511
0.659645 0.755892 0.471247
0.660728 0.755712 0.594984
0.661811 0.755532 0.718720
0.662894 0.755351 0.842457
0.663977 0.755170 0.966193
0.666041 0.879826 0.000000
0.667124 0.879646 0.087522
0.668207 0.879466 0.211258
0.669290 0.879285 0.334995
0.670373 0.879104 0.458731
0.671456 0.878924 0.582468
0.672539 0.878744 0.706205
0.673622 0.878563 0.829941
0.674705 0.878382 0.953677
0.676769 1.000000 0.000000
0.677852 1.000000 0.075006
0.678935 1.000000 0.198742
0.680018 1.000000 0.322479
0.681101 1.000000 0.446215
0.682184 1.000000 0.569952
0.683267 1.000000 0.693689
0.684350 1.000000 0.817425
0.685433 1.000000 0.941161
0.719134 0.016811 0.047677
0.720217 0.016630 0.171413
0.721300 0.016450 0.295150
0.722383 0.016269 0.418886
0.723466 0.016089 0.542623
0.724549 0.015909 0.666359
0.725632 0.015728 0.790096
0.726715 0.015547 0.913833
0.727798 0.015367 1.000000
0.729862 0.140023 0.035161
0.730945 0.139843 0.158897
0.732028 0.139662 0.282634
0.733111 0.139482 0.406371
0.734194 0.139301 0.530107
0.735277 0.139121 0.653844
0.736360 0.138940 0.777580
0.737443 0.138760 0.901316
0.738526 0.138579 1.000000
0.740590 0.263235 0.022645
0.741673 0.263055 0.146381
0.742756 0.262874 0.270118
0.743839 0.262694 0.393855
0.744922 0.262513 0.517591
0.746005 0.262333 0.641327
0.747088 0.262152 0.765064
0.748171 0.261972 0.888800
0.749254 0.261791 1.000000
0.751318 0.386447 0.010129
0.752401 0.386267 0.133866
0.753484 0.386086 0.257602
0.754567 0.385906 0.381338
0.755650 0.385725 0.505075
0.756733 0.385545 0.628811
0.757816 0.385364 0.752548
0.758899 0.385184 0.876285
0.759982 0.385003 1.000000
0.762046 0.509659 0.000000
0.763129 0.509478 0.121349
0.764212 0.509298 0.245086
0.765295 0.509118 0.368822
0.766378 0.508937 0.492559
0.767461 0.508757 0.616295
0.768544 0.508576 0.740032
0.769627 0.508396 0.863768
0.770710 0.508215 0.987505
0.772774 0.632871 0.000000
0.773857 0.632691 0.108834
0.774940 0.632510 0.232570
0.776023 0.632329 0.356307
0.777106 0.632149 0.480043
0.778189 0.631969 0.603780
0.779272 0.631788 0.727516
0.780355 0.631607 0.851252
0.781438 0.631427 0.974989
0.783502 0.756083 0.000000
0.784585 0.755903 0.096318
0.785668 0.755722 0.220054
0.786751 0.755541 0.343791
0.787834 0.755361 0.467527
0.788917 0.755181 0.591264
0.790000 0.755000 0.715000
0.791083 0.754819 0.838736
0.792166 0.754639 0.962473
0.794230 0.879295 0.000000
0.795313 0.879115 0.083802
0.796396 0.878934 0.207538
0.797479 0.878753 0.331274
0.798562 0.878573 0.455011
0.799645 0.878393 0.578747
0.800728 0.878212 0.702484
0.801811 0.878031 0.826221
0.802894 0.877851 0.949957
0.804958 1.000000 0.000000
0.806041 1.000000 0.071286
0.807124 1.000000 0.195022
0.808207 1.000000 0.318759
0.809290 1.000000 0.442495
0.810373 1.000000 0.566231
0.811456 1.000000 0.689968
0.812539 1.000000 0.813705
0.813622 1.000000 0.937441
0.847323 0.016279 0.043957
0.848406 0.016099 0.167693
0.849489 0.015918 0.291430
0.850572 0.015738 0.415166
0.851655 0.015558 0.538903
0.852738 0.015377 0.662639
0.853821 0.015196 0.786376
0.854904 0.015016 0.910112
0.855987 0.014836 1.000000
0.858051 0.139491 0.031440
0.859134 0.139311 0.155177
0.860217 0.139130 0.278913
0.861300 0.138950 0.402650
0.862383 0.138769 0.526386
0.863466 0.138589 0.650123
0.864549 0.138408 0.773860
0.865632 0.138228 0.897596
0.866715 0.138047 1.000000
0.868779 0.262703 0.018925
0.869862 0.262523 0.142661
0.870945 0.262342 0.266398
0.872028 0.262162 0.390134
0.873111 0.261981 0.513871
0.874194 0.261801 0.637607
0.875277 0.261620 0.761343
0.876360 0.261440 0.885080
0.877443 0.261259 1.000000
0.879507 0.385916 0.006408
0.880590 0.385735 0.130145
0.881673 0.385555 0.253882
0.882756 0.385374 0.377618
0.883839 0.385194 0.501355
0.884922 0.385013 0.625091
0.886005 0.384833 0.748827
0.887088 0.384652 0.872564
0.888171 0.384472 0.996301
0.890235 0.509127 0.000000
0.891318 0.508947 0.117629
0.892401 0.508767 0.241365
0.893484 0.508586 0.365102
0.894567 0.508405 0.488839
0.895650 0.508225 0.612575
0.896733 0.508045 0.736312
0.897816 0.507864 0.860048
0.898899 0.507683 0.983784
0.900963 0.632340 0.000000
0.902046 0.632159 0.105113
0.903129 0.631978 0.228849
0.904212 0.631798 0.352586
0.905295 0.631618 0.476323
0.906378 0.631437 0.600059
0.907461 0.631256 0.723796
0.908544 0.631076 0.847532
0.909627 0.630896 0.971269
0.911691 0.755552 0.000000
0.912774 0.755371 0.092597
0.913857 0.755190 0.216334
0.914940 0.755010 0.340070
0.916023 0.754830 0.463807
0.917106 0.754649 0.587543
0.918189 0.754468 0.711279
0.919272 0.754288 0.835016
0.920355 0.754108 0.958753
0.922419 0.878764 0.000000
0.923502 0.878583 0.080081
0.924585 0.878402 0.203818
0.925668 0.878222 0.327554
0.926751 0.878042 0.451291
0.927834 0.877861 0.575027
0.928917 0.877680 0.698763
0.930000 0.877500 0.822500
0.931083 0.877320 0.946237
0.933147 1.000000 0.000000
0.934230 1.000000 0.067565
0.935313 1.000000 0.191301
0.936396 1.000000 0.315038
0.937479 1.000000 0.438774
0.938562 1.000000 0.562511
0.939645 1.000000 0.686248
0.940728 1.000000 0.809984
0.941811 1.000000 0.933720
0.975512 0.015748 0.040236
0.976595 0.015568 0.163973
0.977678 0.015387 0.287709
0.978761 0.015206 0.411445
0.979844 0.015026 0.535182
0.980927 0.014846 0.658918
0.982010 0.014665 0.782655
0.983093 0.014485 0.906392
0.984176 0.014304 1.000000
0.986240 0.138960 0.027720
0.987323 0.138780 0.151456
0.988406 0.138599 0.275193
0.989489 0.138418 0.398929
0.990572 0.138238 0.522666
0.991655 0.138057 0.646402
0.992738 0.137877 0.770139
0.993821 0.137696 0.893876
0.994904 0.137516 1.000000
0.996968 0.262172 0.015204
0.998051 0.261991 0.138940
0.999134 0.261811 0.262677
1.000000 0.261630 0.386414
1.000000 0.261450 0.510150
1.000000 0.261269 0.633887
1.000000 0.261089 0.757623
1.000000 0.260908 0.881359
1.000000 0.260728 1.000000
1.000000 0.385384 0.002688
1.000000 0.385203 0.126424
1.000000 0.385023 0.250161
1.000000 0.384842 0.373898
1.000000 0.384662 0.497634
1.000000 0.384481 0.621371
1.000000 0.384301 0.745107
1.000000 0.384120 0.868843
1.000000 0.383940 0.992580
1.000000 0.508596 0.000000
1.000000 0.508416 0.113909
1.000000 0.508235 0.237645
1.000000 0.508054 0.361381
1.000000 0.507874 0.485118
1.000000 0.507694 0.608854
1.000000 0.507513 0.732591
1.000000 0.507332 0.856328
1.000000 0.507152 0.980064
1.000000 0.631808 0.000000
1.000000 0.631628 0.101392
1.000000 0.631447 0.225129
1.000000 0.631266 0.348865
1.000000 0.631086 0.472602
1.000000 0.630906 0.596338
1.000000 0.630725 0.720075
1.000000 0.630544 0.843812
1.000000 0.630364 0.967548
1.000000 0.755020 0.000000
1.000000 0.754839 0.088877
1.000000 0.754659 0.212613
1.000000 0.754479 0.336350
1.000000 0.754298 0.460086
1.000000 0.754117 0.583823
1.000000 0.753937 0.707559
1.000000 0.753757 0.831295
1.000000 0.753576 0.955032
1.000000 0.878232 0.000000
1.000000 0.878051 0.076360
1.000000 0.877871 0.200097
1.000000 0.877691 0.323834
1.000000 0.877510 0.447570
1.000000 0.877329 0.571307
1.000000 0.877149 0.695043
1.000000 0.876969 0.818779
1.000000 0.876788 0.942516
1.000000 1.000000 0.000000
1.000000 1.000000 0.063845
1.000000 1.000000 0.187581
1.000000 1.000000 0.311317
1.000000 1.000000 0.435054
1.000000 1.000000 0.558790
1.000000 1.000000 0.682527
1.000000 1.000000 0.806264
1.000000 1.000000 0.930000
