assets/luts/warm-film.cube
# montage LUT: warm-film — 胶片暖调（复古/怀旧）（原创，MIT）
TITLE "montage warm film vintage"
LUT_3D_SIZE 17
DOMAIN_MIN 0.0 0.0 0.0
DOMAIN_MAX 1.0 1.0 1.0
0.040000 0.040000 0.040000
0.040589 0.040350 0.095350
0.041178 0.040699 0.150701
0.041767 0.041049 0.206051
0.042355 0.041399 0.261402
0.042944 0.041749 0.316752
0.043533 0.042098 0.372103
0.044122 0.042448 0.427453
0.044711 0.042798 0.482804
0.045300 0.043148 0.538154
0.045889 0.043497 0.593505
0.046477 0.043847 0.648855
0.047066 0.044197 0.704205
0.047655 0.044546 0.759556
0.048244 0.044896 0.814906
0.048833 0.045246 0.870257
0.049422 0.045596 0.925607
0.045833 0.098664 0.041490
0.046422 0.099014 0.096841
0.047011 0.099364 0.152191
0.047600 0.099714 0.207542
0.048189 0.100063 0.262892
0.048777 0.100413 0.318243
0.049366 0.100763 0.373593
0.049955 0.101112 0.428944
0.050544 0.101462 0.484294
0.051133 0.101812 0.539645
0.051722 0.102162 0.594995
0.052311 0.102511 0.650345
0.052899 0.102861 0.705696
0.053488 0.103211 0.761046
0.054077 0.103561 0.816397
0.054666 0.103910 0.871747
0.055255 0.104260 0.927098
0.051666 0.157329 0.042981
0.052255 0.157678 0.098331
0.052844 0.158028 0.153682
0.053433 0.158378 0.209032
0.054022 0.158728 0.264383
0.054610 0.159077 0.319733
0.055199 0.159427 0.375084
0.055788 0.159777 0.430434
0.056377 0.160127 0.485784
0.056966 0.160476 0.541135
0.057555 0.160826 0.596485
0.058144 0.161176 0.651836
0.058732 0.161525 0.707186
0.059321 0.161875 0.762537
0.059910 0.162225 0.817887
0.060499 0.162575 0.873238
0.061088 0.162924 0.928588
0.057499 0.215993 0.044471
0.058088 0.216343 0.099822
0.058677 0.216693 0.155172
0.059266 0.217042 0.210523
0.059855 0.217392 0.265873
0.060444 0.217742 0.321224
0.061032 0.218091 0.376574
0.061621 0.218441 0.431924
0.062210 0.218791 0.487275
0.062799 0.219141 0.542625
0.063388 0.219490 0.597976
0.063977 0.219840 0.653326
0.064566 0.220190 0.708677
0.065154 0.220540 0.764027
0.065743 0.220889 0.819378
0.066332 0.221239 0.874728
0.066921 0.221589 0.930079
0.063332 0.274657 0.045962
0.063921 0.275007 0.101312
0.064510 0.275357 0.156663
0.065099 0.275707 0.212013
0.065688 0.276056 0.267363
0.066277 0.276406 0.322714
0.066866 0.276756 0.378064
0.067454 0.277106 0.433415
0.068043 0.277455 0.488765
0.068632 0.277805 0.544116
0.069221 0.278155 0.599466
0.069810 0.278504 0.654817
0.070399 0.278854 0.710167
0.070988 0.279204 0.765518
0.071576 0.279554 0.820868
0.072165 0.279903 0.876218
0.072754 0.280253 0.931569
0.069166 0.333322 0.047452
0.069754 0.333672 0.102802
0.070343 0.334021 0.158153
0.070932 0.334371 0.213503
0.071521 0.334721 0.268854
0.072110 0.335070 0.324204
0.072699 0.335420 0.379555
0.073287 0.335770 0.434905
0.073876 0.336120 0.490256
0.074465 0.336469 0.545606
0.075054 0.336819 0.600957
0.075643 0.337169 0.656307
0.076232 0.337519 0.711658
0.076821 0.337868 0.767008
0.077409 0.338218 0.822358
0.077998 0.338568 0.877709
0.078587 0.338917 0.933059
0.074999 0.391986 0.048942
0.075587 0.392336 0.104293
0.076176 0.392686 0.159643
0.076765 0.393035 0.214994
0.077354 0.393385 0.270344
0.077943 0.393735 0.325695
0.078532 0.394085 0.381045
0.079121 0.394434 0.436396
0.079709 0.394784 0.491746
0.080298 0.395134 0.547097
0.080887 0.395483 0.602447
0.081476 0.395833 0.657797
0.082065 0.396183 0.713148
0.082654 0.396533 0.768498
0.083243 0.396882 0.823849
0.083831 0.397232 0.879199
0.084420 0.397582 0.934550
0.080832 0.450651 0.050433
0.081421 0.451000 0.105783
0.082009 0.451350 0.161134
0.082598 0.451700 0.216484
0.083187 0.452049 0.271835
0.083776 0.452399 0.327185
0.084365 0.452749 0.382536
0.084954 0.453099 0.437886
0.085543 0.453448 0.493237
0.086131 0.453798 0.548587
0.086720 0.454148 0.603937
0.087309 0.454498 0.659288
0.087898 0.454847 0.714638
0.088487 0.455197 0.769989
0.089076 0.455547 0.825339
0.089665 0.455896 0.880690
0.090253 0.456246 0.936040
0.086665 0.509315 0.051923
0.087254 0.509665 0.107274
0.087843 0.510014 0.162624
0.088431 0.510364 0.217975
0.089020 0.510714 0.273325
0.089609 0.511064 0.328676
0.090198 0.511413 0.384026
0.090787 0.511763 0.439376
0.091376 0.512113 0.494727
0.091965 0.512462 0.550077
0.092553 0.512812 0.605428
0.093142 0.513162 0.660778
0.093731 0.513512 0.716129
0.094320 0.513861 0.771479
0.094909 0.514211 0.826830
0.095498 0.514561 0.882180
0.096086 0.514911 0.937531
0.092498 0.567979 0.053414
0.093087 0.568329 0.108764
0.093676 0.568679 0.164115
0.094264 0.569028 0.219465
0.094853 0.569378 0.274815
0.095442 0.569728 0.330166
0.096031 0.570078 0.385516
0.096620 0.570427 0.440867
0.097209 0.570777 0.496217
0.097798 0.571127 0.551568
0.098386 0.571477 0.606918
0.098975 0.571826 0.662269
0.099564 0.572176 0.717619
0.100153 0.572526 0.772970
0.100742 0.572875 0.828320
0.101331 0.573225 0.883671
0.101920 0.573575 0.939021
0.098331 0.626644 0.054904
0.098920 0.626993 0.110255
0.099509 0.627343 0.165605
0.100098 0.627693 0.220955
0.100686 0.628042 0.276306
0.101275 0.628392 0.331656
0.101864 0.628742 0.387007
0.102453 0.629092 0.442357
0.103042 0.629441 0.497708
0.103631 0.629791 0.553058
0.104220 0.630141 0.608409
0.104808 0.630491 0.663759
0.105397 0.630840 0.719110
0.105986 0.631190 0.774460
0.106575 0.631540 0.829810
0.107164 0.631890 0.885161
0.107753 0.632239 0.940511
0.104164 0.685308 0.056394
0.104753 0.685658 0.111745
0.105342 0.686007 0.167095
0.105931 0.686357 0.222446
0.106520 0.686707 0.277796
0.107108 0.687057 0.333147
0.107697 0.687406 0.388497
0.108286 0.687756 0.443848
0.108875 0.688106 0.499198
0.109464 0.688456 0.554549
0.110053 0.688805 0.609899
0.110642 0.689155 0.665249
0.111230 0.689505 0.720600
0.111819 0.689854 0.775950
0.112408 0.690204 0.831301
0.112997 0.690554 0.886651
0.113586 0.690904 0.942002
0.109997 0.743972 0.057885
0.110586 0.744322 0.113235
0.111175 0.744672 0.168586
0.111764 0.745021 0.223936
0.112353 0.745371 0.279287
0.112941 0.745721 0.334637
0.113530 0.746071 0.389988
0.114119 0.746420 0.445338
0.114708 0.746770 0.500689
0.115297 0.747120 0.556039
0.115886 0.747470 0.611389
0.116475 0.747819 0.666740
0.117063 0.748169 0.722090
0.117652 0.748519 0.777441
0.118241 0.748869 0.832791
0.118830 0.749218 0.888142
0.119419 0.749568 0.943492
0.115830 0.802637 0.059375
0.116419 0.802986 0.114726
0.117008 0.803336 0.170076
0.117597 0.803686 0.225427
0.118186 0.804036 0.280777
0.118775 0.804385 0.336128
0.119363 0.804735 0.391478
0.119952 0.805085 0.446828
0.120541 0.805434 0.502179
0.121130 0.805784 0.557529
0.121719 0.806134 0.612880
0.122308 0.806484 0.668230
0.122897 0.806833 0.723581
0.123485 0.807183 0.778931
0.124074 0.807533 0.834282
0.124663 0.807883 0.889632
0.125252 0.808232 0.944983
0.121663 0.861301 0.060866
0.122252 0.861651 0.116216
0.122841 0.862000 0.171567
0.123430 0.862350 0.226917
0.124019 0.862700 0.282268
0.124608 0.863050 0.337618
0.125197 0.863399 0.392968
0.125785 0.863749 0.448319
0.126374 0.864099 0.503669
0.126963 0.864449 0.559020
0.127552 0.864798 0.614370
0.128141 0.865148 0.669721
0.128730 0.865498 0.725071
0.129319 0.865847 0.780422
0.129907 0.866197 0.835772
0.130496 0.866547 0.891123
0.131085 0.866897 0.946473
0.127497 0.919965 0.062356
0.128085 0.920315 0.117707
0.128674 0.920665 0.173057
0.129263 0.921015 0.228407
0.129852 0.921364 0.283758
0.130441 0.921714 0.339108
0.131030 0.922064 0.394459
0.131618 0.922413 0.449809
0.132207 0.922763 0.505160
0.132796 0.923113 0.560510
0.133385 0.923463 0.615861
0.133974 0.923812 0.671211
0.134563 0.924162 0.726562
0.135152 0.924512 0.781912
0.135740 0.924862 0.837262
0.136329 0.925211 0.892613
0.136918 0.925561 0.947963
0.133330 0.978630 0.063846
0.133918 0.978979 0.119197
0.134507 0.979329 0.174547
0.135096 0.979679 0.229898
0.135685 0.980029 0.285248
0.136274 0.980378 0.340599
0.136863 0.980728 0.395949
0.137452 0.981078 0.451300
0.138040 0.981428 0.506650
0.138629 0.981777 0.562001
0.139218 0.982127 0.617351
0.139807 0.982477 0.672702
0.140396 0.982826 0.728052
0.140985 0.983176 0.783402
0.141574 0.983526 0.838753
0.142162 0.983876 0.894103
0.142751 0.984225 0.949454
0.096934 0.041030 0.040443
0.097523 0.041380 0.095793
0.098112 0.041729 0.151144
0.098701 0.042079 0.206494
0.099289 0.042429 0.261845
0.099878 0.042778 0.317195
0.100467 0.043128 0.372546
0.101056 0.043478 0.427896
0.101645 0.043828 0.483247
0.102234 0.044177 0.538597
0.102823 0.044527 0.593948
0.103411 0.044877 0.649298
0.104000 0.045227 0.704649
0.104589 0.045576 0.759999
0.105178 0.045926 0.815349
0.105767 0.046276 0.870700
0.106356 0.046625 0.926050
0.102767 0.099694 0.041933
0.103356 0.100044 0.097284
0.103945 0.100394 0.152634
0.104534 0.100743 0.207985
0.105122 0.101093 0.263335
0.105711 0.101443 0.318686
0.106300 0.101793 0.374036
0.106889 0.102142 0.429387
0.107478 0.102492 0.484737
0.108067 0.102842 0.540088
0.108656 0.103191 0.595438
0.109244 0.103541 0.650788
0.109833 0.103891 0.706139
0.110422 0.104241 0.761489
0.111011 0.104590 0.816840
0.111600 0.104940 0.872190
0.112189 0.105290 0.927541
0.108600 0.158359 0.043424
0.109189 0.158708 0.098774
0.109778 0.159058 0.154125
0.110367 0.159408 0.209475
0.110956 0.159757 0.264826
0.111544 0.160107 0.320176
0.112133 0.160457 0.375527
0.112722 0.160807 0.430877
0.113311 0.161156 0.486228
0.113900 0.161506 0.541578
0.114489 0.161856 0.596928
0.115078 0.162206 0.652279
0.115666 0.162555 0.707629
0.116255 0.162905 0.762980
0.116844 0.163255 0.818330
0.117433 0.163604 0.873681
0.118022 0.163954 0.929031
0.114433 0.217023 0.044914
0.115022 0.217373 0.100265
0.115611 0.217722 0.155615
0.116200 0.218072 0.210966
0.116789 0.218422 0.266316
0.117378 0.218772 0.321667
0.117966 0.219121 0.377017
0.118555 0.219471 0.432367
0.119144 0.219821 0.487718
0.119733 0.220170 0.543068
0.120322 0.220520 0.598419
0.120911 0.220870 0.653769
0.121500 0.221220 0.709120
0.122088 0.221569 0.764470
0.122677 0.221919 0.819821
0.123266 0.222269 0.875171
0.123855 0.222619 0.930522
0.120266 0.275687 0.046405
0.120855 0.276037 0.101755
0.121444 0.276387 0.157106
0.122033 0.276736 0.212456
0.122622 0.277086 0.267806
0.123211 0.277436 0.323157
0.123799 0.277786 0.378507
0.124388 0.278135 0.433858
0.124977 0.278485 0.489208
0.125566 0.278835 0.544559
0.126155 0.279185 0.599909
0.126744 0.279534 0.655260
0.127333 0.279884 0.710610
0.127921 0.280234 0.765961
0.128510 0.280583 0.821311
0.129099 0.280933 0.876662
0.129688 0.281283 0.932012
0.126099 0.334352 0.047895
0.126688 0.334701 0.103246
0.127277 0.335051 0.158596
0.127866 0.335401 0.213946
0.128455 0.335751 0.269297
0.129044 0.336100 0.324647
0.129633 0.336450 0.379998
0.130221 0.336800 0.435348
0.130810 0.337149 0.490699
0.131399 0.337499 0.546049
0.131988 0.337849 0.601400
0.132577 0.338199 0.656750
0.133166 0.338548 0.712101
0.133755 0.338898 0.767451
0.134343 0.339248 0.822801
0.134932 0.339598 0.878152
0.135521 0.339947 0.933502
0.131933 0.393016 0.049385
0.132521 0.393366 0.104736
0.133110 0.393715 0.160086
0.133699 0.394065 0.215437
0.134288 0.394415 0.270787
0.134877 0.394765 0.326138
0.135466 0.395114 0.381488
0.136055 0.395464 0.436839
0.136643 0.395814 0.492189
0.137232 0.396164 0.547540
0.137821 0.396513 0.602890
0.138410 0.396863 0.658241
0.138999 0.397213 0.713591
0.139588 0.397562 0.768941
0.140177 0.397912 0.824292
0.140765 0.398262 0.879642
0.141354 0.398612 0.934993
0.137766 0.451680 0.050876
0.138355 0.452030 0.106226
0.138943 0.452380 0.161577
0.139532 0.452730 0.216927
0.140121 0.453079 0.272278
0.140710 0.453429 0.327628
0.141299 0.453779 0.382979
0.141888 0.454128 0.438329
0.142476 0.454478 0.493680
0.143065 0.454828 0.549030
0.143654 0.455178 0.604380
0.144243 0.455527 0.659731
0.144832 0.455877 0.715081
0.145421 0.456227 0.770432
0.146010 0.456577 0.825782
0.146598 0.456926 0.881133
0.147187 0.457276 0.936483
0.143599 0.510345 0.052366
0.144188 0.510694 0.107717
0.144776 0.511044 0.163067
0.145365 0.511394 0.218418
0.145954 0.511744 0.273768
0.146543 0.512093 0.329119
0.147132 0.512443 0.384469
0.147721 0.512793 0.439819
0.148310 0.513143 0.495170
0.148898 0.513492 0.550520
0.149487 0.513842 0.605871
0.150076 0.514192 0.661221
0.150665 0.514541 0.716572
0.151254 0.514891 0.771922
0.151843 0.515241 0.827273
0.152432 0.515591 0.882623
0.153020 0.515940 0.937974
0.149432 0.569009 0.053857
0.150021 0.569359 0.109207
0.150610 0.569708 0.164558
0.151198 0.570058 0.219908
0.151787 0.570408 0.275259
0.152376 0.570758 0.330609
0.152965 0.571107 0.385959
0.153554 0.571457 0.441310
0.154143 0.571807 0.496660
0.154732 0.572157 0.552011
0.155320 0.572506 0.607361
0.155909 0.572856 0.662712
0.156498 0.573206 0.718062
0.157087 0.573556 0.773413
0.157676 0.573905 0.828763
0.158265 0.574255 0.884114
0.158854 0.574605 0.939464
0.155265 0.627673 0.055347
0.155854 0.628023 0.110698
0.156443 0.628373 0.166048
0.157032 0.628723 0.221398
0.157620 0.629072 0.276749
0.158209 0.629422 0.332099
0.158798 0.629772 0.387450
0.159387 0.630121 0.442800
0.159976 0.630471 0.498151
0.160565 0.630821 0.553501
0.161154 0.631171 0.608852
0.161742 0.631520 0.664202
0.162331 0.631870 0.719553
0.162920 0.632220 0.774903
0.163509 0.632570 0.830254
0.164098 0.632919 0.885604
0.164687 0.633269 0.940954
0.161098 0.686338 0.056838
0.161687 0.686687 0.112188
0.162276 0.687037 0.167538
0.162865 0.687387 0.222889
0.163453 0.687737 0.278239
0.164042 0.688086 0.333590
0.164631 0.688436 0.388940
0.165220 0.688786 0.444291
0.165809 0.689136 0.499641
0.166398 0.689485 0.554992
0.166987 0.689835 0.610342
0.167575 0.690185 0.665693
0.168164 0.690535 0.721043
0.168753 0.690884 0.776393
0.169342 0.691234 0.831744
0.169931 0.691584 0.887094
0.170520 0.691933 0.942445
0.166931 0.745002 0.058328
0.167520 0.745352 0.113678
0.168109 0.745702 0.169029
0.168698 0.746051 0.224379
0.169287 0.746401 0.279730
0.169875 0.746751 0.335080
0.170464 0.747100 0.390431
0.171053 0.747450 0.445781
0.171642 0.747800 0.501132
0.172231 0.748150 0.556482
0.172820 0.748499 0.611832
0.173409 0.748849 0.667183
0.173997 0.749199 0.722533
0.174586 0.749549 0.777884
0.175175 0.749898 0.833234
0.175764 0.750248 0.888585
0.176353 0.750598 0.943935
0.172764 0.803666 0.059818
0.173353 0.804016 0.115169
0.173942 0.804366 0.170519
0.174531 0.804716 0.225870
0.175120 0.805065 0.281220
0.175709 0.805415 0.336571
0.176297 0.805765 0.391921
0.176886 0.806115 0.447272
0.177475 0.806464 0.502622
0.178064 0.806814 0.557972
0.178653 0.807164 0.613323
0.179242 0.807513 0.668673
0.179831 0.807863 0.724024
0.180419 0.808213 0.779374
0.181008 0.808563 0.834725
0.181597 0.808912 0.890075
0.182186 0.809262 0.945426
0.178597 0.862331 0.061309
0.179186 0.862681 0.116659
0.179775 0.863030 0.172010
0.180364 0.863380 0.227360
0.180953 0.863730 0.282711
0.181542 0.864079 0.338061
0.182130 0.864429 0.393411
0.182719 0.864779 0.448762
0.183308 0.865129 0.504112
0.183897 0.865478 0.559463
0.184486 0.865828 0.614813
0.185075 0.866178 0.670164
0.185664 0.866528 0.725514
0.186252 0.866877 0.780865
0.186841 0.867227 0.836215
0.187430 0.867577 0.891566
0.188019 0.867926 0.946916
0.184430 0.920995 0.062799
0.185019 0.921345 0.118150
0.185608 0.921695 0.173500
0.186197 0.922044 0.228850
0.186786 0.922394 0.284201
0.187375 0.922744 0.339551
0.187964 0.923094 0.394902
0.188552 0.923443 0.450252
0.189141 0.923793 0.505603
0.189730 0.924143 0.560953
0.190319 0.924492 0.616304
0.190908 0.924842 0.671654
0.191497 0.925192 0.727005
0.192086 0.925542 0.782355
0.192674 0.925891 0.837706
0.193263 0.926241 0.893056
0.193852 0.926591 0.948406
0.190264 0.979660 0.064290
0.190852 0.980009 0.119640
0.191441 0.980359 0.174990
0.192030 0.980709 0.230341
0.192619 0.981058 0.285691
0.193208 0.981408 0.341042
0.193797 0.981758 0.396392
0.194386 0.982108 0.451743
0.194974 0.982457 0.507093
0.195563 0.982807 0.562444
0.196152 0.983157 0.617794
0.196741 0.983507 0.673145
0.197330 0.983856 0.728495
0.197919 0.984206 0.783845
0.198508 0.984556 0.839196
0.199096 0.984905 0.894546
0.199685 0.985255 0.949897
0.153868 0.042060 0.040886
0.154457 0.042409 0.096237
0.155046 0.042759 0.151587
0.155634 0.043109 0.206937
0.156223 0.043459 0.262288
0.156812 0.043808 0.317638
0.157401 0.044158 0.372989
0.157990 0.044508 0.428339
0.158579 0.044857 0.483690
0.159168 0.045207 0.539040
0.159756 0.045557 0.594391
0.160345 0.045907 0.649741
0.160934 0.046256 0.705092
0.161523 0.046606 0.760442
0.162112 0.046956 0.815792
0.162701 0.047306 0.871143
0.163290 0.047655 0.926493
0.159701 0.100724 0.042376
0.160290 0.101074 0.097727
0.160879 0.101423 0.153077
0.161468 0.101773 0.208428
0.162056 0.102123 0.263778
0.162645 0.102473 0.319129
0.163234 0.102822 0.374479
0.163823 0.103172 0.429830
0.164412 0.103522 0.485180
0.165001 0.103872 0.540531
0.165590 0.104221 0.595881
0.166178 0.104571 0.651232
0.166767 0.104921 0.706582
0.167356 0.105270 0.761932
0.167945 0.105620 0.817283
0.168534 0.105970 0.872633
0.169123 0.106320 0.927984
0.165534 0.159388 0.043867
0.166123 0.159738 0.099217
0.166712 0.160088 0.154568
0.167301 0.160438 0.209918
0.167890 0.160787 0.265269
0.168478 0.161137 0.320619
0.169067 0.161487 0.375970
0.169656 0.161836 0.431320
0.170245 0.162186 0.486671
0.170834 0.162536 0.542021
0.171423 0.162886 0.597371
0.172012 0.163235 0.652722
0.172600 0.163585 0.708072
0.173189 0.163935 0.763423
0.173778 0.164285 0.818773
0.174367 0.164634 0.874124
0.174956 0.164984 0.929474
0.171367 0.218053 0.045357
0.171956 0.218402 0.100708
0.172545 0.218752 0.156058
0.173134 0.219102 0.211409
0.173723 0.219452 0.266759
0.174311 0.219801 0.322110
0.174900 0.220151 0.377460
0.175489 0.220501 0.432810
0.176078 0.220851 0.488161
0.176667 0.221200 0.543511
0.177256 0.221550 0.598862
0.177845 0.221900 0.654212
0.178433 0.222249 0.709563
0.179022 0.222599 0.764913
0.179611 0.222949 0.820264
0.180200 0.223299 0.875614
0.180789 0.223648 0.930965
0.177200 0.276717 0.046848
0.177789 0.277067 0.102198
0.178378 0.277417 0.157549
0.178967 0.277766 0.212899
0.179556 0.278116 0.268250
0.180145 0.278466 0.323600
0.180733 0.278815 0.378950
0.181322 0.279165 0.434301
0.181911 0.279515 0.489651
0.182500 0.279865 0.545002
0.183089 0.280214 0.600352
0.183678 0.280564 0.655703
0.184267 0.280914 0.711053
0.184855 0.281264 0.766404
0.185444 0.281613 0.821754
0.186033 0.281963 0.877105
0.186622 0.282313 0.932455
0.183033 0.335381 0.048338
0.183622 0.335731 0.103689
0.184211 0.336081 0.159039
0.184800 0.336431 0.214389
0.185389 0.336780 0.269740
0.185978 0.337130 0.325090
0.186567 0.337480 0.380441
0.187155 0.337830 0.435791
0.187744 0.338179 0.491142
0.188333 0.338529 0.546492
0.188922 0.338879 0.601843
0.189511 0.339228 0.657193
0.190100 0.339578 0.712544
0.190689 0.339928 0.767894
0.191277 0.340278 0.823245
0.191866 0.340627 0.878595
0.192455 0.340977 0.933945
0.188866 0.394046 0.049829
0.189455 0.394396 0.105179
0.190044 0.394745 0.160529
0.190633 0.395095 0.215880
0.191222 0.395445 0.271230
0.191811 0.395794 0.326581
0.192400 0.396144 0.381931
0.192988 0.396494 0.437282
0.193577 0.396844 0.492632
0.194166 0.397193 0.547983
0.194755 0.397543 0.603333
0.195344 0.397893 0.658684
0.195933 0.398243 0.714034
0.196522 0.398592 0.769384
0.197110 0.398942 0.824735
0.197699 0.399292 0.880085
0.198288 0.399641 0.935436
0.194700 0.452710 0.051319
0.195288 0.453060 0.106669
0.195877 0.453410 0.162020
0.196466 0.453759 0.217370
0.197055 0.454109 0.272721
0.197644 0.454459 0.328071
0.198233 0.454809 0.383422
0.198822 0.455158 0.438772
0.199410 0.455508 0.494123
0.199999 0.455858 0.549473
0.200588 0.456207 0.604823
0.201177 0.456557 0.660174
0.201766 0.456907 0.715524
0.202355 0.457257 0.770875
0.202944 0.457606 0.826225
0.203532 0.457956 0.881576
0.204121 0.458306 0.936926
0.200533 0.511374 0.052809
0.201122 0.511724 0.108160
0.201710 0.512074 0.163510
0.202299 0.512424 0.218861
0.202888 0.512773 0.274211
0.203477 0.513123 0.329562
0.204066 0.513473 0.384912
0.204655 0.513823 0.440263
0.205244 0.514172 0.495613
0.205832 0.514522 0.550963
0.206421 0.514872 0.606314
0.207010 0.515222 0.661664
0.207599 0.515571 0.717015
0.208188 0.515921 0.772365
0.208777 0.516271 0.827716
0.209366 0.516620 0.883066
0.209954 0.516970 0.938417
0.206366 0.570039 0.054300
0.206955 0.570389 0.109650
0.207544 0.570738 0.165001
0.208132 0.571088 0.220351
0.208721 0.571438 0.275702
0.209310 0.571787 0.331052
0.209899 0.572137 0.386402
0.210488 0.572487 0.441753
0.211077 0.572837 0.497103
0.211665 0.573186 0.552454
0.212254 0.573536 0.607804
0.212843 0.573886 0.663155
0.213432 0.574236 0.718505
0.214021 0.574585 0.773856
0.214610 0.574935 0.829206
0.215199 0.575285 0.884557
0.215787 0.575635 0.939907
0.212199 0.628703 0.055790
0.212788 0.629053 0.111141
0.213377 0.629403 0.166491
0.213965 0.629752 0.221842
0.214554 0.630102 0.277192
0.215143 0.630452 0.332542
0.215732 0.630802 0.387893
0.216321 0.631151 0.443243
0.216910 0.631501 0.498594
0.217499 0.631851 0.553944
0.218087 0.632201 0.609295
0.218676 0.632550 0.664645
0.219265 0.632900 0.719996
0.219854 0.633250 0.775346
0.220443 0.633599 0.830697
0.221032 0.633949 0.886047
0.221621 0.634299 0.941397
0.218032 0.687368 0.057281
0.218621 0.687717 0.112631
0.219210 0.688067 0.167981
0.219799 0.688417 0.223332
0.220387 0.688766 0.278682
0.220976 0.689116 0.334033
0.221565 0.689466 0.389383
0.222154 0.689816 0.444734
0.222743 0.690165 0.500084
0.223332 0.690515 0.555435
0.223921 0.690865 0.610785
0.224509 0.691215 0.666136
0.225098 0.691564 0.721486
0.225687 0.691914 0.776836
0.226276 0.692264 0.832187
0.226865 0.692614 0.887537
0.227454 0.692963 0.942888
0.223865 0.746032 0.058771
0.224454 0.746382 0.114121
0.225043 0.746731 0.169472
0.225632 0.747081 0.224822
0.226221 0.747431 0.280173
0.226809 0.747781 0.335523
0.227398 0.748130 0.390874
0.227987 0.748480 0.446224
0.228576 0.748830 0.501575
0.229165 0.749179 0.556925
0.229754 0.749529 0.612276
0.230343 0.749879 0.667626
0.230931 0.750229 0.722976
0.231520 0.750578 0.778327
0.232109 0.750928 0.833677
0.232698 0.751278 0.889028
0.233287 0.751628 0.944378
0.229698 0.804696 0.060261
0.230287 0.805046 0.115612
0.230876 0.805396 0.170962
0.231465 0.805745 0.226313
0.232054 0.806095 0.281663
0.232642 0.806445 0.337014
0.233231 0.806795 0.392364
0.233820 0.807144 0.447715
0.234409 0.807494 0.503065
0.234998 0.807844 0.558415
0.235587 0.808194 0.613766
0.236176 0.808543 0.669116
0.236764 0.808893 0.724467
0.237353 0.809243 0.779817
0.237942 0.809592 0.835168
0.238531 0.809942 0.890518
0.239120 0.810292 0.945869
0.235531 0.863361 0.061752
0.236120 0.863710 0.117102
0.236709 0.864060 0.172453
0.237298 0.864410 0.227803
0.237887 0.864760 0.283154
0.238476 0.865109 0.338504
0.239064 0.865459 0.393855
0.239653 0.865809 0.449205
0.240242 0.866158 0.504555
0.240831 0.866508 0.559906
0.241420 0.866858 0.615256
0.242009 0.867208 0.670607
0.242598 0.867557 0.725957
0.243186 0.867907 0.781308
0.243775 0.868257 0.836658
0.244364 0.868607 0.892009
0.244953 0.868956 0.947359
0.241364 0.922025 0.063242
0.241953 0.922375 0.118593
0.242542 0.922724 0.173943
0.243131 0.923074 0.229294
0.243720 0.923424 0.284644
0.244309 0.923774 0.339994
0.244898 0.924123 0.395345
0.245486 0.924473 0.450695
0.246075 0.924823 0.506046
0.246664 0.925173 0.561396
0.247253 0.925522 0.616747
0.247842 0.925872 0.672097
0.248431 0.926222 0.727448
0.249020 0.926571 0.782798
0.249608 0.926921 0.838149
0.250197 0.927271 0.893499
0.250786 0.927621 0.948849
0.247197 0.980689 0.064733
0.247786 0.981039 0.120083
0.248375 0.981389 0.175433
0.248964 0.981739 0.230784
0.249553 0.982088 0.286134
0.250142 0.982438 0.341485
0.250731 0.982788 0.396835
0.251319 0.983137 0.452186
0.251908 0.983487 0.507536
0.252497 0.983837 0.562887
0.253086 0.984187 0.618237
0.253675 0.984536 0.673588
0.254264 0.984886 0.728938
0.254853 0.985236 0.784289
0.255441 0.985586 0.839639
0.256030 0.985935 0.894989
0.256619 0.986285 0.950340
0.210802 0.043089 0.041329
0.211391 0.043439 0.096680
0.211980 0.043789 0.152030
0.212568 0.044139 0.207380
0.213157 0.044488 0.262731
0.213746 0.044838 0.318081
0.214335 0.045188 0.373432
0.214924 0.045538 0.428782
0.215513 0.045887 0.484133
0.216102 0.046237 0.539483
0.216690 0.046587 0.594834
0.217279 0.046936 0.650184
0.217868 0.047286 0.705535
0.218457 0.047636 0.760885
0.219046 0.047986 0.816236
0.219635 0.048335 0.871586
