assets/luts/warm-film.cube
# montage LUT: warm-film — 胶片暖调（复古/怀旧）（原创，MIT）
TITLE "montage warm film vintage"
LUT_3D_SIZE 9
DOMAIN_MIN 0.0 0.0 0.0
DOMAIN_MAX 1.0 1.0 1.0
0.040000 0.040000 0.040000
0.041178 0.040699 0.150701
0.042355 0.041399 0.261402
0.043533 0.042098 0.372103
0.044711 0.042798 0.482804
0.045889 0.043497 0.593505
0.047066 0.044197 0.704205
0.048244 0.044896 0.814906
0.049422 0.045596 0.925607
0.051666 0.157329 0.042981
0.052844 0.158028 0.153682
0.054022 0.158728 0.264383
0.055199 0.159427 0.375084
0.056377 0.160127 0.485784
0.057555 0.160826 0.596485
0.058732 0.161525 0.707186
0.059910 0.162225 0.817887
0.061088 0.162924 0.928588
0.063332 0.274657 0.045962
0.064510 0.275357 0.156663
0.065688 0.276056 0.267363
0.066866 0.276756 0.378064
0.068043 0.277455 0.488765
0.069221 0.278155 0.599466
0.070399 0.278854 0.710167
0.071576 0.279554 0.820868
0.072754 0.280253 0.931569
0.074999 0.391986 0.048942
0.076176 0.392686 0.159643
0.077354 0.393385 0.270344
0.078532 0.394085 0.381045
0.079709 0.394784 0.491746
0.080887 0.395483 0.602447
0.082065 0.396183 0.713148
0.083243 0.396882 0.823849
0.084420 0.397582 0.934550
0.086665 0.509315 0.051923
0.087843 0.510014 0.162624
0.089020 0.510714 0.273325
0.090198 0.511413 0.384026
0.091376 0.512113 0.494727
0.092553 0.512812 0.605428
0.093731 0.513512 0.716129
0.094909 0.514211 0.826830
0.096086 0.514911 0.937531
0.098331 0.626644 0.054904
0.099509 0.627343 0.165605
0.100686 0.628042 0.276306
0.101864 0.628742 0.387007
0.103042 0.629441 0.497708
0.104220 0.630141 0.608409
0.105397 0.630840 0.719110
0.106575 0.631540 0.829810
0.107753 0.632239 0.940511
0.109997 0.743972 0.057885
0.111175 0.744672 0.168586
0.112353 0.745371 0.279287
0.113530 0.746071 0.389988
0.114708 0.746770 0.500689
0.115886 0.747470 0.611389
0.117063 0.748169 0.722090
0.118241 0.748869 0.832791
0.119419 0.749568 0.943492
0.121663 0.861301 0.060866
0.122841 0.862000 0.171567
0.124019 0.862700 0.282268
0.125197 0.863399 0.392968
0.126374 0.864099 0.503669
0.127552 0.864798 0.614370
0.128730 0.865498 0.725071
0.129907 0.866197 0.835772
0.131085 0.866897 0.946473
0.133330 0.978630 0.063846
0.134507 0.979329 0.174547
0.135685 0.980029 0.285248
0.136863 0.980728 0.395949
0.138040 0.981428 0.506650
0.139218 0.982127 0.617351
0.140396 0.982826 0.728052
0.141574 0.983526 0.838753
0.142751 0.984225 0.949454
0.153868 0.042060 0.040886
0.155046 0.042759 0.151587
0.156223 0.043459 0.262288
0.157401 0.044158 0.372989
0.158579 0.044857 0.483690
0.159756 0.045557 0.594391
0.160934 0.046256 0.705092
0.162112 0.046956 0.815792
0.163290 0.047655 0.926493
0.165534 0.159388 0.043867
0.166712 0.160088 0.154568
0.167890 0.160787 0.265269
0.169067 0.161487 0.375970
0.170245 0.162186 0.486671
0.171423 0.162886 0.597371
0.172600 0.163585 0.708072
0.173778 0.164285 0.818773
0.174956 0.164984 0.929474
0.177200 0.276717 0.046848
0.178378 0.277417 0.157549
0.179556 0.278116 0.268250
0.180733 0.278815 0.378950
0.181911 0.279515 0.489651
0.183089 0.280214 0.600352
0.184267 0.280914 0.711053
0.185444 0.281613 0.821754
0.186622 0.282313 0.932455
0.188866 0.394046 0.049829
0.190044 0.394745 0.160529
0.191222 0.395445 0.271230
0.192400 0.396144 0.381931
0.193577 0.396844 0.492632
0.194755 0.397543 0.603333
0.195933 0.398243 0.714034
0.197110 0.398942 0.824735
0.198288 0.399641 0.935436
0.200533 0.511374 0.052809
0.201710 0.512074 0.163510
0.202888 0.512773 0.274211
0.204066 0.513473 0.384912
0.205244 0.514172 0.495613
0.206421 0.514872 0.606314
0.207599 0.515571 0.717015
0.208777 0.516271 0.827716
0.209954 0.516970 0.938417
0.212199 0.628703 0.055790
0.213377 0.629403 0.166491
0.214554 0.630102 0.277192
0.215732 0.630802 0.387893
0.216910 0.631501 0.498594
0.218087 0.632201 0.609295
0.219265 0.632900 0.719996
0.220443 0.633599 0.830697
0.221621 0.634299 0.941397
0.223865 0.746032 0.058771
0.225043 0.746731 0.169472
0.226221 0.747431 0.280173
0.227398 0.748130 0.390874
0.228576 0.748830 0.501575
0.229754 0.749529 0.612276
0.230931 0.750229 0.722976
0.232109 0.750928 0.833677
0.233287 0.751628 0.944378
0.235531 0.863361 0.061752
0.236709 0.864060 0.172453
0.237887 0.864760 0.283154
0.239064 0.865459 0.393855
0.240242 0.866158 0.504555
0.241420 0.866858 0.615256
0.242598 0.867557 0.725957
0.243775 0.868257 0.836658
0.244953 0.868956 0.947359
0.247197 0.980689 0.064733
0.248375 0.981389 0.175433
0.249553 0.982088 0.286134
0.250731 0.982788 0.396835
0.251908 0.983487 0.507536
0.253086 0.984187 0.618237
0.254264 0.984886 0.728938
0.255441 0.985586 0.839639
0.256619 0.986285 0.950340
0.267736 0.044119 0.041772
0.268913 0.044819 0.152473
0.270091 0.045518 0.263174
0.271269 0.046218 0.373875
0.272447 0.046917 0.484576
0.273624 0.047617 0.595277
0.274802 0.048316 0.705978
0.275980 0.049015 0.816679
0.277157 0.049715 0.927379
0.279402 0.161448 0.044753
0.280580 0.162147 0.155454
0.281757 0.162847 0.266155
0.282935 0.163546 0.376856
0.284113 0.164246 0.487557
0.285291 0.164945 0.598258
0.286468 0.165645 0.708958
0.287646 0.166344 0.819659
0.288824 0.167044 0.930360
0.291068 0.278777 0.047734
0.292246 0.279476 0.158435
0.293424 0.280176 0.269136
0.294601 0.280875 0.379837
0.295779 0.281575 0.490537
0.296957 0.282274 0.601238
0.298134 0.282973 0.711939
0.299312 0.283673 0.822640
0.300490 0.284372 0.933341
0.302734 0.396105 0.050715
0.303912 0.396805 0.161415
0.305090 0.397504 0.272116
0.306268 0.398204 0.382817
0.307445 0.398903 0.493518
0.308623 0.399603 0.604219
0.309801 0.400302 0.714920
0.310978 0.401002 0.825621
0.312156 0.401701 0.936322
0.314401 0.513434 0.053695
0.315578 0.514134 0.164396
0.316756 0.514833 0.275097
0.317934 0.515532 0.385798
0.319111 0.516232 0.496499
0.320289 0.516931 0.607200
0.321467 0.517631 0.717901
0.322645 0.518330 0.828602
0.323822 0.519030 0.939303
0.326067 0.630763 0.056676
0.327244 0.631462 0.167377
0.328422 0.632162 0.278078
0.329600 0.632861 0.388779
0.330778 0.633561 0.499480
0.331955 0.634260 0.610181
0.333133 0.634960 0.720882
0.334311 0.635659 0.831583
0.335488 0.636359 0.942284
0.337733 0.748092 0.059657
0.338911 0.748791 0.170358
0.340088 0.749490 0.281059
0.341266 0.750190 0.391760
0.342444 0.750889 0.502461
0.343622 0.751589 0.613162
0.344799 0.752288 0.723863
0.345977 0.752988 0.834563
0.347155 0.753687 0.945264
0.349399 0.865420 0.062638
0.350577 0.866120 0.173339
0.351755 0.866819 0.284040
0.352932 0.867519 0.394741
0.354110 0.868218 0.505441
0.355288 0.868918 0.616142
0.356465 0.869617 0.726843
0.357643 0.870316 0.837544
0.358821 0.871016 0.948245
0.361065 0.982749 0.065619
0.362243 0.983448 0.176320
0.363421 0.984148 0.287020
0.364599 0.984847 0.397721
0.365776 0.985547 0.508422
0.366954 0.986246 0.619123
0.368132 0.986946 0.729824
0.369309 0.987645 0.840525
0.370487 0.988345 0.951226
0.381604 0.046179 0.042658
0.382781 0.046878 0.153359
0.383959 0.047578 0.264060
0.385137 0.048277 0.374761
0.386315 0.048977 0.485462
0.387492 0.049676 0.596163
0.388670 0.050376 0.706864
0.389848 0.051075 0.817565
0.391025 0.051775 0.928266
0.393270 0.163508 0.045639
0.394448 0.164207 0.156340
0.395625 0.164907 0.267041
0.396803 0.165606 0.377742
0.397981 0.166305 0.488443
0.399158 0.167005 0.599144
0.400336 0.167704 0.709845
0.401514 0.168404 0.820545
0.402692 0.169103 0.931246
0.404936 0.280836 0.048620
0.406114 0.281536 0.159321
0.407291 0.282235 0.270022
0.408469 0.282935 0.380723
0.409647 0.283634 0.491424
0.410825 0.284334 0.602124
0.412002 0.285033 0.712825
0.413180 0.285733 0.823526
0.414358 0.286432 0.934227
0.416602 0.398165 0.051601
0.417780 0.398864 0.162302
0.418958 0.399564 0.273002
0.420135 0.400263 0.383703
0.421313 0.400963 0.494404
0.422491 0.401662 0.605105
0.423669 0.402362 0.715806
0.424846 0.403061 0.826507
0.426024 0.403761 0.937208
0.428268 0.515494 0.054581
0.429446 0.516193 0.165282
0.430624 0.516893 0.275983
0.431802 0.517592 0.386684
0.432979 0.518292 0.497385
0.434157 0.518991 0.608086
0.435335 0.519690 0.718787
0.436512 0.520390 0.829488
0.437690 0.521089 0.940189
0.439935 0.632822 0.057562
0.441112 0.633522 0.168263
0.442290 0.634221 0.278964
0.443468 0.634921 0.389665
0.444646 0.635620 0.500366
0.445823 0.636320 0.611067
0.447001 0.637019 0.721768
0.448179 0.637719 0.832469
0.449356 0.638418 0.943170
0.451601 0.750151 0.060543
0.452779 0.750851 0.171244
0.453956 0.751550 0.281945
0.455134 0.752250 0.392646
0.456312 0.752949 0.503347
0.457489 0.753648 0.614048
0.458667 0.754348 0.724749
0.459845 0.755047 0.835450
0.461023 0.755747 0.946150
0.463267 0.867480 0.063524
0.464445 0.868179 0.174225
0.465622 0.868879 0.284926
0.466800 0.869578 0.395627
0.467978 0.870278 0.506328
0.469156 0.870977 0.617028
0.470333 0.871677 0.727729
0.471511 0.872376 0.838430
0.472689 0.873076 0.949131
0.474933 0.984809 0.066505
0.476111 0.985508 0.177206
0.477289 0.986208 0.287907
0.478466 0.986907 0.398607
0.479644 0.987606 0.509308
0.480822 0.988306 0.620009
0.482000 0.989005 0.730710
0.483177 0.989705 0.841411
0.484355 0.990404 0.952112
0.495472 0.048239 0.043544
0.496649 0.048938 0.154245
0.497827 0.049637 0.264946
0.499005 0.050337 0.375647
0.500182 0.051036 0.486348
0.501360 0.051736 0.597049
0.502538 0.052435 0.707750
0.503716 0.053135 0.818451
0.504893 0.053834 0.929152
0.507138 0.165567 0.046525
0.508315 0.166267 0.157226
0.509493 0.166966 0.267927
0.510671 0.167666 0.378628
0.511849 0.168365 0.489329
0.513026 0.169065 0.600030
0.514204 0.169764 0.710731
0.515382 0.170463 0.821432
0.516559 0.171163 0.932132
0.518804 0.282896 0.049506
0.519982 0.283595 0.160207
0.521159 0.284295 0.270908
0.522337 0.284994 0.381609
0.523515 0.285694 0.492310
0.524693 0.286393 0.603010
0.525870 0.287093 0.713711
0.527048 0.287792 0.824412
0.528226 0.288492 0.935113
0.530470 0.400225 0.052487
0.531648 0.400924 0.163188
0.532826 0.401624 0.273889
0.534003 0.402323 0.384589
0.535181 0.403022 0.495290
0.536359 0.403722 0.605991
0.537536 0.404421 0.716692
0.538714 0.405121 0.827393
0.539892 0.405820 0.938094
0.542136 0.517553 0.055468
0.543314 0.518253 0.166168
0.544492 0.518952 0.276869
0.545669 0.519652 0.387570
0.546847 0.520351 0.498271
0.548025 0.521051 0.608972
0.549203 0.521750 0.719673
0.550380 0.522450 0.830374
0.551558 0.523149 0.941075
0.553803 0.634882 0.058448
0.554980 0.635582 0.169149
0.556158 0.636281 0.279850
0.557336 0.636980 0.390551
0.558513 0.637680 0.501252
0.559691 0.638379 0.611953
0.560869 0.639079 0.722654
0.562047 0.639778 0.833355
0.563224 0.640478 0.944056
0.565469 0.752211 0.061429
0.566646 0.752910 0.172130
0.567824 0.753610 0.282831
0.569002 0.754309 0.393532
0.570180 0.755009 0.504233
0.571357 0.755708 0.614934
0.572535 0.756408 0.725635
0.573713 0.757107 0.836336
0.574890 0.757806 0.947036
0.577135 0.869540 0.064410
0.578313 0.870239 0.175111
0.579490 0.870938 0.285812
0.580668 0.871638 0.396513
0.581846 0.872337 0.507214
0.583024 0.873037 0.617915
0.584201 0.873736 0.728615
0.585379 0.874436 0.839316
0.586557 0.875135 0.950017
0.588801 0.986868 0.067391
0.589979 0.987568 0.178092
0.591157 0.988267 0.288793
0.592334 0.988967 0.399494
0.593512 0.989666 0.510194
0.594690 0.990366 0.620895
0.595867 0.991065 0.731596
0.597045 0.991764 0.842297
0.598223 0.992464 0.952998
0.609339 0.050298 0.044430
0.610517 0.050998 0.155131
0.611695 0.051697 0.265832
0.612873 0.052397 0.376533
0.614050 0.053096 0.487234
0.615228 0.053795 0.597935
0.616406 0.054495 0.708636
0.617583 0.055194 0.819337
0.618761 0.055894 0.930038
0.621006 0.167627 0.047411
0.622183 0.168326 0.158112
0.623361 0.169026 0.268813
0.624539 0.169725 0.379514
0.625716 0.170425 0.490215
0.626894 0.171124 0.600916
0.628072 0.171824 0.711617
0.629250 0.172523 0.822318
0.630427 0.173223 0.933019
0.632672 0.284956 0.050392
0.633850 0.285655 0.161093
0.635027 0.286354 0.271794
0.636205 0.287054 0.382495
0.637383 0.287753 0.493196
0.638560 0.288453 0.603897
0.639738 0.289152 0.714597
0.640916 0.289852 0.825298
0.642094 0.290551 0.935999
0.644338 0.402284 0.053373
0.645516 0.402984 0.164074
0.646693 0.403683 0.274775
0.647871 0.404383 0.385476
0.649049 0.405082 0.496176
0.650227 0.405782 0.606877
0.651404 0.406481 0.717578
0.652582 0.407180 0.828279
0.653760 0.407880 0.938980
0.656004 0.519613 0.056354
0.657182 0.520312 0.167055
0.658360 0.521012 0.277755
0.659537 0.521711 0.388456
0.660715 0.522411 0.499157
0.661893 0.523110 0.609858
0.663071 0.523810 0.720559
0.664248 0.524509 0.831260
0.665426 0.525209 0.941961
0.667670 0.636942 0.059334
0.668848 0.637641 0.170035
0.670026 0.638341 0.280736
0.671204 0.639040 0.391437
0.672381 0.639740 0.502138
0.673559 0.640439 0.612839
0.674737 0.641138 0.723540
0.675914 0.641838 0.834241
0.677092 0.642537 0.944942
0.679337 0.754270 0.062315
0.680514 0.754970 0.173016
0.681692 0.755669 0.283717
0.682870 0.756369 0.394418
0.684047 0.757068 0.505119
0.685225 0.757768 0.615820
0.686403 0.758467 0.726521
0.687581 0.759167 0.837222
0.688758 0.759866 0.947923
0.691003 0.871599 0.065296
0.692181 0.872299 0.175997
0.693358 0.872998 0.286698
0.694536 0.873698 0.397399
0.695714 0.874397 0.508100
0.696891 0.875096 0.618801
0.698069 0.875796 0.729502
0.699247 0.876495 0.840202
0.700425 0.877195 0.950903
0.702669 0.988928 0.068277
0.703847 0.989627 0.178978
0.705024 0.990327 0.289679
0.706202 0.991026 0.400380
0.707380 0.991726 0.511081
0.708558 0.992425 0.621781
0.709735 0.993125 0.732482
0.710913 0.993824 0.843183
0.712091 0.994524 0.953884
0.723207 0.052358 0.045316
0.724385 0.053057 0.156017
0.725563 0.053757 0.266718
0.726740 0.054456 0.377419
0.727918 0.055156 0.488120
0.729096 0.055855 0.598821
0.730274 0.056555 0.709522
0.731451 0.057254 0.820223
0.732629 0.057953 0.930924
0.734874 0.169686 0.048297
0.736051 0.170386 0.158998
0.737229 0.171085 0.269699
0.738407 0.171785 0.380400
0.739584 0.172484 0.491101
0.740762 0.173184 0.601802
0.741940 0.173883 0.712503
0.743118 0.174583 0.823204
0.744295 0.175282 0.933905
0.746540 0.287015 0.051278
0.747717 0.287715 0.161979
0.748895 0.288414 0.272680
0.750073 0.289114 0.383381
0.751251 0.289813 0.494082
0.752428 0.290512 0.604783
0.753606 0.291212 0.715484
0.754784 0.291911 0.826184
0.755961 0.292611 0.936885
0.758206 0.404344 0.054259
0.759384 0.405043 0.164960
0.760561 0.405743 0.275661
0.761739 0.406442 0.386362
0.762917 0.407142 0.497063
0.764094 0.407841 0.607763
0.765272 0.408541 0.718464
0.766450 0.409240 0.829165
0.767628 0.409940 0.939866
0.769872 0.521673 0.057240
0.771050 0.522372 0.167941
0.772228 0.523072 0.278642
0.773405 0.523771 0.389342
0.774583 0.524470 0.500043
0.775761 0.525170 0.610744
0.776938 0.525869 0.721445
0.778116 0.526569 0.832146
0.779294 0.527268 0.942847
0.781538 0.639001 0.060221
0.782716 0.639701 0.170921
0.783894 0.640400 0.281622
0.785071 0.641100 0.392323
0.786249 0.641799 0.503024
0.787427 0.642499 0.613725
0.788605 0.643198 0.724426
0.789782 0.643898 0.835127
0.790960 0.644597 0.945828
0.793205 0.756330 0.063201
0.794382 0.757030 0.173902
0.795560 0.757729 0.284603
0.796738 0.758428 0.395304
0.797915 0.759128 0.506005
0.799093 0.759827 0.616706
0.800271 0.760527 0.727407
0.801449 0.761226 0.838108
0.802626 0.761926 0.948809
0.804871 0.873659 0.066182
0.806048 0.874358 0.176883
0.807226 0.875058 0.287584
0.808404 0.875757 0.398285
0.809582 0.876457 0.508986
0.810759 0.877156 0.619687
0.811937 0.877856 0.730388
0.813115 0.878555 0.841089
0.814292 0.879254 0.951789
0.816537 0.990987 0.069163
0.817715 0.991687 0.179864
0.818892 0.992386 0.290565
0.820070 0.993086 0.401266
0.821248 0.993785 0.511967
0.822425 0.994485 0.622668
0.823603 0.995184 0.733368
0.824781 0.995884 0.844069
0.825959 0.996583 0.954770
0.837075 0.054417 0.046203
0.838253 0.055117 0.156903
0.839431 0.055816 0.267604
0.840608 0.056516 0.378305
0.841786 0.057215 0.489006
0.842964 0.057915 0.599707
0.844141 0.058614 0.710408
0.845319 0.059314 0.821109
0.846497 0.060013 0.931810
0.848741 0.171746 0.049183
0.849919 0.172446 0.159884
0.851097 0.173145 0.270585
0.852275 0.173844 0.381286
0.853452 0.174544 0.491987
0.854630 0.175243 0.602688
0.855808 0.175943 0.713389
0.856985 0.176642 0.824090
0.858163 0.177342 0.934791
0.860408 0.289075 0.052164
0.861585 0.289774 0.162865
0.862763 0.290474 0.273566
0.863941 0.291173 0.384267
0.865118 0.291873 0.494968
0.866296 0.292572 0.605669
0.867474 0.293272 0.716370
0.868652 0.293971 0.827071
0.869829 0.294670 0.937771
0.872074 0.406404 0.055145
0.873252 0.407103 0.165846
0.874429 0.407802 0.276547
0.875607 0.408502 0.387248
0.876785 0.409201 0.497949
0.877962 0.409901 0.608650
0.879140 0.410600 0.719350
0.880318 0.411300 0.830051
0.881496 0.411999 0.940752
0.883740 0.523732 0.058126
0.884918 0.524432 0.168827
0.886095 0.525131 0.279528
0.887273 0.525831 0.390229
0.888451 0.526530 0.500929
0.889629 0.527230 0.611630
0.890806 0.527929 0.722331
0.891984 0.528628 0.833032
0.893162 0.529328 0.943733
0.895406 0.641061 0.061107
0.896584 0.641760 0.171807
0.897762 0.642460 0.282508
0.898939 0.643159 0.393209
0.900117 0.643859 0.503910
0.901295 0.644558 0.614611
0.902472 0.645258 0.725312
0.903650 0.645957 0.836013
0.904828 0.646657 0.946714
0.907072 0.758390 0.064087
0.908250 0.759089 0.174788
0.909428 0.759789 0.285489
0.910606 0.760488 0.396190
0.911783 0.761188 0.506891
0.912961 0.761887 0.617592
0.914139 0.762586 0.728293
0.915316 0.763286 0.838994
0.916494 0.763985 0.949695
0.918739 0.875718 0.067068
0.919916 0.876418 0.177769
0.921094 0.877117 0.288470
0.922272 0.877817 0.399171
0.923449 0.878516 0.509872
0.924627 0.879216 0.620573
0.925805 0.879915 0.731274
0.926983 0.880615 0.841975
0.928160 0.881314 0.952676
0.930405 0.993047 0.070049
0.931583 0.993747 0.180750
0.932760 0.994446 0.291451
0.933938 0.995145 0.402152
0.935116 0.995845 0.512853
0.936293 0.996544 0.623554
0.937471 0.997244 0.734255
0.938649 0.997943 0.844955
0.939827 0.998643 0.955656
0.950943 0.056477 0.047089
0.952121 0.057176 0.157790
0.953299 0.057876 0.268490
0.954476 0.058575 0.379191
0.955654 0.059275 0.489892
0.956832 0.059974 0.600593
0.958009 0.060674 0.711294
0.959187 0.061373 0.821995
0.960365 0.062073 0.932696
0.962609 0.173806 0.050069
0.963787 0.174505 0.160770
0.964965 0.175205 0.271471
0.966142 0.175904 0.382172
0.967320 0.176604 0.492873
0.968498 0.177303 0.603574
0.969676 0.178002 0.714275
0.970853 0.178702 0.824976
0.972031 0.179401 0.935677
0.974276 0.291134 0.053050
0.975453 0.291834 0.163751
0.976631 0.292533 0.274452
0.977809 0.293233 0.385153
0.978986 0.293932 0.495854
0.980164 0.294632 0.606555
0.981342 0.295331 0.717256
0.982519 0.296031 0.827957
0.983697 0.296730 0.938658
0.985942 0.408463 0.056031
0.987119 0.409163 0.166732
0.988297 0.409862 0.277433
0.989475 0.410562 0.388134
0.990653 0.411261 0.498835
0.991830 0.411960 0.609536
0.993008 0.412660 0.720237
0.994186 0.413359 0.830937
0.995363 0.414059 0.941638
0.997608 0.525792 0.059012
0.998786 0.526491 0.169713
0.999963 0.527191 0.280414
1.000000 0.527890 0.391115
1.000000 0.528590 0.501816
1.000000 0.529289 0.612516
1.000000 0.529989 0.723217
1.000000 0.530688 0.833918
1.000000 0.531388 0.944619
1.000000 0.643121 0.061993
1.000000 0.643820 0.172694
1.000000 0.644520 0.283394
1.000000 0.645219 0.394095
1.000000 0.645918 0.504796
1.000000 0.646618 0.615497
1.000000 0.647317 0.726198
1.000000 0.648017 0.836899
1.000000 0.648716 0.947600
1.000000 0.760449 0.064973
1.000000 0.761149 0.175674
1.000000 0.761848 0.286375
1.000000 0.762548 0.397076
1.000000 0.763247 0.507777
1.000000 0.763947 0.618478
1.000000 0.764646 0.729179
1.000000 0.765346 0.839880
1.000000 0.766045 0.950581
1.000000 0.877778 0.067954
1.000000 0.878477 0.178655
1.000000 0.879177 0.289356
1.000000 0.879876 0.400057
1.000000 0.880576 0.510758
1.000000 0.881275 0.621459
1.000000 0.881975 0.732160
1.000000 0.882674 0.842861
1.000000 0.883374 0.953562
1.000000 0.995107 0.070935
1.000000 0.995806 0.181636
1.000000 0.996506 0.292337
1.000000 0.997205 0.403038
1.000000 0.997905 0.513739
1.000000 0.998604 0.624440
1.000000 0.999303 0.735141
1.000000 1.000000 0.845841
1.000000 1.000000 0.956542
