assets/luts/warm-film.cube
# montage LUT: warm-film — 胶片暖调（复古/怀旧）（原创，MIT）
TITLE "montage warm film vintage"
LUT_3D_SIZE 5
DOMAIN_MIN 0.0 0.0 0.0
DOMAIN_MAX 1.0 1.0 1.0
0.040000 0.040000 0.040000
0.042355 0.041399 0.261402
0.044711 0.042798 0.482804
0.047066 0.044197 0.704205
0.049422 0.045596 0.925607
0.063332 0.274657 0.045962
0.065688 0.276056 0.267363
0.068043 0.277455 0.488765
0.070399 0.278854 0.710167
0.072754 0.280253 0.931569
0.086665 0.509315 0.051923
0.089020 0.510714 0.273325
0.091376 0.512113 0.494727
0.093731 0.513512 0.716129
0.096086 0.514911 0.937531
0.109997 0.743972 0.057885
0.112353 0.745371 0.279287
0.114708 0.746770 0.500689
0.117063 0.748169 0.722090
0.119419 0.749568 0.943492
0.133330 0.978630 0.063846
0.135685 0.980029 0.285248
0.138040 0.981428 0.506650
0.140396 0.982826 0.728052
0.142751 0.984225 0.949454
0.267736 0.044119 0.041772
0.270091 0.045518 0.263174
0.272447 0.046917 0.484576
0.274802 0.048316 0.705978
0.277157 0.049715 0.927379
0.291068 0.278777 0.047734
0.293424 0.280176 0.269136
0.295779 0.281575 0.490537
0.298134 0.282973 0.711939
0.300490 0.284372 0.933341
0.314401 0.513434 0.053695
0.316756 0.514833 0.275097
0.319111 0.516232 0.496499
0.321467 0.517631 0.717901
0.323822 0.519030 0.939303
0.337733 0.748092 0.059657
0.340088 0.749490 0.281059
0.342444 0.750889 0.502461
0.344799 0.752288 0.723863
0.347155 0.753687 0.945264
0.361065 0.982749 0.065619
0.363421 0.984148 0.287020
0.365776 0.985547 0.508422
0.368132 0.986946 0.729824
0.370487 0.988345 0.951226
0.495472 0.048239 0.043544
0.497827 0.049637 0.264946
0.500182 0.051036 0.486348
0.502538 0.052435 0.707750
0.504893 0.053834 0.929152
0.518804 0.282896 0.049506
0.521159 0.284295 0.270908
0.523515 0.285694 0.492310
0.525870 0.287093 0.713711
0.528226 0.288492 0.935113
0.542136 0.517553 0.055468
0.544492 0.518952 0.276869
0.546847 0.520351 0.498271
0.549203 0.521750 0.719673
0.551558 0.523149 0.941075
0.565469 0.752211 0.061429
0.567824 0.753610 0.282831
0.570180 0.755009 0.504233
0.572535 0.756408 0.725635
0.574890 0.757806 0.947036
0.588801 0.986868 0.067391
0.591157 0.988267 0.288793
0.593512 0.989666 0.510194
0.595867 0.991065 0.731596
0.598223 0.992464 0.952998
0.723207 0.052358 0.045316
0.725563 0.053757 0.266718
0.727918 0.055156 0.488120
0.730274 0.056555 0.709522
0.732629 0.057953 0.930924
0.746540 0.287015 0.051278
0.748895 0.288414 0.272680
0.751251 0.289813 0.494082
0.753606 0.291212 0.715484
0.755961 0.292611 0.936885
0.769872 0.521673 0.057240
0.772228 0.523072 0.278642
0.774583 0.524470 0.500043
0.776938 0.525869 0.721445
0.779294 0.527268 0.942847
0.793205 0.756330 0.063201
0.795560 0.757729 0.284603
0.797915 0.759128 0.506005
0.800271 0.760527 0.727407
0.802626 0.761926 0.948809
0.816537 0.990987 0.069163
0.818892 0.992386 0.290565
0.821248 0.993785 0.511967
0.823603 0.995184 0.733368
0.825959 0.996583 0.954770
0.950943 0.056477 0.047089
0.953299 0.057876 0.268490
0.955654 0.059275 0.489892
0.958009 0.060674 0.711294
0.960365 0.062073 0.932696
0.974276 0.291134 0.053050
0.976631 0.292533 0.274452
0.978986 0.293932 0.495854
0.981342 0.295331 0.717256
0.983697 0.296730 0.938658
0.997608 0.525792 0.059012
0.999963 0.527191 0.280414
1.000000 0.528590 0.501816
1.000000 0.529989 0.723217
1.000000 0.531388 0.944619
1.000000 0.760449 0.064973
1.000000 0.761848 0.286375
1.000000 0.763247 0.507777
1.000000 0.764646 0.729179
1.000000 0.766045 0.950581
1.000000 0.995107 0.070935
1.000000 0.996506 0.292337
1.000000 0.997905 0.513739
1.000000 0.999303 0.735141
1.000000 1.000000 0.956542
